;-- START GCODE --
;Sliced for Type A Machines Series 1
;Sliced at: Sat 17-09-2016 17:23:34
;Basic settings:
; Layer height: 0.2
; Walls: 1
; Fill: 8
; Print Speed: 60
; Support: 0
; Retraction Speed: 35
; Retraction Distance: 0.4
;Print time: 21 minutes
;Filament used: 0.883m 2.0g
;Settings based on: Type A Machines Everyday PLA
G21        ;metric values
G90        ;absolute positioning
G28     ;move to endstops
G29		;allows for auto-levelling
G1 Z15.0 F12000 ;move the platform down 15mm
G1 X150 Y5 F12000 ;center
M140 S75 ;Prep Heat Bed
M109 S220 ;Heat To temp
M190 S75 ;Heat Bed to temp
G1 X150 Y5 Z0.3 ;move the platform to purge extrusion
G92 E0 ;zero the extruded length
G1 F200 X250 E30 ;extrude 30mm of feed stock
G92 E0 ;zero the extruded length again
G1 X150 Y150  Z25 F12000 ;recenter and begin
G1 F12000

;Layer count: 44
;LAYER:0
M107
G0 F12000 X77.810 Y147.286 Z0.200
;TYPE:SKIRT
G1 F1800 X78.849 Y146.792 E0.04783
G1 X79.939 Y146.414 E0.09580
G1 X81.061 Y146.160 E0.14362
G1 X82.201 Y146.028 E0.19134
G1 X83.360 Y146.023 E0.23952
G1 X84.509 Y146.148 E0.28757
G1 X85.634 Y146.395 E0.33546
G1 X86.725 Y146.767 E0.38338
G1 X87.769 Y147.254 E0.43128
G1 X88.753 Y147.855 E0.47921
G1 X89.666 Y148.559 E0.52715
G1 X90.493 Y149.358 E0.57495
G1 X91.138 Y150.132 E0.61684
G1 X91.325 Y150.382 E0.62982
G1 X91.872 Y151.222 E0.67150
G1 X92.390 Y152.238 E0.71891
G1 X92.798 Y153.314 E0.76675
G1 X93.086 Y154.430 E0.81467
G1 X93.249 Y155.572 E0.86263
G1 X93.278 Y156.471 E0.90003
G1 X93.287 Y156.777 E0.91275
G1 X93.195 Y157.884 E0.95894
G1 X92.980 Y159.010 E1.00660
G1 X92.641 Y160.106 E1.05429
G1 X92.186 Y161.163 E1.10214
G1 X91.609 Y162.171 E1.15042
G1 X90.930 Y163.102 E1.19833
G1 X90.157 Y163.949 E1.24601
G1 X89.291 Y164.712 E1.29399
G1 X88.344 Y165.375 E1.34205
G1 X87.333 Y165.929 E1.38998
G1 X86.933 Y166.094 E1.40797
G1 X86.933 Y167.763 E1.47736
G1 X82.821 Y167.081 E1.65065
G1 X78.703 Y167.767 E1.82422
G1 X78.703 Y166.096 E1.89369
G1 X78.365 Y165.960 E1.90884
G1 X77.345 Y165.410 E1.95702
G1 X76.395 Y164.752 E2.00506
G1 X75.527 Y163.997 E2.05289
G1 X74.745 Y163.152 E2.10076
G1 X74.059 Y162.221 E2.14884
G1 X73.482 Y161.223 E2.19676
G1 X73.018 Y160.171 E2.24457
G1 X72.672 Y159.072 E2.29247
G1 X72.448 Y157.940 E2.34044
G1 X72.362 Y156.918 E2.38308
G1 X72.353 Y156.615 E2.39569
G1 X72.381 Y155.635 E2.43645
G1 X72.534 Y154.500 E2.48406
G1 X72.816 Y153.374 E2.53232
G1 X73.219 Y152.295 E2.58021
G1 X73.735 Y151.268 E2.62799
G1 X74.364 Y150.299 E2.67602
G1 X75.098 Y149.405 E2.72411
G1 X75.922 Y148.602 E2.77195
G1 X76.827 Y147.893 E2.81974
G1 X77.810 Y147.286 E2.86778
G0 F12000 X78.049 Y147.726
G1 F1800 X79.039 Y147.255 E2.91336
G1 X80.077 Y146.895 E2.95903
G1 X81.146 Y146.653 E3.00460
G1 X82.231 Y146.528 E3.05001
G1 X83.334 Y146.523 E3.09587
G1 X84.428 Y146.642 E3.14162
G1 X85.499 Y146.877 E3.18720
G1 X86.538 Y147.231 E3.23284
G1 X87.533 Y147.695 E3.27848
G1 X88.469 Y148.267 E3.32409
G1 X89.338 Y148.937 E3.36971
G1 X90.126 Y149.699 E3.41528
G1 X90.745 Y150.443 E3.45552
G1 X90.915 Y150.669 E3.46728
G1 X91.439 Y151.472 E3.50714
G1 X91.933 Y152.441 E3.55236
G1 X92.321 Y153.465 E3.59789
G1 X92.595 Y154.528 E3.64353
G1 X92.750 Y155.616 E3.68922
G1 X92.778 Y156.486 E3.72541
G1 X92.786 Y156.764 E3.73697
G1 X92.699 Y157.816 E3.78086
G1 X92.494 Y158.889 E3.82627
G1 X92.171 Y159.933 E3.87171
G1 X91.738 Y160.939 E3.91724
G1 X91.189 Y161.899 E3.96322
G1 X90.542 Y162.785 E4.00883
G1 X89.806 Y163.592 E4.05424
G1 X88.981 Y164.319 E4.09996
G1 X88.080 Y164.949 E4.14566
G1 X87.117 Y165.477 E4.19132
G1 X86.433 Y165.758 E4.22207
G1 X86.433 Y167.173 E4.28090
G1 X82.822 Y166.574 E4.43308
G1 X79.203 Y167.177 E4.58561
G1 X79.203 Y165.758 E4.64461
G1 X78.578 Y165.507 E4.67261
G1 X77.606 Y164.983 E4.71852
G1 X76.702 Y164.357 E4.76423
G1 X75.875 Y163.638 E4.80979
G1 X75.131 Y162.833 E4.85537
G1 X74.478 Y161.946 E4.90116
G1 X73.929 Y160.996 E4.94678
G1 X73.487 Y159.994 E4.99231
G1 X73.157 Y158.948 E5.03791
G1 X72.944 Y157.870 E5.08359
G1 X72.861 Y156.890 E5.12448
G1 X72.853 Y156.615 E5.13592
G1 X72.880 Y155.676 E5.17498
G1 X73.026 Y154.594 E5.22037
G1 X73.295 Y153.523 E5.26628
G1 X73.678 Y152.495 E5.31189
G1 X74.170 Y151.517 E5.35740
G1 X74.768 Y150.595 E5.40309
G1 X75.467 Y149.744 E5.44888
G1 X76.251 Y148.979 E5.49442
G1 X77.113 Y148.303 E5.53996
G1 X78.049 Y147.726 E5.58568
G0 F12000 X78.288 Y148.165
G1 F1800 X79.228 Y147.719 E5.62893
G1 X80.214 Y147.377 E5.67232
G1 X81.230 Y147.147 E5.71563
G1 X82.261 Y147.028 E5.75878
G1 X83.308 Y147.023 E5.80231
G1 X84.347 Y147.136 E5.84576
G1 X85.364 Y147.360 E5.88906
G1 X86.352 Y147.696 E5.93244
G1 X87.296 Y148.136 E5.97574
G1 X88.186 Y148.680 E6.01911
G1 X89.011 Y149.316 E6.06242
G1 X89.759 Y150.040 E6.10570
G1 X90.353 Y150.753 E6.14428
G1 X90.505 Y150.956 E6.15482
G1 X91.005 Y151.723 E6.19289
G1 X91.475 Y152.644 E6.23588
G1 X91.844 Y153.617 E6.27914
G1 X92.104 Y154.627 E6.32250
G1 X92.252 Y155.659 E6.36585
G1 X92.278 Y156.501 E6.40087
G1 X92.285 Y156.750 E6.41123
G1 X92.203 Y157.749 E6.45290
G1 X92.008 Y158.768 E6.49603
G1 X91.701 Y159.760 E6.53920
G1 X91.290 Y160.715 E6.58243
G1 X90.769 Y161.626 E6.62606
G1 X90.154 Y162.468 E6.66941
G1 X89.455 Y163.235 E6.71255
G1 X88.672 Y163.925 E6.75594
G1 X87.816 Y164.524 E6.79938
G1 X86.901 Y165.025 E6.84275
G1 X85.938 Y165.421 E6.88604
G1 X85.933 Y165.422 E6.88625
G1 X85.933 Y166.583 E6.93452
G1 X82.823 Y166.067 E7.06559
G1 X79.703 Y166.587 E7.19709
G1 X79.703 Y165.421 E7.24557
G1 X78.791 Y165.053 E7.28646
G1 X77.868 Y164.556 E7.33004
G1 X77.009 Y163.961 E7.37348
G1 X76.224 Y163.279 E7.41672
G1 X75.517 Y162.514 E7.46002
G1 X74.897 Y161.672 E7.50350
G1 X74.375 Y160.770 E7.54682
G1 X73.955 Y159.818 E7.59008
G1 X73.642 Y158.824 E7.63341
G1 X73.440 Y157.800 E7.67680
G1 X73.361 Y156.862 E7.71594
G1 X73.353 Y156.615 E7.72621
G1 X73.379 Y155.716 E7.76361
G1 X73.518 Y154.688 E7.80673
G1 X73.773 Y153.671 E7.85032
G1 X74.137 Y152.695 E7.89363
G1 X74.604 Y151.767 E7.93682
G1 X75.173 Y150.891 E7.98025
G1 X75.836 Y150.082 E8.02374
G1 X76.581 Y149.356 E8.06699
G1 X77.400 Y148.714 E8.11025
G1 X78.288 Y148.165 E8.15366
G0 F12000 X78.528 Y148.605
G1 F1800 X79.418 Y148.182 E8.19462
G1 X80.352 Y147.858 E8.23573
G1 X81.314 Y147.640 E8.27673
G1 X82.291 Y147.528 E8.31762
G1 X83.282 Y147.523 E8.35882
G1 X84.266 Y147.630 E8.39997
G1 X85.230 Y147.842 E8.44101
G1 X86.165 Y148.160 E8.48207
G1 X87.059 Y148.578 E8.52310
G1 X87.902 Y149.092 E8.56415
G1 X88.683 Y149.695 E8.60517
G1 X89.392 Y150.380 E8.64616
G1 X89.960 Y151.063 E8.68309
G1 X90.095 Y151.243 E8.69244
G1 X90.572 Y151.974 E8.72873
G1 X91.017 Y152.847 E8.76947
G1 X91.366 Y153.768 E8.81042
G1 X91.613 Y154.725 E8.85151
G1 X91.753 Y155.703 E8.89258
G1 X91.779 Y156.516 E8.92640
G1 X91.785 Y156.737 E8.93559
G1 X91.707 Y157.681 E8.97497
G1 X91.522 Y158.647 E9.01587
G1 X91.231 Y159.587 E9.05678
G1 X90.841 Y160.492 E9.09775
G1 X90.349 Y161.354 E9.13901
G1 X89.766 Y162.151 E9.18007
G1 X89.104 Y162.878 E9.22094
G1 X88.362 Y163.532 E9.26207
G1 X87.552 Y164.099 E9.30317
G1 X86.686 Y164.573 E9.34422
G1 X85.773 Y164.948 E9.38525
G1 X85.433 Y165.047 E9.39997
G1 X85.433 Y165.993 E9.43930
G1 X82.821 Y165.560 E9.54938
G1 X80.203 Y165.996 E9.65972
G1 X80.203 Y165.049 E9.69910
G1 X79.916 Y164.968 E9.71149
G1 X79.004 Y164.600 E9.75238
G1 X78.130 Y164.129 E9.79366
G1 X77.317 Y163.566 E9.83477
G1 X76.573 Y162.919 E9.87576
G1 X75.903 Y162.195 E9.91678
G1 X75.316 Y161.398 E9.95793
G1 X74.822 Y160.543 E9.99898
G1 X74.424 Y159.641 E10.03997
G1 X74.127 Y158.700 E10.08100
G1 X73.936 Y157.730 E10.12210
G1 X73.860 Y156.833 E10.15952
G1 X73.854 Y156.615 E10.16859
G1 X73.878 Y155.757 E10.20428
G1 X74.009 Y154.783 E10.24514
G1 X74.251 Y153.820 E10.28642
G1 X74.596 Y152.896 E10.32742
G1 X75.038 Y152.016 E10.36837
G1 X75.577 Y151.186 E10.40951
G1 X76.205 Y150.421 E10.45066
G1 X76.911 Y149.732 E10.49167
G1 X77.686 Y149.125 E10.53260
G1 X78.528 Y148.605 E10.57374
G0 F12000 X78.767 Y149.045
G1 F1800 X79.608 Y148.645 E10.61246
G1 X80.490 Y148.340 E10.65126
G1 X81.398 Y148.134 E10.68997
G1 X82.321 Y148.028 E10.72860
G1 X83.256 Y148.023 E10.76747
G1 X84.185 Y148.124 E10.80632
G1 X85.095 Y148.324 E10.84506
G1 X85.978 Y148.625 E10.88384
G1 X86.822 Y149.019 E10.92257
G1 X87.618 Y149.505 E10.96134
G1 X88.356 Y150.074 E11.00009
G1 X89.025 Y150.721 E11.03878
G1 X89.568 Y151.373 E11.07406
G1 X89.685 Y151.529 E11.08216
G1 X90.139 Y152.225 E11.11671
G1 X90.559 Y153.050 E11.15520
G1 X90.889 Y153.920 E11.19388
G1 X91.122 Y154.823 E11.23266
G1 X91.254 Y155.746 E11.27142
G1 X91.279 Y156.531 E11.30407
G1 X91.284 Y156.723 E11.31206
G1 X91.211 Y157.613 E11.34919
G1 X91.036 Y158.525 E11.38779
G1 X90.762 Y159.413 E11.42643
G1 X90.393 Y160.268 E11.46515
G1 X89.928 Y161.082 E11.50412
G1 X89.379 Y161.835 E11.54286
G1 X88.753 Y162.521 E11.58147
G1 X88.053 Y163.138 E11.62027
G1 X87.287 Y163.673 E11.65911
G1 X86.470 Y164.121 E11.69785
G1 X85.608 Y164.475 E11.73659
G1 X84.933 Y164.671 E11.76582
G1 X84.933 Y165.404 E11.79629
G1 X82.821 Y165.054 E11.88530
G1 X80.703 Y165.406 E11.97456
G1 X80.703 Y164.671 E12.00512
G1 X80.078 Y164.494 E12.03212
G1 X79.216 Y164.146 E12.07077
G1 X78.392 Y163.702 E12.10969
G1 X77.624 Y163.171 E12.14850
G1 X76.921 Y162.560 E12.18723
G1 X76.289 Y161.876 E12.22595
G1 X75.735 Y161.124 E12.26478
G1 X75.268 Y160.317 E12.30354
G1 X74.893 Y159.465 E12.34224
G1 X74.613 Y158.576 E12.38099
G1 X74.432 Y157.661 E12.41977
G1 X74.359 Y156.805 E12.45549
G1 X74.354 Y156.615 E12.46339
G1 X74.377 Y155.798 E12.49737
G1 X74.501 Y154.877 E12.53601
G1 X74.729 Y153.969 E12.57493
G1 X75.055 Y153.096 E12.61367
G1 X75.473 Y152.265 E12.65235
G1 X75.981 Y151.482 E12.69115
G1 X76.574 Y150.760 E12.73000
G1 X77.241 Y150.109 E12.76875
G1 X77.973 Y149.536 E12.80739
G1 X78.767 Y149.045 E12.84621
G0 F12000 X79.007 Y149.485
G1 F1800 X79.798 Y149.109 E12.88262
G1 X80.627 Y148.821 E12.91911
G1 X81.482 Y148.628 E12.95555
G1 X82.350 Y148.528 E12.99187
G1 X83.230 Y148.523 E13.02846
G1 X84.104 Y148.618 E13.06501
G1 X84.960 Y148.807 E13.10146
G1 X85.791 Y149.089 E13.13794
G1 X86.585 Y149.460 E13.17438
G1 X87.334 Y149.918 E13.21088
G1 X88.029 Y150.453 E13.24734
G1 X88.658 Y151.062 E13.28374
G1 X89.176 Y151.683 E13.31736
G1 X89.275 Y151.816 E13.32425
G1 X89.705 Y152.475 E13.35697
G1 X90.101 Y153.252 E13.39323
G1 X90.412 Y154.071 E13.42965
G1 X90.631 Y154.921 E13.46614
G1 X90.755 Y155.790 E13.50264
G1 X90.779 Y156.546 E13.53408
G1 X90.784 Y156.710 E13.54090
G1 X90.714 Y157.546 E13.57578
G1 X90.551 Y158.404 E13.61209
G1 X90.292 Y159.240 E13.64848
G1 X89.945 Y160.044 E13.68489
G1 X89.508 Y160.809 E13.72151
G1 X88.991 Y161.518 E13.75800
G1 X88.402 Y162.164 E13.79434
G1 X87.743 Y162.744 E13.83084
G1 X87.023 Y163.248 E13.86738
G1 X86.254 Y163.670 E13.90385
G1 X85.443 Y164.003 E13.94030
G1 X84.600 Y164.246 E13.97677
G1 X84.433 Y164.275 E13.98382
G1 X84.433 Y164.814 E14.00623
G1 X82.821 Y164.547 E14.07416
G1 X81.203 Y164.816 E14.14235
G1 X81.203 Y164.278 E14.16472
G1 X81.082 Y164.258 E14.16982
G1 X80.240 Y164.020 E14.20620
G1 X79.429 Y163.693 E14.24255
G1 X78.653 Y163.275 E14.27920
G1 X77.931 Y162.775 E14.31571
G1 X77.270 Y162.200 E14.35213
G1 X76.675 Y161.557 E14.38855
G1 X76.154 Y160.849 E14.42510
G1 X75.715 Y160.090 E14.46155
G1 X75.361 Y159.288 E14.49800
G1 X75.098 Y158.452 E14.53444
G1 X74.928 Y157.591 E14.57093
G1 X74.859 Y156.777 E14.60489
G1 X74.854 Y156.615 E14.61163
G1 X74.876 Y155.838 E14.64394
G1 X74.993 Y154.972 E14.68028
G1 X75.207 Y154.118 E14.71688
G1 X75.514 Y153.296 E14.75336
G1 X75.907 Y152.514 E14.78975
G1 X76.385 Y151.778 E14.82623
G1 X76.943 Y151.098 E14.86280
G1 X77.570 Y150.486 E14.89923
G1 X78.259 Y149.946 E14.93562
G1 X79.007 Y149.485 E14.97215
G0 F12000 X79.246 Y149.925
G1 F1800 X79.988 Y149.572 E15.00632
G1 X80.765 Y149.303 E15.04050
G1 X81.566 Y149.121 E15.07465
G1 X82.380 Y149.027 E15.10872
G1 X83.205 Y149.024 E15.14302
G1 X84.023 Y149.112 E15.17722
G1 X84.825 Y149.289 E15.21137
G1 X85.604 Y149.554 E15.24558
G1 X86.349 Y149.902 E15.27976
G1 X87.050 Y150.330 E15.31391
G1 X87.701 Y150.832 E15.34809
G1 X88.291 Y151.403 E15.38223
G1 X88.783 Y151.993 E15.41416
G1 X88.866 Y152.103 E15.41989
G1 X89.272 Y152.726 E15.45081
G1 X89.643 Y153.455 E15.48482
G1 X89.935 Y154.223 E15.51898
G1 X90.140 Y155.019 E15.55315
G1 X90.256 Y155.833 E15.58733
G1 X90.279 Y156.561 E15.61762
G1 X90.283 Y156.696 E15.62323
G1 X90.218 Y157.478 E15.65586
G1 X90.065 Y158.283 E15.68992
G1 X89.822 Y159.067 E15.72405
G1 X89.497 Y159.821 E15.75818
G1 X89.088 Y160.537 E15.79246
G1 X88.603 Y161.201 E15.82665
G1 X88.051 Y161.807 E15.86073
G1 X87.434 Y162.351 E15.89493
G1 X86.759 Y162.823 E15.92917
G1 X86.038 Y163.218 E15.96335
G1 X85.278 Y163.530 E15.99751
G1 X84.488 Y163.758 E16.03169
G1 X83.933 Y163.854 E16.05511
G1 X83.933 Y164.224 E16.07049
G1 X82.822 Y164.040 E16.11731
G1 X81.703 Y164.226 E16.16447
G1 X81.703 Y163.854 E16.17994
G1 X81.192 Y163.769 E16.20148
G1 X80.402 Y163.546 E16.23560
G1 X79.642 Y163.240 E16.26967
G1 X78.915 Y162.848 E16.30400
G1 X78.238 Y162.380 E16.33822
G1 X77.619 Y161.841 E16.37235
G1 X77.061 Y161.238 E16.40650
G1 X76.573 Y160.575 E16.44073
G1 X76.161 Y159.863 E16.47493
G1 X75.830 Y159.112 E16.50905
G1 X75.583 Y158.328 E16.54322
G1 X75.423 Y157.521 E16.57743
G1 X75.358 Y156.749 E16.60964
G1 X75.354 Y156.615 E16.61521
G1 X75.375 Y155.879 E16.64582
G1 X75.485 Y155.066 E16.67993
G1 X75.685 Y154.266 E16.71422
G1 X75.973 Y153.497 E16.74836
G1 X76.342 Y152.763 E16.78251
G1 X76.789 Y152.073 E16.81669
G1 X77.312 Y151.437 E16.85093
G1 X77.900 Y150.863 E16.88509
G1 X78.546 Y150.357 E16.91920
G1 X79.246 Y149.925 E16.95340
G0 F12000 X79.485 Y150.364
G1 F1800 X80.177 Y150.036 E16.98524
G1 X80.902 Y149.784 E17.01715
G1 X81.650 Y149.615 E17.04903
G1 X82.410 Y149.527 E17.08084
G1 X83.179 Y149.524 E17.11281
G1 X83.942 Y149.607 E17.14472
G1 X84.691 Y149.771 E17.17660
G1 X85.417 Y150.019 E17.20850
G1 X86.112 Y150.343 E17.24038
G1 X86.767 Y150.743 E17.27228
G1 X87.374 Y151.211 E17.30415
G1 X87.924 Y151.743 E17.33596
G1 X88.391 Y152.304 E17.36631
G1 X88.456 Y152.390 E17.37079
G1 X88.838 Y152.977 E17.39991
G1 X89.186 Y153.658 E17.43171
G1 X89.457 Y154.374 E17.46353
G1 X89.649 Y155.117 E17.49544
G1 X89.757 Y155.876 E17.52731
G1 X89.779 Y156.576 E17.55643
G1 X89.782 Y156.683 E17.56088
G1 X89.722 Y157.410 E17.59121
G1 X89.579 Y158.162 E17.62303
G1 X89.352 Y158.893 E17.65486
G1 X89.049 Y159.597 E17.68672
G1 X88.668 Y160.265 E17.71869
G1 X88.215 Y160.884 E17.75058
G1 X87.700 Y161.450 E17.78240
G1 X87.124 Y161.957 E17.81430
G1 X86.495 Y162.397 E17.84621
G1 X85.822 Y162.766 E17.87812
G1 X85.113 Y163.057 E17.90999
G1 X84.376 Y163.270 E17.94188
G1 X83.685 Y163.389 E17.97103
G1 X83.433 Y163.431 E17.98165
G1 X83.433 Y163.634 E17.99009
G1 X82.822 Y163.533 E18.01584
G1 X82.203 Y163.636 E18.04193
G1 X82.203 Y163.430 E18.05050
G1 X81.301 Y163.281 E18.08850
G1 X80.564 Y163.073 E18.12034
G1 X79.854 Y162.786 E18.15218
G1 X79.177 Y162.421 E18.18416
G1 X78.546 Y161.984 E18.21607
G1 X77.967 Y161.482 E18.24793
G1 X77.447 Y160.919 E18.27979
G1 X76.992 Y160.301 E18.31170
G1 X76.608 Y159.637 E18.34359
G1 X76.298 Y158.935 E18.37549
G1 X76.068 Y158.204 E18.40735
G1 X75.919 Y157.451 E18.43927
G1 X75.858 Y156.721 E18.46972
G1 X75.854 Y156.615 E18.47413
G1 X75.874 Y155.919 E18.50308
G1 X75.977 Y155.161 E18.53488
G1 X76.164 Y154.415 E18.56686
G1 X76.432 Y153.697 E18.59872
G1 X76.776 Y153.012 E18.63059
G1 X77.194 Y152.369 E18.66247
G1 X77.681 Y151.775 E18.69441
G1 X78.230 Y151.240 E18.72628
G1 X78.832 Y150.768 E18.75808
G1 X79.485 Y150.364 E18.79001
G0 F12000 X79.725 Y150.804
G1 F1800 X80.367 Y150.499 E18.81956
G1 X81.040 Y150.266 E18.84917
G1 X81.734 Y150.109 E18.87875
G1 X82.440 Y150.027 E18.90830
G1 X83.153 Y150.024 E18.93794
G1 X83.861 Y150.101 E18.96755
G1 X84.556 Y150.254 E18.99714
G1 X85.230 Y150.483 E19.02673
G1 X85.875 Y150.784 E19.05632
G1 X86.483 Y151.155 E19.08594
G1 X87.046 Y151.590 E19.11552
G1 X87.557 Y152.084 E19.14507
G1 X87.999 Y152.614 E19.17376
G1 X88.046 Y152.677 E19.17702
G1 X88.405 Y153.228 E19.20437
G1 X88.728 Y153.861 E19.23391
G1 X88.980 Y154.526 E19.26348
G1 X89.158 Y155.215 E19.29306
G1 X89.258 Y155.920 E19.32267
G1 X89.280 Y156.591 E19.35058
G1 X89.282 Y156.669 E19.35382
G1 X89.226 Y157.343 E19.38194
G1 X89.093 Y158.041 E19.41148
G1 X88.883 Y158.720 E19.44103
G1 X88.601 Y159.373 E19.47060
G1 X88.247 Y159.992 E19.50025
G1 X87.828 Y160.567 E19.52983
G1 X87.349 Y161.093 E19.55941
G1 X86.814 Y161.563 E19.58901
G1 X86.230 Y161.972 E19.61866
G1 X85.607 Y162.314 E19.64820
G1 X84.948 Y162.584 E19.67781
G1 X84.264 Y162.782 E19.70742
G1 X83.602 Y162.896 E19.73534
G1 X82.933 Y163.007 E19.76354
G1 X82.933 Y163.045 E19.76512
G1 X82.818 Y163.026 E19.76996
G1 X82.703 Y163.045 E19.77481
G1 X82.703 Y163.007 E19.77639
G1 X81.410 Y162.792 E19.83088
G1 X80.726 Y162.599 E19.86043
G1 X80.067 Y162.333 E19.88998
G1 X79.438 Y161.994 E19.91968
G1 X78.853 Y161.589 E19.94927
G1 X78.316 Y161.122 E19.97885
G1 X77.833 Y160.600 E20.00842
G1 X77.411 Y160.026 E20.03804
G1 X77.054 Y159.410 E20.06764
G1 X76.767 Y158.759 E20.09722
G1 X76.553 Y158.080 E20.12682
G1 X76.415 Y157.382 E20.15640
G1 X76.357 Y156.692 E20.18519
G1 X76.355 Y156.615 E20.18839
G1 X76.373 Y155.960 E20.21563
G1 X76.468 Y155.255 E20.24521
G1 X76.642 Y154.564 E20.27483
G1 X76.891 Y153.897 E20.30443
G1 X77.210 Y153.261 E20.33401
G1 X77.598 Y152.665 E20.36358
G1 X78.050 Y152.114 E20.39321
G1 X78.559 Y151.617 E20.42279
G1 X79.118 Y151.179 E20.45231
G1 X79.725 Y150.804 E20.48198
G0 F12000 X79.964 Y151.244
G1 F1800 X80.557 Y150.962 E20.50928
G1 X81.177 Y150.747 E20.53656
G1 X81.818 Y150.602 E20.56388
G1 X82.470 Y150.527 E20.59117
G1 X83.127 Y150.524 E20.61848
G1 X83.780 Y150.595 E20.64579
G1 X84.421 Y150.736 E20.67308
G1 X85.043 Y150.948 E20.70040
G1 X85.638 Y151.225 E20.72768
G1 X86.199 Y151.568 E20.75502
G1 X86.719 Y151.969 E20.78232
G1 X87.190 Y152.425 E20.80958
G1 X87.606 Y152.924 E20.83659
G1 X87.636 Y152.964 E20.83867
G1 X87.972 Y153.479 E20.86423
G1 X88.270 Y154.064 E20.89153
G1 X88.503 Y154.677 E20.91879
G1 X88.667 Y155.313 E20.94610
G1 X88.759 Y155.963 E20.97339
G1 X88.781 Y156.655 E21.00218
G1 X88.730 Y157.275 E21.02804
G1 X88.607 Y157.920 E21.05534
G1 X88.413 Y158.547 E21.08263
G1 X88.153 Y159.150 E21.10993
G1 X87.827 Y159.720 E21.13723
G1 X87.440 Y160.250 E21.16451
G1 X86.998 Y160.736 E21.19182
G1 X86.505 Y161.170 E21.21913
G1 X85.966 Y161.547 E21.24648
G1 X85.391 Y161.862 E21.27373
G1 X84.783 Y162.111 E21.30105
G1 X84.152 Y162.294 E21.32836
G1 X83.519 Y162.403 E21.35507
G1 X83.203 Y162.455 E21.36838
G1 X83.203 Y159.657 E21.48471
G1 X83.802 Y159.499 E21.51047
G1 X82.477 Y158.981 E21.56961
G1 X82.477 Y158.868 E21.57431
G1 X81.159 Y159.182 E21.63064
G1 X81.388 Y159.319 E21.64174
G1 X81.800 Y159.491 E21.66030
G1 X82.433 Y159.657 E21.68750
G1 X82.433 Y162.455 E21.80383
G1 X81.519 Y162.303 E21.84235
G1 X80.888 Y162.125 E21.86961
G1 X80.280 Y161.880 E21.89686
G1 X79.700 Y161.567 E21.92426
G1 X79.160 Y161.194 E21.95155
G1 X78.665 Y160.763 E21.97884
G1 X78.219 Y160.281 E22.00614
G1 X77.830 Y159.752 E22.03344
G1 X77.501 Y159.183 E22.06076
G1 X77.236 Y158.582 E22.08807
G1 X77.038 Y157.956 E22.11537
G1 X76.911 Y157.312 E22.14266
G1 X76.856 Y156.664 E22.16970
G1 X76.855 Y156.615 E22.17173
G1 X76.872 Y156.001 E22.19727
G1 X76.960 Y155.350 E22.22458
G1 X77.120 Y154.713 E22.25189
G1 X77.350 Y154.098 E22.27919
G1 X77.645 Y153.510 E22.30654
G1 X78.002 Y152.960 E22.33380
G1 X78.419 Y152.453 E22.36109
G1 X78.889 Y151.994 E22.38840
G1 X79.405 Y151.590 E22.41565
G1 X79.964 Y151.244 E22.44298
G0 F12000 X72.343 Y162.648
G1 F1800 X73.327 Y163.247 E22.49088
G1 X74.242 Y163.955 E22.53898
G1 X75.067 Y164.752 E22.58667
G1 X75.712 Y165.526 E22.62855
G1 X75.900 Y165.778 E22.64163
G1 X76.445 Y166.616 E22.68319
G1 X76.964 Y167.630 E22.73054
G1 X77.375 Y168.712 E22.77866
G1 X77.661 Y169.829 E22.82660
G1 X77.823 Y170.966 E22.87435
G1 X77.852 Y171.866 E22.91179
G1 X77.861 Y172.172 E22.92451
G1 X77.769 Y173.279 E22.97070
G1 X77.554 Y174.405 E23.01836
G1 X77.214 Y175.503 E23.06614
G1 X76.759 Y176.558 E23.11391
G1 X76.185 Y177.563 E23.16203
G1 X75.505 Y178.495 E23.20999
G1 X74.731 Y179.345 E23.25779
G1 X73.863 Y180.108 E23.30584
G1 X72.918 Y180.769 E23.35378
G1 X71.910 Y181.321 E23.40156
G1 X71.507 Y181.487 E23.41968
G1 X71.507 Y183.158 E23.48916
G1 X67.395 Y182.476 E23.66245
G1 X63.277 Y183.162 E23.83601
G1 X63.277 Y181.490 E23.90553
G1 X62.935 Y181.352 E23.92086
G1 X61.918 Y180.803 E23.96891
G1 X60.972 Y180.148 E24.01675
G1 X60.104 Y179.395 E24.06452
G1 X59.319 Y178.547 E24.11256
G1 X58.633 Y177.614 E24.16071
G1 X58.057 Y176.620 E24.20847
G1 X57.592 Y175.566 E24.25637
G1 X57.245 Y174.463 E24.30444
G1 X57.023 Y173.335 E24.35224
G1 X56.936 Y172.317 E24.39472
G1 X56.927 Y172.010 E24.40748
G1 X56.955 Y171.029 E24.44829
G1 X57.108 Y169.894 E24.49590
G1 X57.390 Y168.769 E24.54412
G1 X57.793 Y167.690 E24.59201
G1 X58.308 Y166.665 E24.63970
G1 X58.937 Y165.695 E24.68776
G1 X59.672 Y164.799 E24.73594
G1 X60.495 Y163.996 E24.78375
G1 X61.402 Y163.285 E24.83166
G1 X62.382 Y162.681 E24.87952
G1 X63.423 Y162.184 E24.92748
G1 X64.514 Y161.808 E24.97546
G1 X65.637 Y161.552 E25.02335
G1 X66.778 Y161.422 E25.07109
G1 X67.932 Y161.417 E25.11907
G1 X69.083 Y161.540 E25.16719
G1 X70.208 Y161.789 E25.21510
G1 X71.299 Y162.159 E25.26299
G1 X72.343 Y162.648 E25.31092
G0 F12000 X72.107 Y163.090
G1 F1800 X73.043 Y163.660 E25.35649
G1 X73.914 Y164.333 E25.40225
G1 X74.700 Y165.093 E25.44770
G1 X75.319 Y165.837 E25.48794
G1 X75.490 Y166.064 E25.49976
G1 X76.012 Y166.867 E25.53958
G1 X76.507 Y167.833 E25.58470
G1 X76.897 Y168.863 E25.63049
G1 X77.169 Y169.926 E25.67611
G1 X77.324 Y171.009 E25.72160
G1 X77.352 Y171.881 E25.75787
G1 X77.360 Y172.159 E25.76943
G1 X77.273 Y173.211 E25.81332
G1 X77.068 Y174.284 E25.85873
G1 X76.745 Y175.329 E25.90421
G1 X76.311 Y176.334 E25.94972
G1 X75.764 Y177.291 E25.99555
G1 X75.117 Y178.178 E26.04119
G1 X74.380 Y178.987 E26.08669
G1 X73.554 Y179.714 E26.13244
G1 X72.654 Y180.343 E26.17809
G1 X71.694 Y180.870 E26.22362
G1 X71.007 Y181.153 E26.25451
G1 X71.007 Y182.568 E26.31334
G1 X67.396 Y181.969 E26.46552
G1 X63.777 Y182.572 E26.61806
G1 X63.777 Y181.153 E26.67705
G1 X63.148 Y180.898 E26.70527
G1 X62.180 Y180.376 E26.75099
G1 X61.279 Y179.752 E26.79656
G1 X60.453 Y179.035 E26.84203
G1 X59.705 Y178.228 E26.88778
G1 X59.052 Y177.340 E26.93360
G1 X58.503 Y176.393 E26.97911
G1 X58.061 Y175.389 E27.02472
G1 X57.730 Y174.340 E27.07045
G1 X57.519 Y173.265 E27.11600
G1 X57.435 Y172.288 E27.15677
G1 X57.427 Y172.010 E27.16833
G1 X57.454 Y171.069 E27.20747
G1 X57.600 Y169.989 E27.25278
G1 X57.869 Y168.918 E27.29869
G1 X58.252 Y167.890 E27.34430
G1 X58.743 Y166.914 E27.38972
G1 X59.341 Y165.990 E27.43548
G1 X60.041 Y165.138 E27.48132
G1 X60.825 Y164.373 E27.52686
G1 X61.689 Y163.696 E27.57250
G1 X62.621 Y163.121 E27.61803
G1 X63.613 Y162.648 E27.66372
G1 X64.652 Y162.289 E27.70942
G1 X65.721 Y162.046 E27.75500
G1 X66.808 Y161.922 E27.80049
G1 X67.906 Y161.917 E27.84614
G1 X69.002 Y162.034 E27.89196
G1 X70.073 Y162.272 E27.93757
G1 X71.112 Y162.624 E27.98318
G1 X72.107 Y163.090 E28.02886
G0 F12000 X71.870 Y163.531
G1 F1800 X72.760 Y164.073 E28.07218
G1 X73.587 Y164.712 E28.11564
G1 X74.333 Y165.434 E28.15880
G1 X74.927 Y166.147 E28.19738
G1 X75.080 Y166.351 E28.20798
G1 X75.579 Y167.117 E28.24599
G1 X76.049 Y168.037 E28.28894
G1 X76.420 Y169.014 E28.33239
G1 X76.678 Y170.024 E28.37573
G1 X76.826 Y171.053 E28.41895
G1 X76.852 Y171.896 E28.45401
G1 X76.859 Y172.145 E28.46437
G1 X76.777 Y173.144 E28.50604
G1 X76.582 Y174.163 E28.54918
G1 X76.275 Y175.156 E28.59239
G1 X75.863 Y176.110 E28.63559
G1 X75.344 Y177.019 E28.67911
G1 X74.730 Y177.862 E28.72247
G1 X74.029 Y178.630 E28.76570
G1 X73.244 Y179.320 E28.80915
G1 X72.390 Y179.918 E28.85250
G1 X71.478 Y180.418 E28.89574
G1 X70.515 Y180.815 E28.93904
G1 X70.507 Y180.817 E28.93939
G1 X70.507 Y181.978 E28.98766
G1 X67.397 Y181.462 E29.11872
G1 X64.277 Y181.982 E29.25023
G1 X64.277 Y180.816 E29.29870
G1 X63.361 Y180.445 E29.33979
G1 X62.442 Y179.949 E29.38321
G1 X61.586 Y179.357 E29.42648
G1 X60.801 Y178.675 E29.46971
G1 X60.091 Y177.909 E29.51313
G1 X59.471 Y177.066 E29.55664
G1 X58.950 Y176.166 E29.59987
G1 X58.529 Y175.213 E29.64319
G1 X58.215 Y174.216 E29.68665
G1 X58.015 Y173.195 E29.72990
G1 X57.935 Y172.260 E29.76892
G1 X57.927 Y172.010 E29.77932
G1 X57.953 Y171.110 E29.81675
G1 X58.092 Y170.083 E29.85984
G1 X58.347 Y169.066 E29.90343
G1 X58.711 Y168.090 E29.94673
G1 X59.177 Y167.163 E29.98987
G1 X59.746 Y166.286 E30.03333
G1 X60.410 Y165.476 E30.07688
G1 X61.155 Y164.750 E30.12013
G1 X61.975 Y164.107 E30.16345
G1 X62.861 Y163.560 E30.20674
G1 X63.802 Y163.111 E30.25009
G1 X64.789 Y162.771 E30.29349
G1 X65.805 Y162.539 E30.33682
G1 X66.837 Y162.422 E30.38000
G1 X67.881 Y162.417 E30.42340
G1 X68.921 Y162.529 E30.46689
G1 X69.938 Y162.754 E30.51019
G1 X70.926 Y163.088 E30.55355
G1 X71.870 Y163.531 E30.59691
G0 F12000 X71.633 Y163.972
G1 F1800 X72.476 Y164.485 E30.63794
G1 X73.259 Y165.091 E30.67910
G1 X73.966 Y165.774 E30.71997
G1 X74.534 Y166.457 E30.75690
G1 X74.670 Y166.638 E30.76631
G1 X75.145 Y167.368 E30.80252
G1 X75.591 Y168.240 E30.84324
G1 X75.942 Y169.165 E30.88438
G1 X76.187 Y170.122 E30.92545
G1 X76.327 Y171.096 E30.96636
G1 X76.353 Y171.911 E31.00026
G1 X76.359 Y172.132 E31.00945
G1 X76.281 Y173.076 E31.04883
G1 X76.096 Y174.042 E31.08972
G1 X75.805 Y174.983 E31.13067
G1 X75.415 Y175.887 E31.17160
G1 X74.923 Y176.747 E31.21280
G1 X74.342 Y177.545 E31.25383
G1 X73.678 Y178.273 E31.29480
G1 X72.935 Y178.927 E31.33595
G1 X72.126 Y179.493 E31.37700
G1 X71.262 Y179.966 E31.41795
G1 X70.350 Y180.342 E31.45897
G1 X70.007 Y180.442 E31.47382
G1 X70.007 Y181.388 E31.51315
G1 X67.395 Y180.955 E31.62323
G1 X64.777 Y181.391 E31.73357
G1 X64.777 Y180.444 E31.77294
G1 X64.488 Y180.362 E31.78543
G1 X63.574 Y179.992 E31.82643
G1 X62.704 Y179.522 E31.86754
G1 X61.893 Y178.961 E31.90853
G1 X61.149 Y178.316 E31.94947
G1 X60.477 Y177.590 E31.99060
G1 X59.890 Y176.792 E32.03179
G1 X59.396 Y175.939 E32.07277
G1 X58.998 Y175.036 E32.11380
G1 X58.701 Y174.092 E32.15494
G1 X58.511 Y173.125 E32.19591
G1 X58.434 Y172.231 E32.23322
G1 X58.428 Y172.010 E32.24241
G1 X58.452 Y171.151 E32.27814
G1 X58.583 Y170.178 E32.31895
G1 X58.825 Y169.215 E32.36024
G1 X59.170 Y168.291 E32.40124
G1 X59.612 Y167.412 E32.44215
G1 X60.150 Y166.581 E32.48330
G1 X60.779 Y165.815 E32.52451
G1 X61.484 Y165.127 E32.56547
G1 X62.262 Y164.518 E32.60654
G1 X63.101 Y164.000 E32.64754
G1 X63.992 Y163.575 E32.68858
G1 X64.927 Y163.252 E32.72971
G1 X65.889 Y163.033 E32.77072
G1 X66.867 Y162.922 E32.81165
G1 X67.855 Y162.917 E32.85272
G1 X68.840 Y163.023 E32.89391
G1 X69.804 Y163.236 E32.93496
G1 X70.739 Y163.553 E32.97600
G1 X71.633 Y163.972 E33.01705
G0 F12000 X71.396 Y164.413
G1 F1800 X72.192 Y164.898 E33.05580
G1 X72.931 Y165.469 E33.09463
G1 X73.599 Y166.115 E33.13326
G1 X74.142 Y166.767 E33.16854
G1 X74.260 Y166.924 E33.17671
G1 X74.712 Y167.619 E33.21117
G1 X75.133 Y168.443 E33.24964
G1 X75.465 Y169.317 E33.28851
G1 X75.696 Y170.219 E33.32722
G1 X75.828 Y171.140 E33.36591
G1 X75.853 Y171.926 E33.39860
G1 X75.858 Y172.118 E33.40659
G1 X75.785 Y173.008 E33.44371
G1 X75.610 Y173.920 E33.48232
G1 X75.335 Y174.809 E33.52101
G1 X74.967 Y175.663 E33.55967
G1 X74.503 Y176.475 E33.59855
G1 X73.954 Y177.228 E33.63730
G1 X73.327 Y177.916 E33.67600
G1 X72.626 Y178.533 E33.71482
G1 X71.861 Y179.067 E33.75361
G1 X71.046 Y179.514 E33.79225
G1 X70.185 Y179.870 E33.83099
G1 X69.507 Y180.066 E33.86033
G1 X69.507 Y180.799 E33.89081
G1 X67.395 Y180.449 E33.97981
G1 X65.277 Y180.801 E34.06907
G1 X65.277 Y180.066 E34.09963
G1 X64.650 Y179.888 E34.12673
G1 X63.787 Y179.539 E34.16543
G1 X62.966 Y179.096 E34.20422
G1 X62.200 Y178.565 E34.24297
G1 X61.497 Y177.956 E34.28164
G1 X60.863 Y177.271 E34.32044
G1 X60.309 Y176.517 E34.35934
G1 X59.843 Y175.713 E34.39798
G1 X59.467 Y174.860 E34.43673
G1 X59.186 Y173.969 E34.47557
G1 X59.007 Y173.056 E34.51426
G1 X58.933 Y172.202 E34.54989
G1 X58.928 Y172.010 E34.55788
G1 X58.951 Y171.191 E34.59194
G1 X59.075 Y170.272 E34.63050
G1 X59.303 Y169.364 E34.66942
G1 X59.629 Y168.491 E34.70816
G1 X60.046 Y167.661 E34.74678
G1 X60.554 Y166.877 E34.78562
G1 X61.148 Y166.154 E34.82452
G1 X61.814 Y165.504 E34.86321
G1 X62.548 Y164.928 E34.90200
G1 X63.340 Y164.440 E34.94068
G1 X64.182 Y164.038 E34.97947
G1 X65.064 Y163.734 E35.01826
G1 X65.973 Y163.527 E35.05702
G1 X66.897 Y163.422 E35.09568
G1 X67.829 Y163.417 E35.13443
G1 X68.759 Y163.517 E35.17331
G1 X69.669 Y163.718 E35.21206
G1 X70.552 Y164.018 E35.25083
G1 X71.396 Y164.413 E35.28957
G0 F12000 X71.159 Y164.854
G1 F1800 X71.908 Y165.310 E35.32603
G1 X72.604 Y165.848 E35.36260
G1 X73.232 Y166.456 E35.39895
G1 X73.750 Y167.077 E35.43257
G1 X73.850 Y167.211 E35.43952
G1 X74.279 Y167.870 E35.47221
G1 X74.676 Y168.646 E35.50845
G1 X74.987 Y169.468 E35.54499
G1 X75.205 Y170.317 E35.58143
G1 X75.329 Y171.183 E35.61780
G1 X75.353 Y171.941 E35.64933
G1 X75.358 Y172.105 E35.65615
G1 X75.288 Y172.941 E35.69103
G1 X75.125 Y173.799 E35.72734
G1 X74.866 Y174.636 E35.76377
G1 X74.519 Y175.439 E35.80014
G1 X74.083 Y176.203 E35.83671
G1 X73.566 Y176.912 E35.87319
G1 X72.976 Y177.559 E35.90959
G1 X72.316 Y178.139 E35.94612
G1 X71.597 Y178.642 E35.98260
G1 X70.830 Y179.063 E36.01898
G1 X70.019 Y179.397 E36.05544
G1 X69.175 Y179.641 E36.09197
G1 X69.007 Y179.670 E36.09906
G1 X69.007 Y180.209 E36.12147
G1 X67.395 Y179.942 E36.18940
G1 X65.777 Y180.211 E36.25759
G1 X65.777 Y179.673 E36.27996
G1 X65.656 Y179.653 E36.28506
G1 X64.813 Y179.415 E36.32148
G1 X64.001 Y179.086 E36.35790
G1 X63.228 Y178.669 E36.39442
G1 X62.507 Y178.170 E36.43087
G1 X61.846 Y177.596 E36.46727
G1 X61.249 Y176.952 E36.50378
G1 X60.728 Y176.243 E36.54036
G1 X60.289 Y175.486 E36.57674
G1 X59.935 Y174.683 E36.61322
G1 X59.671 Y173.845 E36.64975
G1 X59.503 Y172.986 E36.68614
G1 X59.433 Y172.174 E36.72003
G1 X59.428 Y172.010 E36.72685
G1 X59.450 Y171.232 E36.75921
G1 X59.567 Y170.367 E36.79550
G1 X59.781 Y169.513 E36.83210
G1 X60.088 Y168.691 E36.86858
G1 X60.481 Y167.910 E36.90493
G1 X60.959 Y167.172 E36.94148
G1 X61.517 Y166.492 E36.97806
G1 X62.144 Y165.880 E37.01448
G1 X62.834 Y165.339 E37.05094
G1 X63.580 Y164.879 E37.08737
G1 X64.372 Y164.502 E37.12384
G1 X65.201 Y164.215 E37.16031
G1 X66.057 Y164.020 E37.19681
G1 X66.926 Y163.922 E37.23317
G1 X67.804 Y163.917 E37.26967
G1 X68.678 Y164.011 E37.30622
G1 X69.534 Y164.201 E37.34268
G1 X70.365 Y164.482 E37.37915
G1 X71.159 Y164.854 E37.41560
G0 F12000 X70.923 Y165.296
G1 F1800 X71.624 Y165.723 E37.44973
G1 X72.276 Y166.227 E37.48399
G1 X72.865 Y166.797 E37.51806
G1 X73.357 Y167.387 E37.55000
G1 X73.440 Y167.498 E37.55577
G1 X73.846 Y168.121 E37.58668
G1 X74.218 Y168.849 E37.62067
G1 X74.510 Y169.619 E37.65491
G1 X74.714 Y170.415 E37.68907
G1 X74.830 Y171.227 E37.72317
G1 X74.853 Y171.956 E37.75350
G1 X74.857 Y172.091 E37.75911
G1 X74.792 Y172.873 E37.79174
G1 X74.639 Y173.678 E37.82580
G1 X74.396 Y174.462 E37.85993
G1 X74.071 Y175.215 E37.89403
G1 X73.662 Y175.930 E37.92827
G1 X73.178 Y176.595 E37.96247
G1 X72.625 Y177.201 E37.99657
G1 X72.007 Y177.745 E38.03080
G1 X71.333 Y178.217 E38.06501
G1 X70.613 Y178.611 E38.09914
G1 X69.854 Y178.924 E38.13327
G1 X69.063 Y179.153 E38.16751
G1 X68.507 Y179.249 E38.19096
G1 X68.507 Y179.619 E38.20635
G1 X67.396 Y179.435 E38.25317
G1 X66.277 Y179.621 E38.30033
G1 X66.277 Y179.249 E38.31579
G1 X65.766 Y179.164 E38.33733
G1 X64.975 Y178.941 E38.37150
G1 X64.214 Y178.633 E38.40563
G1 X63.489 Y178.242 E38.43988
G1 X62.814 Y177.774 E38.47402
G1 X62.194 Y177.236 E38.50815
G1 X61.635 Y176.633 E38.54234
G1 X61.147 Y175.969 E38.57660
G1 X60.735 Y175.259 E38.61073
G1 X60.404 Y174.507 E38.64488
G1 X60.157 Y173.722 E38.67910
G1 X59.999 Y172.916 E38.71325
G1 X59.932 Y172.145 E38.74542
G1 X59.928 Y172.010 E38.75104
G1 X59.949 Y171.273 E38.78169
G1 X60.059 Y170.461 E38.81576
G1 X60.259 Y169.661 E38.85004
G1 X60.547 Y168.892 E38.88418
G1 X60.915 Y168.159 E38.91828
G1 X61.363 Y167.468 E38.95252
G1 X61.886 Y166.831 E38.98678
G1 X62.474 Y166.257 E39.02095
G1 X63.121 Y165.750 E39.05512
G1 X63.819 Y165.319 E39.08923
G1 X64.562 Y164.965 E39.12344
G1 X65.339 Y164.697 E39.15762
G1 X66.141 Y164.514 E39.19182
G1 X66.956 Y164.421 E39.22592
G1 X67.778 Y164.418 E39.26009
G1 X68.597 Y164.505 E39.29434
G1 X69.399 Y164.683 E39.32849
G1 X70.178 Y164.947 E39.36269
G1 X70.923 Y165.296 E39.39689
G0 F12000 X70.686 Y165.737
G1 F1800 X71.341 Y166.136 E39.42878
G1 X71.948 Y166.605 E39.46067
G1 X72.498 Y167.137 E39.49248
G1 X72.965 Y167.698 E39.52283
G1 X73.030 Y167.784 E39.52731
G1 X73.412 Y168.372 E39.55646
G1 X73.760 Y169.052 E39.58822
G1 X74.033 Y169.770 E39.62016
G1 X74.223 Y170.513 E39.65204
G1 X74.331 Y171.270 E39.68383
G1 X74.353 Y171.971 E39.71299
G1 X74.356 Y172.078 E39.71744
G1 X74.296 Y172.805 E39.74777
G1 X74.153 Y173.557 E39.77959
G1 X73.926 Y174.289 E39.81146
G1 X73.623 Y174.991 E39.84325
G1 X73.242 Y175.658 E39.87518
G1 X72.790 Y176.279 E39.90711
G1 X72.274 Y176.844 E39.93893
G1 X71.697 Y177.351 E39.97086
G1 X71.069 Y177.791 E40.00274
G1 X70.397 Y178.159 E40.03459
G1 X69.688 Y178.452 E40.06649
G1 X68.951 Y178.665 E40.09838
G1 X68.259 Y178.784 E40.12758
G1 X68.007 Y178.826 E40.13820
G1 X68.007 Y179.029 E40.14664
G1 X67.396 Y178.928 E40.17238
G1 X66.777 Y179.031 E40.19847
G1 X66.777 Y178.825 E40.20704
G1 X65.875 Y178.676 E40.24505
G1 X65.137 Y178.467 E40.27694
G1 X64.427 Y178.180 E40.30877
G1 X63.751 Y177.815 E40.34071
G1 X63.121 Y177.379 E40.37257
G1 X62.542 Y176.876 E40.40445
G1 X62.021 Y176.314 E40.43632
G1 X61.566 Y175.695 E40.46825
G1 X61.182 Y175.032 E40.50011
G1 X60.872 Y174.330 E40.53201
G1 X60.642 Y173.598 E40.56391
G1 X60.494 Y172.846 E40.59578
G1 X60.432 Y172.117 E40.62620
G1 X60.428 Y172.010 E40.63065
G1 X60.448 Y171.313 E40.65964
G1 X60.551 Y170.556 E40.69140
G1 X60.738 Y169.810 E40.72337
G1 X61.006 Y169.092 E40.75524
G1 X61.350 Y168.408 E40.78707
G1 X61.767 Y167.763 E40.81900
G1 X62.255 Y167.169 E40.85096
G1 X62.804 Y166.634 E40.88283
G1 X63.407 Y166.161 E40.91469
G1 X64.059 Y165.759 E40.94654
G1 X64.751 Y165.428 E40.97843
G1 X65.476 Y165.178 E41.01031
G1 X66.225 Y165.008 E41.04225
G1 X66.985 Y164.921 E41.07405
G1 X67.753 Y164.918 E41.10598
G1 X68.516 Y165.000 E41.13788
G1 X69.265 Y165.165 E41.16977
G1 X69.991 Y165.411 E41.20164
G1 X70.686 Y165.737 E41.23356
G0 F12000 X70.449 Y166.178
G1 F1800 X71.057 Y166.548 E41.26315
G1 X71.621 Y166.984 E41.29278
G1 X72.131 Y167.478 E41.32230
G1 X72.573 Y168.008 E41.35100
G1 X72.620 Y168.071 E41.35426
G1 X72.979 Y168.623 E41.38164
G1 X73.303 Y169.255 E41.41117
G1 X73.555 Y169.921 E41.44077
G1 X73.732 Y170.610 E41.47035
G1 X73.832 Y171.314 E41.49991
G1 X73.854 Y171.986 E41.52786
G1 X73.856 Y172.064 E41.53111
G1 X73.800 Y172.738 E41.55922
G1 X73.667 Y173.436 E41.58877
G1 X73.457 Y174.115 E41.61832
G1 X73.175 Y174.768 E41.64789
G1 X72.822 Y175.386 E41.67748
G1 X72.402 Y175.962 E41.70711
G1 X71.923 Y176.487 E41.73666
G1 X71.388 Y176.958 E41.76630
G1 X70.804 Y177.366 E41.79591
G1 X70.181 Y177.708 E41.82546
G1 X69.523 Y177.979 E41.85505
G1 X68.839 Y178.177 E41.88465
G1 X68.176 Y178.291 E41.91262
G1 X67.507 Y178.402 E41.94081
G1 X67.507 Y178.440 E41.94239
G1 X67.392 Y178.421 E41.94724
G1 X67.277 Y178.440 E41.95209
G1 X67.277 Y178.402 E41.95367
G1 X65.984 Y178.187 E42.00816
G1 X65.300 Y177.994 E42.03771
G1 X64.640 Y177.727 E42.06731
G1 X64.013 Y177.388 E42.09694
G1 X63.428 Y176.983 E42.12652
G1 X62.891 Y176.517 E42.15608
G1 X62.407 Y175.995 E42.18568
G1 X61.985 Y175.420 E42.21533
G1 X61.628 Y174.805 E42.24490
G1 X61.341 Y174.154 E42.27448
G1 X61.127 Y173.474 E42.30411
G1 X60.990 Y172.777 E42.33365
G1 X60.931 Y172.088 E42.36240
G1 X60.929 Y172.010 E42.36564
G1 X60.947 Y171.354 E42.39292
G1 X61.042 Y170.650 E42.42246
G1 X61.216 Y169.959 E42.45208
G1 X61.465 Y169.292 E42.48168
G1 X61.784 Y168.657 E42.51123
G1 X62.172 Y168.059 E42.54086
G1 X62.624 Y167.508 E42.57049
G1 X63.133 Y167.011 E42.60007
G1 X63.693 Y166.572 E42.62965
G1 X64.299 Y166.198 E42.65926
G1 X64.941 Y165.892 E42.68883
G1 X65.614 Y165.660 E42.71842
G1 X66.309 Y165.501 E42.74807
G1 X67.015 Y165.421 E42.77761
G1 X67.727 Y165.418 E42.80721
G1 X68.435 Y165.494 E42.83681
G1 X69.130 Y165.648 E42.86641
G1 X69.804 Y165.876 E42.89599
G1 X70.449 Y166.178 E42.92560
G0 F12000 X70.212 Y166.619
G1 F1800 X70.773 Y166.961 E42.95291
G1 X71.293 Y167.363 E42.98024
G1 X71.764 Y167.819 E43.00750
G1 X72.180 Y168.318 E43.03451
G1 X72.210 Y168.358 E43.03658
G1 X72.546 Y168.874 E43.06218
G1 X72.845 Y169.458 E43.08946
G1 X73.078 Y170.072 E43.11676
G1 X73.241 Y170.708 E43.14406
G1 X73.333 Y171.357 E43.17131
G1 X73.355 Y172.050 E43.20014
G1 X73.304 Y172.670 E43.22600
G1 X73.181 Y173.315 E43.25330
G1 X72.987 Y173.942 E43.28059
G1 X72.727 Y174.544 E43.30785
G1 X72.401 Y175.114 E43.33515
G1 X72.014 Y175.645 E43.36247
G1 X71.572 Y176.130 E43.38975
G1 X71.079 Y176.564 E43.41706
G1 X70.540 Y176.941 E43.44440
G1 X69.965 Y177.256 E43.47166
G1 X69.358 Y177.506 E43.49896
G1 X68.727 Y177.689 E43.52627
G1 X68.093 Y177.798 E43.55302
G1 X67.777 Y177.850 E43.56633
G1 X67.777 Y175.052 E43.68266
G1 X68.422 Y174.882 E43.71039
G1 X68.434 Y174.877 E43.71093
G1 X67.077 Y174.346 E43.77151
G1 X67.077 Y174.314 E43.77284
G1 X65.803 Y174.618 E43.82730
G1 X65.968 Y174.716 E43.83528
G1 X66.368 Y174.885 E43.85333
G1 X67.007 Y175.052 E43.88079
G1 X67.007 Y177.850 E43.99711
G1 X66.093 Y177.698 E44.03564
G1 X65.462 Y177.520 E44.06289
G1 X64.853 Y177.274 E44.09020
G1 X64.275 Y176.961 E44.11753
G1 X63.735 Y176.588 E44.14481
G1 X63.239 Y176.157 E44.17213
G1 X62.793 Y175.676 E44.19940
G1 X62.404 Y175.146 E44.22674
G1 X62.075 Y174.578 E44.25403
G1 X61.810 Y173.977 E44.28134
G1 X61.612 Y173.351 E44.30863
G1 X61.486 Y172.707 E44.33591
G1 X61.430 Y172.059 E44.36296
G1 X61.429 Y172.010 E44.36499
G1 X61.446 Y171.395 E44.39057
G1 X61.534 Y170.745 E44.41784
G1 X61.694 Y170.108 E44.44515
G1 X61.924 Y169.493 E44.47245
G1 X62.219 Y168.906 E44.49976
G1 X62.576 Y168.354 E44.52709
G1 X62.993 Y167.847 E44.55438
G1 X63.463 Y167.388 E44.58170
G1 X63.980 Y166.983 E44.60900
G1 X64.538 Y166.638 E44.63628
G1 X65.131 Y166.355 E44.66359
G1 X65.751 Y166.141 E44.69086
G1 X66.393 Y165.995 E44.71823
G1 X67.044 Y165.921 E44.74547
G1 X67.702 Y165.918 E44.77283
G1 X68.354 Y165.988 E44.80009
G1 X68.995 Y166.130 E44.82739
G1 X69.617 Y166.341 E44.85470
G1 X70.212 Y166.619 E44.88200
G0 F12000 X58.814 Y179.347
G1 F1800 X59.644 Y180.150 E44.93001
G1 X60.287 Y180.924 E44.97185
G1 X60.474 Y181.173 E44.98480
G1 X61.018 Y182.009 E45.02626
G1 X61.538 Y183.023 E45.07364
G1 X61.948 Y184.103 E45.12167
G1 X62.236 Y185.224 E45.16979
G1 X62.397 Y186.365 E45.21769
G1 X62.426 Y187.260 E45.25492
G1 X62.435 Y187.566 E45.26765
G1 X62.343 Y188.673 E45.31383
G1 X62.129 Y189.796 E45.36136
G1 X61.790 Y190.895 E45.40918
G1 X61.332 Y191.955 E45.45719
G1 X60.760 Y192.956 E45.50512
G1 X60.081 Y193.890 E45.55313
G1 X59.303 Y194.742 E45.60109
G1 X58.437 Y195.503 E45.64902
G1 X57.492 Y196.164 E45.69697
G1 X56.481 Y196.718 E45.74490
G1 X56.081 Y196.882 E45.76287
G1 X56.081 Y198.562 E45.83272
G1 X51.961 Y197.872 E46.00639
G1 X47.851 Y198.557 E46.17963
G1 X47.851 Y196.885 E46.24914
G1 X47.512 Y196.748 E46.26434
G1 X46.492 Y196.198 E46.31252
G1 X45.546 Y195.543 E46.36036
G1 X44.676 Y194.788 E46.40825
G1 X43.894 Y193.942 E46.45615
G1 X43.208 Y193.012 E46.50419
G1 X42.630 Y192.014 E46.55214
G1 X42.166 Y190.958 E46.60009
G1 X41.819 Y189.857 E46.64809
G1 X41.597 Y188.729 E46.69588
G1 X41.510 Y187.711 E46.73836
G1 X41.501 Y187.404 E46.75113
G1 X41.529 Y186.420 E46.79206
G1 X41.683 Y185.290 E46.83947
G1 X41.963 Y184.167 E46.88759
G1 X42.368 Y183.082 E46.93574
G1 X42.883 Y182.059 E46.98336
G1 X43.454 Y181.178 E47.02700
G1 X43.641 Y180.928 E47.03998
G1 X44.250 Y180.192 E47.07970
G1 X45.067 Y179.392 E47.12724
G1 X45.976 Y178.681 E47.17522
G1 X46.956 Y178.075 E47.22312
G1 X48.001 Y177.578 E47.27123
G1 X49.090 Y177.203 E47.31912
G1 X50.210 Y176.947 E47.36688
G1 X51.352 Y176.817 E47.41467
G1 X52.506 Y176.812 E47.46265
G1 X53.656 Y176.935 E47.51073
G1 X54.783 Y177.184 E47.55872
G1 X55.871 Y177.554 E47.60649
G1 X56.917 Y178.042 E47.65448
G1 X57.901 Y178.643 E47.70242
G1 X58.814 Y179.347 E47.75035
G0 F12000 X58.486 Y179.725
G1 F1800 X59.277 Y180.490 E47.79610
G1 X59.895 Y181.234 E47.83631
G1 X60.064 Y181.459 E47.84801
G1 X60.585 Y182.260 E47.88774
G1 X61.080 Y183.226 E47.93286
G1 X61.470 Y184.255 E47.97861
G1 X61.745 Y185.322 E48.02442
G1 X61.899 Y186.408 E48.07003
G1 X61.926 Y187.275 E48.10609
G1 X61.934 Y187.553 E48.11765
G1 X61.847 Y188.605 E48.16154
G1 X61.643 Y189.675 E48.20683
G1 X61.320 Y190.722 E48.25238
G1 X60.884 Y191.731 E48.29808
G1 X60.340 Y192.684 E48.34370
G1 X59.693 Y193.573 E48.38941
G1 X58.952 Y194.384 E48.43508
G1 X58.128 Y195.109 E48.48072
G1 X57.228 Y195.738 E48.52637
G1 X56.265 Y196.266 E48.57203
G1 X55.581 Y196.547 E48.60277
G1 X55.581 Y197.971 E48.66197
G1 X51.963 Y197.365 E48.81449
G1 X48.351 Y197.967 E48.96673
G1 X48.351 Y196.547 E49.02576
G1 X47.725 Y196.295 E49.05382
G1 X46.754 Y195.771 E49.09969
G1 X45.853 Y195.147 E49.14526
G1 X45.025 Y194.429 E49.19082
G1 X44.280 Y193.623 E49.23645
G1 X43.627 Y192.737 E49.28221
G1 X43.077 Y191.787 E49.32785
G1 X42.634 Y190.782 E49.37351
G1 X42.304 Y189.734 E49.41919
G1 X42.093 Y188.659 E49.46474
G1 X42.009 Y187.682 E49.50551
G1 X42.001 Y187.404 E49.51707
G1 X42.028 Y186.461 E49.55629
G1 X42.175 Y185.384 E49.60148
G1 X42.441 Y184.315 E49.64728
G1 X42.827 Y183.283 E49.69309
G1 X43.318 Y182.308 E49.73848
G1 X43.864 Y181.464 E49.78027
G1 X44.034 Y181.238 E49.79203
G1 X44.619 Y180.531 E49.83018
G1 X45.397 Y179.768 E49.87548
G1 X46.263 Y179.091 E49.92118
G1 X47.195 Y178.514 E49.96676
G1 X48.190 Y178.041 E50.01256
G1 X49.227 Y177.684 E50.05816
G1 X50.294 Y177.441 E50.10365
G1 X51.382 Y177.317 E50.14918
G1 X52.480 Y177.312 E50.19483
G1 X53.575 Y177.429 E50.24061
G1 X54.648 Y177.667 E50.28631
G1 X55.685 Y178.018 E50.33182
G1 X56.681 Y178.483 E50.37752
G1 X57.617 Y179.055 E50.42313
G1 X58.486 Y179.725 E50.46875
G0 F12000 X58.159 Y180.104
G1 F1800 X58.910 Y180.830 E50.51218
G1 X59.502 Y181.544 E50.55074
G1 X59.654 Y181.746 E50.56125
G1 X60.152 Y182.511 E50.59920
G1 X60.622 Y183.429 E50.64207
G1 X60.993 Y184.406 E50.68552
G1 X61.254 Y185.420 E50.72906
G1 X61.400 Y186.451 E50.77235
G1 X61.426 Y187.290 E50.80725
G1 X61.433 Y187.539 E50.81760
G1 X61.351 Y188.538 E50.85927
G1 X61.157 Y189.554 E50.90228
G1 X60.851 Y190.549 E50.94556
G1 X60.436 Y191.507 E50.98896
G1 X59.919 Y192.412 E51.03230
G1 X59.305 Y193.257 E51.07572
G1 X58.601 Y194.027 E51.11910
G1 X57.818 Y194.715 E51.16243
G1 X56.964 Y195.313 E51.20578
G1 X56.049 Y195.814 E51.24915
G1 X55.087 Y196.210 E51.29240
G1 X55.081 Y196.212 E51.29266
G1 X55.081 Y197.380 E51.34122
G1 X51.962 Y196.858 E51.47270
G1 X48.851 Y197.377 E51.60383
G1 X48.851 Y196.210 E51.65234
G1 X47.938 Y195.842 E51.69327
G1 X47.016 Y195.344 E51.73684
G1 X46.160 Y194.752 E51.78011
G1 X45.373 Y194.069 E51.82343
G1 X44.666 Y193.304 E51.86674
G1 X44.046 Y192.463 E51.91018
G1 X43.523 Y191.560 E51.95356
G1 X43.103 Y190.606 E51.99690
G1 X42.789 Y189.610 E52.04031
G1 X42.589 Y188.589 E52.08357
G1 X42.509 Y187.654 E52.12258
G1 X42.501 Y187.404 E52.13298
G1 X42.527 Y186.502 E52.17050
G1 X42.667 Y185.479 E52.21343
G1 X42.919 Y184.464 E52.25691
G1 X43.286 Y183.483 E52.30045
G1 X43.752 Y182.557 E52.34355
G1 X44.275 Y181.750 E52.38353
G1 X44.427 Y181.547 E52.39408
G1 X44.988 Y180.870 E52.43063
G1 X45.727 Y180.145 E52.47367
G1 X46.549 Y179.502 E52.51706
G1 X47.435 Y178.954 E52.56037
G1 X48.380 Y178.505 E52.60387
G1 X49.364 Y178.166 E52.64714
G1 X50.378 Y177.935 E52.69038
G1 X51.411 Y177.817 E52.73360
G1 X52.455 Y177.812 E52.77701
G1 X53.495 Y177.924 E52.82050
G1 X54.514 Y178.149 E52.86388
G1 X55.498 Y178.483 E52.90708
G1 X56.444 Y178.924 E52.95048
G1 X57.334 Y179.468 E52.99385
G1 X58.159 Y180.104 E53.03715
G0 F12000 X57.831 Y180.483
G1 F1800 X58.543 Y181.171 E53.07832
G1 X59.110 Y181.853 E53.11519
G1 X59.244 Y182.033 E53.12452
G1 X59.719 Y182.762 E53.16069
G1 X60.165 Y183.633 E53.20138
G1 X60.516 Y184.558 E53.24251
G1 X60.763 Y185.517 E53.28368
G1 X60.901 Y186.494 E53.32470
G1 X60.927 Y187.305 E53.35844
G1 X60.933 Y187.526 E53.36763
G1 X60.855 Y188.470 E53.40701
G1 X60.671 Y189.433 E53.44777
G1 X60.381 Y190.376 E53.48879
G1 X59.988 Y191.283 E53.52989
G1 X59.498 Y192.140 E53.57093
G1 X58.917 Y192.940 E53.61204
G1 X58.251 Y193.669 E53.65309
G1 X57.509 Y194.322 E53.69418
G1 X56.700 Y194.888 E53.73523
G1 X55.834 Y195.362 E53.77627
G1 X54.922 Y195.737 E53.81727
G1 X54.581 Y195.836 E53.83203
G1 X54.581 Y196.790 E53.87170
G1 X51.962 Y196.351 E53.98210
G1 X49.351 Y196.786 E54.09215
G1 X49.351 Y195.838 E54.13156
G1 X49.064 Y195.757 E54.14396
G1 X48.150 Y195.388 E54.18494
G1 X47.278 Y194.917 E54.22614
G1 X46.467 Y194.356 E54.26714
G1 X45.722 Y193.709 E54.30817
G1 X45.052 Y192.985 E54.34918
G1 X44.465 Y192.188 E54.39033
G1 X43.970 Y191.333 E54.43140
G1 X43.572 Y190.429 E54.47247
G1 X43.275 Y189.486 E54.51357
G1 X43.085 Y188.519 E54.55455
G1 X43.008 Y187.625 E54.59185
G1 X43.002 Y187.404 E54.60104
G1 X43.026 Y186.543 E54.63685
G1 X43.159 Y185.573 E54.67756
G1 X43.398 Y184.612 E54.71873
G1 X43.744 Y183.684 E54.75991
G1 X44.186 Y182.806 E54.80077
G1 X44.685 Y182.036 E54.83892
G1 X44.820 Y181.857 E54.84824
G1 X45.356 Y181.208 E54.88324
G1 X46.057 Y180.522 E54.92401
G1 X46.836 Y179.913 E54.96512
G1 X47.675 Y179.394 E55.00614
G1 X48.569 Y178.969 E55.04729
G1 X49.502 Y178.647 E55.08833
G1 X50.462 Y178.428 E55.12927
G1 X51.441 Y178.317 E55.17023
G1 X52.429 Y178.312 E55.21131
G1 X53.414 Y178.418 E55.25249
G1 X54.379 Y178.631 E55.29358
G1 X55.311 Y178.948 E55.33451
G1 X56.207 Y179.366 E55.37561
G1 X57.050 Y179.880 E55.41666
G1 X57.831 Y180.483 E55.45768
G0 F12000 X57.504 Y180.862
G1 F1800 X58.176 Y181.511 E55.49652
G1 X58.717 Y182.163 E55.53175
G1 X58.834 Y182.319 E55.53986
G1 X59.286 Y183.013 E55.57429
G1 X59.707 Y183.836 E55.61272
G1 X60.038 Y184.709 E55.65154
G1 X60.271 Y185.615 E55.69043
G1 X60.402 Y186.537 E55.72915
G1 X60.427 Y187.320 E55.76172
G1 X60.432 Y187.512 E55.76970
G1 X60.359 Y188.402 E55.80683
G1 X60.185 Y189.312 E55.84535
G1 X59.911 Y190.202 E55.88406
G1 X59.540 Y191.059 E55.92289
G1 X59.078 Y191.868 E55.96162
G1 X58.529 Y192.623 E56.00043
G1 X57.900 Y193.312 E56.03922
G1 X57.200 Y193.928 E56.07799
G1 X56.435 Y194.462 E56.11677
G1 X55.618 Y194.910 E56.15551
G1 X54.757 Y195.264 E56.19422
G1 X54.081 Y195.460 E56.22348
G1 X54.081 Y196.199 E56.25420
G1 X51.963 Y195.844 E56.34349
G1 X49.851 Y196.196 E56.43250
G1 X49.851 Y195.459 E56.46315
G1 X49.226 Y195.283 E56.49014
G1 X48.363 Y194.935 E56.52883
G1 X47.540 Y194.491 E56.56770
G1 X46.774 Y193.960 E56.60646
G1 X46.070 Y193.350 E56.64518
G1 X45.438 Y192.666 E56.68390
G1 X44.884 Y191.914 E56.72273
G1 X44.416 Y191.107 E56.76152
G1 X44.040 Y190.253 E56.80031
G1 X43.760 Y189.363 E56.83910
G1 X43.581 Y188.450 E56.87778
G1 X43.507 Y187.596 E56.91342
G1 X43.502 Y187.404 E56.92141
G1 X43.525 Y186.584 E56.95551
G1 X43.650 Y185.668 E56.99395
G1 X43.876 Y184.760 E57.03285
G1 X44.203 Y183.884 E57.07172
G1 X44.621 Y183.055 E57.11032
G1 X45.095 Y182.323 E57.14658
G1 X45.212 Y182.166 E57.15472
G1 X45.725 Y181.547 E57.18814
G1 X46.387 Y180.898 E57.22669
G1 X47.122 Y180.324 E57.26546
G1 X47.914 Y179.834 E57.30418
G1 X48.759 Y179.432 E57.34308
G1 X49.639 Y179.129 E57.38178
G1 X50.546 Y178.922 E57.42046
G1 X51.471 Y178.817 E57.45916
G1 X52.403 Y178.812 E57.49791
G1 X53.333 Y178.912 E57.53680
G1 X54.244 Y179.113 E57.57558
G1 X55.125 Y179.412 E57.61426
G1 X55.970 Y179.807 E57.65304
G1 X56.766 Y180.293 E57.69182
G1 X57.504 Y180.862 E57.73056
G0 F12000 X57.177 Y181.241
G1 F1800 X57.808 Y181.852 E57.76708
G1 X58.325 Y182.473 E57.80067
G1 X58.424 Y182.606 E57.80756
G1 X58.852 Y183.264 E57.84020
G1 X59.249 Y184.039 E57.87640
G1 X59.561 Y184.861 E57.91295
G1 X59.780 Y185.713 E57.94953
G1 X59.903 Y186.580 E57.98593
G1 X59.927 Y187.335 E58.01734
G1 X59.932 Y187.499 E58.02416
G1 X59.862 Y188.335 E58.05904
G1 X59.699 Y189.192 E58.09531
G1 X59.441 Y190.029 E58.13172
G1 X59.093 Y190.835 E58.16822
G1 X58.657 Y191.596 E58.20469
G1 X58.141 Y192.307 E58.24121
G1 X57.549 Y192.954 E58.27767
G1 X56.890 Y193.534 E58.31417
G1 X56.171 Y194.037 E58.35065
G1 X55.402 Y194.459 E58.38712
G1 X54.592 Y194.791 E58.42351
G1 X53.751 Y195.035 E58.45992
G1 X53.581 Y195.064 E58.46709
G1 X53.581 Y195.608 E58.48971
G1 X51.963 Y195.337 E58.55791
G1 X50.351 Y195.606 E58.62586
G1 X50.351 Y195.067 E58.64827
G1 X50.229 Y195.047 E58.65341
G1 X49.388 Y194.809 E58.68974
G1 X48.576 Y194.482 E58.72614
G1 X47.802 Y194.064 E58.76271
G1 X47.081 Y193.565 E58.79916
G1 X46.419 Y192.990 E58.83562
G1 X45.824 Y192.347 E58.87204
G1 X45.302 Y191.639 E58.90861
G1 X44.863 Y190.880 E58.94507
G1 X44.509 Y190.077 E58.98155
G1 X44.245 Y189.239 E59.01808
G1 X44.077 Y188.380 E59.05447
G1 X44.007 Y187.568 E59.08835
G1 X44.002 Y187.404 E59.09517
G1 X44.024 Y186.625 E59.12757
G1 X44.142 Y185.762 E59.16379
G1 X44.354 Y184.909 E59.20033
G1 X44.662 Y184.085 E59.23690
G1 X45.055 Y183.304 E59.27325
G1 X45.506 Y182.609 E59.30770
G1 X45.605 Y182.476 E59.31459
G1 X46.093 Y181.886 E59.34642
G1 X46.717 Y181.275 E59.38273
G1 X47.408 Y180.734 E59.41922
G1 X48.154 Y180.273 E59.45568
G1 X48.948 Y179.896 E59.49222
G1 X49.777 Y179.610 E59.52868
G1 X50.631 Y179.416 E59.56509
G1 X51.500 Y179.317 E59.60145
G1 X52.378 Y179.312 E59.63796
G1 X53.252 Y179.406 E59.67450
G1 X54.109 Y179.596 E59.71100
G1 X54.938 Y179.877 E59.74739
G1 X55.733 Y180.248 E59.78386
G1 X56.482 Y180.706 E59.82036
G1 X57.177 Y181.241 E59.85683
G0 F12000 X56.849 Y181.620
G1 F1800 X57.441 Y182.192 E59.89105
G1 X57.932 Y182.783 E59.92300
G1 X58.014 Y182.893 E59.92870
G1 X58.419 Y183.515 E59.95956
G1 X58.792 Y184.242 E59.99353
G1 X59.084 Y185.012 E60.02777
G1 X59.289 Y185.810 E60.06202
G1 X59.404 Y186.623 E60.09616
G1 X59.427 Y187.350 E60.12640
G1 X59.431 Y187.485 E60.13201
G1 X59.366 Y188.267 E60.16464
G1 X59.213 Y189.071 E60.19866
G1 X58.971 Y189.856 E60.23282
G1 X58.645 Y190.611 E60.26701
G1 X58.237 Y191.324 E60.30116
G1 X57.753 Y191.990 E60.33539
G1 X57.198 Y192.597 E60.36958
G1 X56.581 Y193.140 E60.40375
G1 X55.907 Y193.612 E60.43796
G1 X55.186 Y194.007 E60.47214
G1 X54.427 Y194.319 E60.50626
G1 X53.639 Y194.547 E60.54037
G1 X53.081 Y194.643 E60.56391
G1 X53.081 Y195.017 E60.57946
G1 X51.964 Y194.830 E60.62654
G1 X50.851 Y195.016 E60.67346
G1 X50.851 Y194.644 E60.68892
G1 X50.338 Y194.558 E60.71055
G1 X49.550 Y194.335 E60.74460
G1 X48.789 Y194.029 E60.77870
G1 X48.063 Y193.637 E60.81300
G1 X47.388 Y193.169 E60.84715
G1 X46.767 Y192.631 E60.88131
G1 X46.210 Y192.028 E60.91544
G1 X45.721 Y191.365 E60.94969
G1 X45.309 Y190.653 E60.98389
G1 X44.978 Y189.900 E61.01808
G1 X44.731 Y189.116 E61.05226
G1 X44.573 Y188.310 E61.08641
G1 X44.506 Y187.539 E61.11858
G1 X44.502 Y187.404 E61.12420
G1 X44.523 Y186.666 E61.15489
G1 X44.634 Y185.857 E61.18884
G1 X44.833 Y185.057 E61.22311
G1 X45.121 Y184.285 E61.25737
G1 X45.490 Y183.553 E61.29145
G1 X45.916 Y182.895 E61.32404
G1 X45.998 Y182.786 E61.32971
G1 X46.462 Y182.225 E61.35998
G1 X47.047 Y181.652 E61.39402
G1 X47.695 Y181.145 E61.42823
G1 X48.393 Y180.713 E61.46236
G1 X49.137 Y180.359 E61.49661
G1 X49.914 Y180.092 E61.53077
G1 X50.715 Y179.909 E61.56493
G1 X51.530 Y179.816 E61.59903
G1 X52.352 Y179.813 E61.63321
G1 X53.171 Y179.900 E61.66745
G1 X53.975 Y180.078 E61.70169
G1 X54.751 Y180.342 E61.73577
G1 X55.497 Y180.690 E61.76999
G1 X56.198 Y181.118 E61.80414
G1 X56.849 Y181.620 E61.83831
G0 F12000 X56.522 Y181.999
G1 F1800 X57.074 Y182.533 E61.87024
G1 X57.539 Y183.093 E61.90051
G1 X57.604 Y183.179 E61.90499
G1 X57.986 Y183.766 E61.93411
G1 X58.334 Y184.446 E61.96586
G1 X58.606 Y185.163 E61.99775
G1 X58.798 Y185.908 E62.02973
G1 X58.905 Y186.666 E62.06156
G1 X58.927 Y187.365 E62.09063
G1 X58.930 Y187.472 E62.09508
G1 X58.870 Y188.199 E62.12541
G1 X58.727 Y188.950 E62.15720
G1 X58.502 Y189.682 E62.18903
G1 X58.197 Y190.387 E62.22097
G1 X57.816 Y191.053 E62.25287
G1 X57.365 Y191.674 E62.28478
G1 X56.848 Y192.240 E62.31665
G1 X56.271 Y192.746 E62.34856
G1 X55.643 Y193.186 E62.38044
G1 X54.970 Y193.555 E62.41235
G1 X54.262 Y193.846 E62.44417
G1 X53.526 Y194.059 E62.47602
G1 X52.834 Y194.178 E62.50522
G1 X52.581 Y194.220 E62.51588
G1 X52.581 Y194.427 E62.52449
G1 X51.963 Y194.324 E62.55053
G1 X51.351 Y194.426 E62.57633
G1 X51.351 Y194.221 E62.58485
G1 X50.448 Y194.070 E62.62292
G1 X49.712 Y193.862 E62.65471
G1 X49.002 Y193.575 E62.68655
G1 X48.325 Y193.210 E62.71853
G1 X47.695 Y192.774 E62.75038
G1 X47.116 Y192.271 E62.78227
G1 X46.596 Y191.709 E62.81410
G1 X46.140 Y191.090 E62.84607
G1 X45.756 Y190.427 E62.87792
G1 X45.446 Y189.724 E62.90986
G1 X45.216 Y188.992 E62.94176
G1 X45.068 Y188.240 E62.97363
G1 X45.006 Y187.511 E63.00404
G1 X45.002 Y187.404 E63.00850
G1 X45.022 Y186.707 E63.03749
G1 X45.126 Y185.951 E63.06921
G1 X45.311 Y185.205 E63.10117
G1 X45.580 Y184.486 E63.13308
G1 X45.924 Y183.802 E63.16491
G1 X46.326 Y183.181 E63.19567
G1 X46.391 Y183.095 E63.20015
G1 X46.831 Y182.564 E63.22882
G1 X47.377 Y182.028 E63.26063
G1 X47.981 Y181.556 E63.29250
G1 X48.633 Y181.153 E63.32437
G1 X49.327 Y180.823 E63.35632
G1 X50.051 Y180.573 E63.38816
G1 X50.799 Y180.403 E63.42005
G1 X51.559 Y180.316 E63.45186
G1 X52.327 Y180.313 E63.48379
G1 X53.090 Y180.395 E63.51569
G1 X53.840 Y180.560 E63.54762
G1 X54.565 Y180.806 E63.57945
G1 X55.260 Y181.131 E63.61135
G1 X55.915 Y181.531 E63.64325
G1 X56.522 Y181.999 E63.67512
G0 F12000 X56.194 Y182.378
G1 F1800 X56.707 Y182.873 E63.70476
G1 X57.147 Y183.403 E63.73340
G1 X57.194 Y183.466 E63.73667
G1 X57.553 Y184.017 E63.76401
G1 X57.876 Y184.649 E63.79351
G1 X58.129 Y185.315 E63.82313
G1 X58.307 Y186.006 E63.85280
G1 X58.406 Y186.709 E63.88232
G1 X58.428 Y187.380 E63.91023
G1 X58.430 Y187.458 E63.91347
G1 X58.374 Y188.132 E63.94159
G1 X58.241 Y188.829 E63.97109
G1 X58.032 Y189.509 E64.00067
G1 X57.749 Y190.163 E64.03029
G1 X57.396 Y190.781 E64.05988
G1 X56.977 Y191.357 E64.08950
G1 X56.497 Y191.882 E64.11907
G1 X55.962 Y192.353 E64.14871
G1 X55.378 Y192.761 E64.17832
G1 X54.755 Y193.103 E64.20787
G1 X54.097 Y193.373 E64.23744
G1 X53.414 Y193.571 E64.26701
G1 X52.750 Y193.685 E64.29502
G1 X52.081 Y193.797 E64.32322
G1 X52.081 Y193.836 E64.32484
G1 X51.963 Y193.816 E64.32981
G1 X51.851 Y193.835 E64.33454
G1 X51.851 Y193.797 E64.33612
G1 X50.558 Y193.581 E64.39062
G1 X49.874 Y193.388 E64.42017
G1 X49.215 Y193.122 E64.44971
G1 X48.587 Y192.783 E64.47938
G1 X48.002 Y192.378 E64.50896
G1 X47.464 Y191.911 E64.53858
G1 X46.982 Y191.390 E64.56809
G1 X46.559 Y190.816 E64.59774
G1 X46.202 Y190.200 E64.62734
G1 X45.915 Y189.548 E64.65695
G1 X45.701 Y188.868 E64.68659
G1 X45.564 Y188.171 E64.71612
G1 X45.505 Y187.482 E64.74487
G1 X45.503 Y187.404 E64.74812
G1 X45.521 Y186.748 E64.77540
G1 X45.617 Y186.045 E64.80490
G1 X45.789 Y185.354 E64.83450
G1 X46.039 Y184.686 E64.86416
G1 X46.358 Y184.051 E64.89370
G1 X46.737 Y183.468 E64.92261
G1 X46.784 Y183.405 E64.92588
G1 X47.199 Y182.903 E64.95296
G1 X47.707 Y182.405 E64.98253
G1 X48.267 Y181.967 E65.01209
G1 X48.873 Y181.592 E65.04172
G1 X49.516 Y181.287 E65.07131
G1 X50.189 Y181.055 E65.10090
G1 X50.883 Y180.897 E65.13050
G1 X51.589 Y180.816 E65.16004
G1 X52.301 Y180.813 E65.18964
G1 X53.009 Y180.889 E65.21925
G1 X53.705 Y181.043 E65.24888
G1 X54.378 Y181.271 E65.27842
G1 X55.023 Y181.572 E65.30802
G1 X55.631 Y181.943 E65.33763
G1 X56.194 Y182.378 E65.36721
G0 F12000 X55.867 Y182.757
G1 F1800 X56.340 Y183.214 E65.39455
G1 X56.754 Y183.713 E65.42151
G1 X56.784 Y183.753 E65.42359
G1 X57.120 Y184.268 E65.44915
G1 X57.419 Y184.852 E65.47643
G1 X57.652 Y185.466 E65.50373
G1 X57.816 Y186.103 E65.53108
G1 X57.907 Y186.752 E65.55833
G1 X57.929 Y187.444 E65.58711
G1 X57.878 Y188.064 E65.61298
G1 X57.755 Y188.708 E65.64023
G1 X57.562 Y189.336 E65.66755
G1 X57.301 Y189.939 E65.69487
G1 X56.975 Y190.509 E65.72217
G1 X56.589 Y191.040 E65.74946
G1 X56.146 Y191.525 E65.77677
G1 X55.653 Y191.959 E65.80408
G1 X55.114 Y192.336 E65.83142
G1 X54.539 Y192.651 E65.85868
G1 X53.932 Y192.900 E65.88596
G1 X53.301 Y193.083 E65.91327
G1 X52.667 Y193.192 E65.94002
G1 X52.351 Y193.245 E65.95334
G1 X52.351 Y190.965 E66.04813
G1 X51.967 Y191.067 E66.06465
G1 X51.581 Y190.965 E66.08125
G1 X51.581 Y193.245 E66.17604
G1 X50.667 Y193.092 E66.21457
G1 X50.036 Y192.914 E66.24182
G1 X49.428 Y192.669 E66.26908
G1 X48.849 Y192.356 E66.29644
G1 X48.309 Y191.983 E66.32373
G1 X47.813 Y191.552 E66.35105
G1 X47.368 Y191.071 E66.37829
G1 X46.978 Y190.541 E66.40565
G1 X46.649 Y189.973 E66.43294
G1 X46.384 Y189.371 E66.46028
G1 X46.186 Y188.745 E66.48758
G1 X46.060 Y188.101 E66.51486
G1 X46.004 Y187.453 E66.54190
G1 X46.003 Y187.404 E66.54394
G1 X46.020 Y186.789 E66.56952
G1 X46.109 Y186.140 E66.59675
G1 X46.268 Y185.502 E66.62409
G1 X46.498 Y184.887 E66.65139
G1 X46.793 Y184.300 E66.67870
G1 X47.147 Y183.754 E66.70576
G1 X47.177 Y183.714 E66.70783
G1 X47.568 Y183.242 E66.73332
G1 X48.037 Y182.782 E66.76063
G1 X48.554 Y182.378 E66.78791
G1 X49.112 Y182.032 E66.81520
G1 X49.705 Y181.750 E66.84250
G1 X50.326 Y181.536 E66.86981
G1 X50.967 Y181.390 E66.89714
G1 X51.618 Y181.316 E66.92438
G1 X52.276 Y181.313 E66.95174
G1 X52.928 Y181.383 E66.97900
G1 X53.570 Y181.525 E67.00634
G1 X54.191 Y181.736 E67.03361
G1 X54.786 Y182.013 E67.06089
G1 X55.347 Y182.356 E67.08823
G1 X55.867 Y182.757 E67.11553
G0 F12000 X44.217 Y195.543
G1 F1800 X44.860 Y196.316 E67.15733
G1 X45.048 Y196.567 E67.17037
G1 X45.593 Y197.405 E67.21193
G1 X46.112 Y198.419 E67.25929
G1 X46.521 Y199.498 E67.30727
G1 X46.810 Y200.618 E67.35535
G1 X46.971 Y201.760 E67.40330
G1 X47.000 Y202.655 E67.44053
G1 X47.008 Y202.957 E67.45309
G1 X46.918 Y204.068 E67.49943
G1 X46.702 Y205.194 E67.54710
G1 X46.364 Y206.292 E67.59486
G1 X45.906 Y207.348 E67.64272
G1 X45.334 Y208.351 E67.69072
G1 X44.655 Y209.284 E67.73870
G1 X43.878 Y210.135 E67.78661
G1 X43.014 Y210.895 E67.83445
G1 X42.069 Y211.558 E67.88244
G1 X41.053 Y212.114 E67.93059
G1 X40.655 Y212.277 E67.94847
G1 X40.655 Y213.948 E68.01795
G1 X36.543 Y213.265 E68.19125
G1 X32.425 Y213.951 E68.36481
G1 X32.425 Y212.280 E68.43428
G1 X32.086 Y212.143 E68.44948
G1 X31.064 Y211.592 E68.49776
G1 X30.118 Y210.935 E68.54564
G1 X29.252 Y210.184 E68.59330
G1 X28.470 Y209.338 E68.64120
G1 X27.782 Y208.407 E68.68932
G1 X27.202 Y207.404 E68.73749
G1 X26.742 Y206.355 E68.78512
G1 X26.394 Y205.256 E68.83304
G1 X26.171 Y204.124 E68.88101
G1 X26.084 Y203.106 E68.92349
G1 X26.075 Y202.799 E68.93626
G1 X26.103 Y201.815 E68.97718
G1 X26.258 Y200.680 E69.02481
G1 X26.539 Y199.558 E69.07290
G1 X26.941 Y198.482 E69.12065
G1 X27.455 Y197.457 E69.16832
G1 X28.028 Y196.572 E69.21216
G1 X28.215 Y196.322 E69.22514
G1 X28.826 Y195.584 E69.26497
G1 X29.641 Y194.787 E69.31236
G1 X30.550 Y194.074 E69.36039
G1 X31.530 Y193.470 E69.40825
G1 X32.572 Y192.973 E69.45625
G1 X33.667 Y192.596 E69.50440
G1 X34.784 Y192.343 E69.55201
G1 X35.924 Y192.211 E69.59973
G1 X37.083 Y192.206 E69.64791
G1 X38.232 Y192.331 E69.69596
G1 X39.354 Y192.577 E69.74372
G1 X40.448 Y192.949 E69.79176
G1 X41.490 Y193.437 E69.83960
G1 X42.477 Y194.036 E69.88760
G1 X43.392 Y194.745 E69.93572
G1 X44.217 Y195.543 E69.98344
G0 F12000 X43.850 Y195.883
G1 F1800 X44.467 Y196.626 E70.02360
G1 X44.638 Y196.853 E70.03541
G1 X45.160 Y197.656 E70.07523
G1 X45.655 Y198.622 E70.12036
G1 X46.044 Y199.649 E70.16602
G1 X46.319 Y200.716 E70.21183
G1 X46.473 Y201.803 E70.25747
G1 X46.500 Y202.670 E70.29353
G1 X46.508 Y202.944 E70.30493
G1 X46.422 Y204.000 E70.34898
G1 X46.216 Y205.073 E70.39440
G1 X45.894 Y206.118 E70.43986
G1 X45.458 Y207.124 E70.48545
G1 X44.914 Y208.079 E70.53114
G1 X44.267 Y208.967 E70.57682
G1 X43.527 Y209.778 E70.62246
G1 X42.704 Y210.501 E70.66801
G1 X41.804 Y211.133 E70.71373
G1 X40.838 Y211.662 E70.75952
G1 X40.155 Y211.942 E70.79021
G1 X40.155 Y213.358 E70.84908
G1 X36.543 Y212.758 E71.00131
G1 X32.925 Y213.361 E71.15380
G1 X32.925 Y211.943 E71.21275
G1 X32.299 Y211.690 E71.24083
G1 X31.326 Y211.165 E71.28679
G1 X30.425 Y210.539 E71.33240
G1 X29.600 Y209.824 E71.37779
G1 X28.856 Y209.019 E71.42337
G1 X28.201 Y208.133 E71.46917
G1 X27.649 Y207.178 E71.51503
G1 X27.210 Y206.178 E71.56044
G1 X26.879 Y205.132 E71.60605
G1 X26.667 Y204.054 E71.65173
G1 X26.583 Y203.077 E71.69250
G1 X26.575 Y202.799 E71.70406
G1 X26.602 Y201.856 E71.74328
G1 X26.750 Y200.775 E71.78864
G1 X27.018 Y199.707 E71.83442
G1 X27.400 Y198.682 E71.87990
G1 X27.889 Y197.706 E71.92529
G1 X28.438 Y196.858 E71.96729
G1 X28.608 Y196.632 E71.97904
G1 X29.195 Y195.923 E72.01731
G1 X29.971 Y195.164 E72.06244
G1 X30.837 Y194.485 E72.10819
G1 X31.769 Y193.910 E72.15372
G1 X32.762 Y193.436 E72.19947
G1 X33.804 Y193.077 E72.24529
G1 X34.869 Y192.836 E72.29068
G1 X35.954 Y192.711 E72.33609
G1 X37.057 Y192.706 E72.38195
G1 X38.151 Y192.825 E72.42770
G1 X39.220 Y193.060 E72.47321
G1 X40.261 Y193.413 E72.51891
G1 X41.253 Y193.878 E72.56446
G1 X42.193 Y194.449 E72.61018
G1 X43.064 Y195.124 E72.65599
G1 X43.850 Y195.883 E72.70142
G0 F12000 X43.483 Y196.224
G1 F1800 X44.075 Y196.936 E72.73992
G1 X44.228 Y197.140 E72.75052
G1 X44.727 Y197.906 E72.78853
G1 X45.197 Y198.826 E72.83148
G1 X45.567 Y199.801 E72.87484
G1 X45.828 Y200.813 E72.91829
G1 X45.974 Y201.846 E72.96166
G1 X46.000 Y202.685 E72.99656
G1 X46.007 Y202.931 E73.00679
G1 X45.926 Y203.933 E73.04858
G1 X45.730 Y204.952 E73.09173
G1 X45.424 Y205.945 E73.13493
G1 X45.010 Y206.900 E73.17820
G1 X44.493 Y207.807 E73.22161
G1 X43.879 Y208.650 E73.26496
G1 X43.177 Y209.421 E73.30832
G1 X42.395 Y210.108 E73.35159
G1 X41.540 Y210.708 E73.39502
G1 X40.622 Y211.210 E73.43852
G1 X39.661 Y211.605 E73.48171
G1 X39.655 Y211.607 E73.48198
G1 X39.655 Y212.768 E73.53025
G1 X36.544 Y212.251 E73.66136
G1 X33.425 Y212.771 E73.79282
G1 X33.425 Y211.605 E73.84130
G1 X32.512 Y211.237 E73.88223
G1 X31.588 Y210.738 E73.92588
G1 X30.732 Y210.144 E73.96920
G1 X29.949 Y209.464 E74.01232
G1 X29.242 Y208.699 E74.05563
G1 X28.620 Y207.858 E74.09911
G1 X28.096 Y206.951 E74.14266
G1 X27.679 Y206.002 E74.18576
G1 X27.364 Y205.008 E74.22911
G1 X27.163 Y203.984 E74.27250
G1 X27.083 Y203.049 E74.31151
G1 X27.075 Y202.799 E74.32191
G1 X27.101 Y201.897 E74.35943
G1 X27.241 Y200.870 E74.40252
G1 X27.496 Y199.855 E74.44603
G1 X27.859 Y198.882 E74.48920
G1 X28.324 Y197.954 E74.53236
G1 X28.849 Y197.144 E74.57249
G1 X29.001 Y196.941 E74.58303
G1 X29.563 Y196.262 E74.61968
G1 X30.301 Y195.540 E74.66260
G1 X31.123 Y194.896 E74.70602
G1 X32.009 Y194.349 E74.74931
G1 X32.951 Y193.900 E74.79269
G1 X33.941 Y193.559 E74.83622
G1 X34.953 Y193.330 E74.87936
G1 X35.984 Y193.211 E74.92251
G1 X37.031 Y193.206 E74.96604
G1 X38.070 Y193.319 E75.00949
G1 X39.085 Y193.542 E75.05270
G1 X40.074 Y193.878 E75.09612
G1 X41.016 Y194.319 E75.13937
G1 X41.909 Y194.862 E75.18282
G1 X42.736 Y195.502 E75.22629
G1 X43.483 Y196.224 E75.26949
G0 F12000 X43.116 Y196.565
G1 F1800 X43.683 Y197.246 E75.30633
G1 X43.818 Y197.427 E75.31571
G1 X44.293 Y198.157 E75.35192
G1 X44.739 Y199.029 E75.39264
G1 X45.089 Y199.952 E75.43368
G1 X45.337 Y200.911 E75.47487
G1 X45.475 Y201.889 E75.51593
G1 X45.501 Y202.700 E75.54966
G1 X45.507 Y202.918 E75.55873
G1 X45.430 Y203.865 E75.59823
G1 X45.244 Y204.831 E75.63913
G1 X44.954 Y205.772 E75.68007
G1 X44.562 Y206.677 E75.72107
G1 X44.072 Y207.535 E75.76215
G1 X43.491 Y208.334 E75.80323
G1 X42.826 Y209.063 E75.84425
G1 X42.085 Y209.714 E75.88526
G1 X41.276 Y210.282 E75.92635
G1 X40.407 Y210.758 E75.96755
G1 X39.496 Y211.132 E76.00849
G1 X39.155 Y211.231 E76.02325
G1 X39.155 Y212.178 E76.06262
G1 X36.542 Y211.744 E76.17275
G1 X33.925 Y212.180 E76.28305
G1 X33.925 Y211.233 E76.32242
G1 X33.639 Y211.152 E76.33478
G1 X32.724 Y210.783 E76.37580
G1 X31.850 Y210.311 E76.41709
G1 X31.040 Y209.749 E76.45808
G1 X30.297 Y209.105 E76.49896
G1 X29.627 Y208.380 E76.54000
G1 X29.039 Y207.584 E76.58115
G1 X28.542 Y206.725 E76.62241
G1 X28.147 Y205.825 E76.66327
G1 X27.849 Y204.884 E76.70431
G1 X27.659 Y203.914 E76.74540
G1 X27.582 Y203.020 E76.78271
G1 X27.576 Y202.799 E76.79190
G1 X27.600 Y201.938 E76.82771
G1 X27.733 Y200.964 E76.86858
G1 X27.974 Y200.004 E76.90973
G1 X28.318 Y199.082 E76.95064
G1 X28.759 Y198.203 E76.99153
G1 X29.259 Y197.430 E77.02980
G1 X29.394 Y197.251 E77.03912
G1 X29.931 Y196.601 E77.07418
G1 X30.631 Y195.917 E77.11487
G1 X31.410 Y195.307 E77.15600
G1 X32.249 Y194.789 E77.19700
G1 X33.141 Y194.363 E77.23809
G1 X34.078 Y194.040 E77.27930
G1 X35.037 Y193.823 E77.32018
G1 X36.014 Y193.711 E77.36106
G1 X37.005 Y193.706 E77.40226
G1 X37.989 Y193.813 E77.44342
G1 X38.951 Y194.025 E77.48437
G1 X39.887 Y194.342 E77.52546
G1 X40.780 Y194.760 E77.56645
G1 X41.625 Y195.274 E77.60757
G1 X42.408 Y195.881 E77.64876
G1 X43.116 Y196.565 E77.68969
G0 F12000 X42.749 Y196.905
G1 F1800 X43.290 Y197.556 E77.72488
G1 X43.408 Y197.713 E77.73304
G1 X43.860 Y198.408 E77.76751
G1 X44.281 Y199.232 E77.80598
G1 X44.612 Y200.104 E77.84476
G1 X44.845 Y201.009 E77.88361
G1 X44.976 Y201.932 E77.92237
G1 X45.001 Y202.715 E77.95494
G1 X45.006 Y202.905 E77.96284
G1 X44.934 Y203.797 E78.00005
G1 X44.758 Y204.709 E78.03866
G1 X44.485 Y205.598 E78.07733
G1 X44.114 Y206.453 E78.11608
G1 X43.652 Y207.263 E78.15485
G1 X43.103 Y208.017 E78.19362
G1 X42.475 Y208.706 E78.23238
G1 X41.776 Y209.321 E78.27109
G1 X41.011 Y209.857 E78.30992
G1 X40.191 Y210.306 E78.34879
G1 X39.331 Y210.659 E78.38744
G1 X38.655 Y210.855 E78.41670
G1 X38.655 Y211.589 E78.44722
G1 X36.541 Y211.238 E78.53631
G1 X34.425 Y211.590 E78.62550
G1 X34.425 Y210.854 E78.65609
G1 X33.801 Y210.678 E78.68305
G1 X32.937 Y210.330 E78.72177
G1 X32.112 Y209.885 E78.76075
G1 X31.347 Y209.353 E78.79949
G1 X30.645 Y208.745 E78.83810
G1 X30.013 Y208.061 E78.87681
G1 X29.458 Y207.309 E78.91567
G1 X28.989 Y206.499 E78.95458
G1 X28.616 Y205.649 E78.99318
G1 X28.334 Y204.760 E79.03195
G1 X28.155 Y203.845 E79.07071
G1 X28.081 Y202.991 E79.10635
G1 X28.076 Y202.799 E79.11434
G1 X28.099 Y201.979 E79.14844
G1 X28.225 Y201.059 E79.18705
G1 X28.452 Y200.153 E79.22588
G1 X28.777 Y199.282 E79.26453
G1 X29.193 Y198.452 E79.30313
G1 X29.669 Y197.717 E79.33954
G1 X29.786 Y197.560 E79.34768
G1 X30.300 Y196.940 E79.38116
G1 X30.961 Y196.294 E79.41959
G1 X31.696 Y195.717 E79.45843
G1 X32.488 Y195.229 E79.49711
G1 X33.331 Y194.827 E79.53594
G1 X34.215 Y194.522 E79.57482
G1 X35.121 Y194.317 E79.61344
G1 X36.044 Y194.211 E79.65206
G1 X36.979 Y194.206 E79.69094
G1 X37.908 Y194.307 E79.72979
G1 X38.817 Y194.507 E79.76848
G1 X39.700 Y194.807 E79.80726
G1 X40.543 Y195.202 E79.84596
G1 X41.341 Y195.687 E79.88478
G1 X42.080 Y196.259 E79.92364
G1 X42.749 Y196.905 E79.96230
G0 F12000 X42.382 Y197.246
G1 F1800 X42.898 Y197.866 E79.99584
G1 X42.998 Y198.000 E80.00279
G1 X43.427 Y198.659 E80.03548
G1 X43.824 Y199.435 E80.07172
G1 X44.135 Y200.255 E80.10818
G1 X44.354 Y201.106 E80.14471
G1 X44.477 Y201.975 E80.18120
G1 X44.501 Y202.730 E80.21261
G1 X44.506 Y202.892 E80.21935
G1 X44.438 Y203.730 E80.25430
G1 X44.272 Y204.588 E80.29063
G1 X44.015 Y205.425 E80.32704
G1 X43.667 Y206.229 E80.36346
G1 X43.231 Y206.991 E80.39996
G1 X42.715 Y207.701 E80.43645
G1 X42.124 Y208.349 E80.47291
G1 X41.466 Y208.927 E80.50932
G1 X40.747 Y209.432 E80.54585
G1 X39.975 Y209.854 E80.58243
G1 X39.166 Y210.186 E80.61879
G1 X38.323 Y210.430 E80.65527
G1 X38.155 Y210.459 E80.66236
G1 X38.155 Y210.999 E80.68481
G1 X36.542 Y210.731 E80.75279
G1 X34.925 Y211.000 E80.82094
G1 X34.925 Y210.462 E80.84331
G1 X34.806 Y210.442 E80.84833
G1 X33.963 Y210.204 E80.88475
G1 X33.150 Y209.877 E80.92118
G1 X32.374 Y209.458 E80.95784
G1 X31.654 Y208.958 E80.99429
G1 X30.994 Y208.385 E81.03062
G1 X30.399 Y207.742 E81.06705
G1 X29.876 Y207.035 E81.10361
G1 X29.436 Y206.272 E81.14023
G1 X29.084 Y205.472 E81.17656
G1 X28.820 Y204.636 E81.21301
G1 X28.651 Y203.775 E81.24949
G1 X28.581 Y202.963 E81.28338
G1 X28.576 Y202.799 E81.29020
G1 X28.598 Y202.020 E81.32260
G1 X28.716 Y201.154 E81.35893
G1 X28.930 Y200.302 E81.39546
G1 X29.236 Y199.482 E81.43185
G1 X29.628 Y198.700 E81.46821
G1 X30.080 Y198.003 E81.50275
G1 X30.179 Y197.870 E81.50964
G1 X30.668 Y197.279 E81.54154
G1 X31.291 Y196.670 E81.57776
G1 X31.982 Y196.128 E81.61427
G1 X32.728 Y195.668 E81.65071
G1 X33.520 Y195.290 E81.68719
G1 X34.352 Y195.004 E81.72377
G1 X35.205 Y194.811 E81.76013
G1 X36.073 Y194.711 E81.79645
G1 X36.953 Y194.706 E81.83304
G1 X37.827 Y194.801 E81.86959
G1 X38.682 Y194.989 E81.90599
G1 X39.513 Y195.272 E81.94248
G1 X40.307 Y195.643 E81.97892
G1 X41.057 Y196.099 E82.01541
G1 X41.752 Y196.638 E82.05198
G1 X42.382 Y197.246 E82.08838
G0 F12000 X42.015 Y197.587
G1 F1800 X42.505 Y198.177 E82.12027
G1 X42.588 Y198.287 E82.12599
G1 X42.994 Y198.910 E82.15691
G1 X43.366 Y199.638 E82.19090
G1 X43.658 Y200.407 E82.22510
G1 X43.863 Y201.204 E82.25931
G1 X43.978 Y202.018 E82.29349
G1 X44.001 Y202.745 E82.32373
G1 X44.005 Y202.879 E82.32930
G1 X43.942 Y203.662 E82.36196
G1 X43.786 Y204.467 E82.39605
G1 X43.545 Y205.251 E82.43015
G1 X43.219 Y206.005 E82.46431
G1 X42.811 Y206.720 E82.49853
G1 X42.327 Y207.384 E82.53269
G1 X41.773 Y207.991 E82.56686
G1 X41.157 Y208.534 E82.60100
G1 X40.482 Y209.007 E82.63527
G1 X39.760 Y209.402 E82.66948
G1 X39.001 Y209.714 E82.70360
G1 X38.211 Y209.942 E82.73779
G1 X37.655 Y210.038 E82.76124
G1 X37.655 Y210.409 E82.77667
G1 X36.542 Y210.224 E82.82358
G1 X35.425 Y210.410 E82.87065
G1 X35.425 Y210.038 E82.88612
G1 X34.915 Y209.953 E82.90762
G1 X34.125 Y209.731 E82.94173
G1 X33.363 Y209.424 E82.97589
G1 X32.636 Y209.031 E83.01025
G1 X31.961 Y208.563 E83.04440
G1 X31.342 Y208.026 E83.07846
G1 X30.785 Y207.422 E83.11262
G1 X30.295 Y206.760 E83.14687
G1 X29.883 Y206.046 E83.18114
G1 X29.553 Y205.296 E83.21520
G1 X29.305 Y204.512 E83.24939
G1 X29.147 Y203.705 E83.28358
G1 X29.080 Y202.934 E83.31575
G1 X29.076 Y202.799 E83.32137
G1 X29.097 Y202.061 E83.35206
G1 X29.208 Y201.249 E83.38614
G1 X29.408 Y200.450 E83.42038
G1 X29.695 Y199.682 E83.45447
G1 X30.063 Y198.949 E83.48857
G1 X30.490 Y198.289 E83.52125
G1 X30.572 Y198.180 E83.52692
G1 X31.037 Y197.618 E83.55725
G1 X31.621 Y197.047 E83.59120
G1 X32.269 Y196.539 E83.62544
G1 X32.967 Y196.108 E83.65954
G1 X33.710 Y195.754 E83.69376
G1 X34.489 Y195.485 E83.72802
G1 X35.289 Y195.304 E83.76212
G1 X36.103 Y195.210 E83.79619
G1 X36.928 Y195.207 E83.83049
G1 X37.746 Y195.295 E83.86469
G1 X38.548 Y195.472 E83.89884
G1 X39.326 Y195.736 E83.93300
G1 X40.070 Y196.084 E83.96715
G1 X40.773 Y196.512 E84.00136
G1 X41.424 Y197.016 E84.03559
G1 X42.015 Y197.587 E84.06976
G0 F12000 X41.648 Y197.927
G1 F1800 X42.113 Y198.487 E84.10002
G1 X42.178 Y198.573 E84.10450
G1 X42.560 Y199.161 E84.13365
G1 X42.908 Y199.841 E84.16541
G1 X43.180 Y200.558 E84.19729
G1 X43.372 Y201.302 E84.22924
G1 X43.479 Y202.061 E84.26111
G1 X43.501 Y202.760 E84.29018
G1 X43.504 Y202.866 E84.29459
G1 X43.445 Y203.594 E84.32496
G1 X43.301 Y204.346 E84.35679
G1 X43.075 Y205.078 E84.38864
G1 X42.771 Y205.781 E84.42048
G1 X42.390 Y206.448 E84.45242
G1 X41.939 Y207.067 E84.48426
G1 X41.422 Y207.634 E84.51616
G1 X40.847 Y208.140 E84.54801
G1 X40.218 Y208.581 E84.57994
G1 X39.544 Y208.950 E84.61189
G1 X38.836 Y209.241 E84.64371
G1 X38.099 Y209.454 E84.67561
G1 X37.407 Y209.573 E84.70480
G1 X37.155 Y209.615 E84.71542
G1 X37.155 Y209.819 E84.72390
G1 X36.542 Y209.717 E84.74974
G1 X35.925 Y209.820 E84.77575
G1 X35.925 Y209.615 E84.78427
G1 X35.024 Y209.465 E84.82225
G1 X34.286 Y209.257 E84.85412
G1 X33.576 Y208.970 E84.88596
G1 X32.899 Y208.605 E84.91794
G1 X32.269 Y208.167 E84.94984
G1 X31.691 Y207.666 E84.98164
G1 X31.171 Y207.103 E85.01350
G1 X30.714 Y206.485 E85.04546
G1 X30.329 Y205.820 E85.07741
G1 X30.022 Y205.119 E85.10922
G1 X29.790 Y204.388 E85.14111
G1 X29.642 Y203.635 E85.17301
G1 X29.580 Y202.906 E85.20343
G1 X29.576 Y202.799 E85.20788
G1 X29.596 Y202.102 E85.23687
G1 X29.700 Y201.344 E85.26868
G1 X29.887 Y200.599 E85.30061
G1 X30.154 Y199.882 E85.33242
G1 X30.497 Y199.197 E85.36427
G1 X30.900 Y198.575 E85.39509
G1 X30.965 Y198.489 E85.39957
G1 X31.405 Y197.957 E85.42827
G1 X31.951 Y197.423 E85.46002
G1 X32.555 Y196.950 E85.49192
G1 X33.207 Y196.548 E85.52376
G1 X33.900 Y196.217 E85.55569
G1 X34.626 Y195.967 E85.58762
G1 X35.373 Y195.798 E85.61946
G1 X36.133 Y195.710 E85.65127
G1 X36.902 Y195.707 E85.68324
G1 X37.665 Y195.790 E85.71515
G1 X38.413 Y195.954 E85.74698
G1 X39.139 Y196.201 E85.77887
G1 X39.833 Y196.526 E85.81073
G1 X40.490 Y196.925 E85.84268
G1 X41.097 Y197.395 E85.87460
G1 X41.648 Y197.927 E85.90644
G0 F12000 X41.281 Y198.268
G1 F1800 X41.721 Y198.797 E85.93505
G1 X41.768 Y198.860 E85.93832
G1 X42.127 Y199.412 E85.96569
G1 X42.451 Y200.044 E85.99522
G1 X42.703 Y200.710 E86.02483
G1 X42.881 Y201.399 E86.05441
G1 X42.980 Y202.104 E86.08401
G1 X43.002 Y202.775 E86.11192
G1 X43.004 Y202.853 E86.11517
G1 X42.949 Y203.527 E86.14328
G1 X42.815 Y204.225 E86.17283
G1 X42.606 Y204.904 E86.20237
G1 X42.323 Y205.557 E86.23196
G1 X41.970 Y206.176 E86.26158
G1 X41.551 Y206.751 E86.29116
G1 X41.071 Y207.277 E86.32077
G1 X40.537 Y207.746 E86.35031
G1 X39.954 Y208.156 E86.37995
G1 X39.328 Y208.498 E86.40960
G1 X38.671 Y208.768 E86.43913
G1 X37.987 Y208.966 E86.46874
G1 X37.324 Y209.080 E86.49671
G1 X36.655 Y209.191 E86.52490
G1 X36.655 Y209.229 E86.52648
G1 X36.540 Y209.210 E86.53133
G1 X36.425 Y209.229 E86.53617
G1 X36.425 Y209.191 E86.53775
G1 X35.133 Y208.976 E86.59221
G1 X34.448 Y208.783 E86.62180
G1 X33.789 Y208.517 E86.65134
G1 X33.161 Y208.178 E86.68101
G1 X32.576 Y207.772 E86.71062
G1 X32.039 Y207.306 E86.74018
G1 X31.556 Y206.784 E86.76974
G1 X31.133 Y206.211 E86.79935
G1 X30.776 Y205.593 E86.82903
G1 X30.490 Y204.943 E86.85855
G1 X30.275 Y204.264 E86.88816
G1 X30.138 Y203.566 E86.91773
G1 X30.079 Y202.877 E86.94648
G1 X30.077 Y202.799 E86.94973
G1 X30.095 Y202.143 E86.97701
G1 X30.191 Y201.439 E87.00655
G1 X30.365 Y200.748 E87.03618
G1 X30.613 Y200.082 E87.06572
G1 X30.932 Y199.446 E87.09531
G1 X31.311 Y198.862 E87.12425
G1 X31.358 Y198.799 E87.12752
G1 X31.773 Y198.296 E87.15463
G1 X32.281 Y197.800 E87.18415
G1 X32.841 Y197.361 E87.21373
G1 X33.447 Y196.987 E87.24334
G1 X34.089 Y196.681 E87.27290
G1 X34.763 Y196.449 E87.30254
G1 X35.457 Y196.292 E87.33212
G1 X36.163 Y196.210 E87.36167
G1 X36.876 Y196.207 E87.39131
G1 X37.584 Y196.284 E87.42092
G1 X38.279 Y196.436 E87.45050
G1 X38.952 Y196.665 E87.48006
G1 X39.597 Y196.967 E87.50967
G1 X40.206 Y197.337 E87.53929
G1 X40.769 Y197.773 E87.56890
G1 X41.281 Y198.268 E87.59851
G0 F12000 X40.914 Y198.609
G1 F1800 X41.328 Y199.107 E87.62543
G1 X41.358 Y199.147 E87.62751
G1 X41.694 Y199.663 E87.65311
G1 X41.993 Y200.247 E87.68039
G1 X42.226 Y200.861 E87.70769
G1 X42.390 Y201.497 E87.73500
G1 X42.481 Y202.147 E87.76228
G1 X42.503 Y202.839 E87.79107
G1 X42.453 Y203.459 E87.81693
G1 X42.329 Y204.104 E87.84424
G1 X42.136 Y204.731 E87.87151
G1 X41.875 Y205.333 E87.89879
G1 X41.549 Y205.904 E87.92613
G1 X41.163 Y206.434 E87.95339
G1 X40.720 Y206.920 E87.98073
G1 X40.228 Y207.353 E88.00797
G1 X39.689 Y207.731 E88.03534
G1 X39.113 Y208.046 E88.06264
G1 X38.506 Y208.295 E88.08992
G1 X37.875 Y208.478 E88.11723
G1 X37.241 Y208.587 E88.14398
G1 X36.925 Y208.639 E88.15729
G1 X36.925 Y206.358 E88.25212
G1 X36.540 Y206.459 E88.26867
G1 X36.155 Y206.358 E88.28522
G1 X36.155 Y208.639 E88.38005
G1 X35.242 Y208.487 E88.41853
G1 X34.610 Y208.309 E88.44583
G1 X34.002 Y208.064 E88.47308
G1 X33.423 Y207.751 E88.50045
G1 X32.883 Y207.377 E88.52776
G1 X32.388 Y206.947 E88.55502
G1 X31.942 Y206.465 E88.58232
G1 X31.552 Y205.936 E88.60964
G1 X31.223 Y205.367 E88.63697
G1 X30.959 Y204.766 E88.66426
G1 X30.760 Y204.140 E88.69157
G1 X30.634 Y203.496 E88.71885
G1 X30.578 Y202.848 E88.74589
G1 X30.577 Y202.799 E88.74793
G1 X30.594 Y202.184 E88.77351
G1 X30.683 Y201.534 E88.80079
G1 X30.843 Y200.897 E88.82809
G1 X31.072 Y200.282 E88.85537
G1 X31.367 Y199.695 E88.88269
G1 X31.721 Y199.148 E88.90978
G1 X31.751 Y199.108 E88.91186
G1 X32.142 Y198.635 E88.93737
G1 X32.611 Y198.177 E88.96462
G1 X33.128 Y197.772 E88.99193
G1 X33.686 Y197.427 E89.01920
G1 X34.279 Y197.144 E89.04652
G1 X34.900 Y196.930 E89.07383
G1 X35.541 Y196.785 E89.10115
G1 X36.193 Y196.710 E89.12844
G1 X36.850 Y196.707 E89.15575
G1 X37.503 Y196.778 E89.18306
G1 X38.144 Y196.919 E89.21035
G1 X38.765 Y197.130 E89.23762
G1 X39.360 Y197.408 E89.26492
G1 X39.922 Y197.750 E89.29227
G1 X40.441 Y198.152 E89.31956
G1 X40.914 Y198.609 E89.34691
G0 F12000 X40.179 Y199.289
;TYPE:WALL-INNER
G1 F1800 X40.538 Y199.720 E89.37023
G1 X40.826 Y200.163 E89.39220
G1 X41.080 Y200.659 E89.41537
G1 X41.272 Y201.165 E89.43787
G1 X41.405 Y201.682 E89.46006
G1 X41.483 Y202.234 E89.48324
G1 X41.502 Y202.813 E89.50732
G1 X41.460 Y203.332 E89.52897
G1 X41.359 Y203.855 E89.55112
G1 X41.195 Y204.388 E89.57430
G1 X40.979 Y204.885 E89.59683
G1 X40.713 Y205.353 E89.61921
G1 X40.385 Y205.804 E89.64240
G1 X40.019 Y206.205 E89.66497
G1 X39.612 Y206.563 E89.68750
G1 X39.159 Y206.881 E89.71051
G1 X38.683 Y207.141 E89.73306
G1 X38.171 Y207.351 E89.75607
G1 X37.925 Y207.423 E89.76673
G1 X37.925 Y206.607 E89.80065
G1 X38.431 Y206.393 E89.82349
G1 X38.929 Y206.095 E89.84762
G1 X39.393 Y205.722 E89.87237
G1 X39.794 Y205.289 E89.89691
G1 X40.128 Y204.809 E89.92122
G1 X40.394 Y204.284 E89.94569
G1 X40.583 Y203.727 E89.97014
G1 X40.692 Y203.156 E89.99431
G1 X40.720 Y202.564 E90.01895
G1 X40.665 Y201.978 E90.04342
G1 X40.527 Y201.405 E90.06793
G1 X40.310 Y200.860 E90.09232
G1 X40.021 Y200.348 E90.11676
G1 X39.661 Y199.882 E90.14124
G1 X39.239 Y199.472 E90.16570
G1 X38.765 Y199.127 E90.19008
G1 X38.248 Y198.849 E90.21448
G1 X37.702 Y198.649 E90.23866
G1 X37.126 Y198.526 E90.26314
G1 X36.540 Y198.484 E90.28757
G1 X35.946 Y198.527 E90.31233
G1 X35.373 Y198.651 E90.33670
G1 X34.822 Y198.853 E90.36110
G1 X34.302 Y199.133 E90.38566
G1 X33.830 Y199.482 E90.41006
G1 X33.411 Y199.893 E90.43446
G1 X33.053 Y200.359 E90.45889
G1 X32.764 Y200.871 E90.48334
G1 X32.552 Y201.412 E90.50749
G1 X32.415 Y201.984 E90.53195
G1 X32.360 Y202.570 E90.55642
G1 X32.390 Y203.164 E90.58115
G1 X32.500 Y203.740 E90.60553
G1 X32.691 Y204.296 E90.62997
G1 X32.958 Y204.821 E90.65445
G1 X33.296 Y205.301 E90.67886
G1 X33.693 Y205.727 E90.70307
G1 X34.157 Y206.099 E90.72780
G1 X34.660 Y206.398 E90.75212
G1 X35.155 Y206.606 E90.77445
G1 X35.155 Y207.423 E90.80841
G1 X34.933 Y207.361 E90.81800
G1 X34.425 Y207.156 E90.84077
G1 X33.949 Y206.899 E90.86326
G1 X33.498 Y206.586 E90.88609
G1 X33.085 Y206.228 E90.90881
G1 X32.713 Y205.825 E90.93161
G1 X32.387 Y205.384 E90.95441
G1 X32.120 Y204.922 E90.97660
G1 X31.894 Y204.408 E90.99994
G1 X31.731 Y203.893 E91.02240
G1 X31.625 Y203.354 E91.04524
G1 X31.578 Y202.801 E91.06831
G1 X31.593 Y202.262 E91.09073
G1 X31.667 Y201.720 E91.11347
G1 X31.797 Y201.201 E91.13572
G1 X31.990 Y200.684 E91.15866
G1 X32.239 Y200.187 E91.18177
G1 X32.538 Y199.725 E91.20465
G1 X32.881 Y199.310 E91.22703
G1 X33.268 Y198.932 E91.24952
G1 X33.701 Y198.593 E91.27239
G1 X34.163 Y198.308 E91.29496
G1 X34.661 Y198.070 E91.31790
G1 X35.176 Y197.893 E91.34054
G1 X35.706 Y197.773 E91.36314
G1 X36.252 Y197.710 E91.38599
G1 X36.795 Y197.707 E91.40856
G1 X37.341 Y197.767 E91.43140
G1 X37.881 Y197.885 E91.45438
G1 X38.392 Y198.059 E91.47682
G1 X38.883 Y198.289 E91.49936
G1 X39.357 Y198.577 E91.52242
G1 X39.787 Y198.910 E91.54503
G1 X40.179 Y199.289 E91.56770
G0 F12000 X40.549 Y198.952
;TYPE:WALL-OUTER
G1 F1800 X40.932 Y199.412 E91.59259
G1 X41.259 Y199.911 E91.61739
G1 X41.535 Y200.452 E91.64264
G1 X41.750 Y201.017 E91.66778
G1 X41.897 Y201.589 E91.69233
G1 X41.983 Y202.194 E91.71774
G1 X42.003 Y202.827 E91.74407
G1 X41.957 Y203.394 E91.76772
G1 X41.845 Y203.976 E91.79236
G1 X41.664 Y204.563 E91.81790
G1 X41.429 Y205.106 E91.84249
G1 X41.128 Y205.633 E91.86773
G1 X40.776 Y206.117 E91.89261
G1 X40.371 Y206.561 E91.91759
G1 X39.921 Y206.957 E91.94251
G1 X39.419 Y207.309 E91.96800
G1 X38.898 Y207.594 E91.99269
G1 X38.343 Y207.822 E92.01764
G1 X37.759 Y207.991 E92.04292
G1 X37.425 Y208.048 E92.05700
G1 X37.425 Y206.227 E92.13271
G1 X37.728 Y206.147 E92.14574
G1 X38.204 Y205.946 E92.16722
G1 X38.643 Y205.684 E92.18848
G1 X39.051 Y205.355 E92.21027
G1 X39.403 Y204.975 E92.23180
G1 X39.698 Y204.552 E92.25324
G1 X39.932 Y204.090 E92.27477
G1 X40.098 Y203.600 E92.29628
G1 X40.194 Y203.097 E92.31757
G1 X40.219 Y202.575 E92.33930
G1 X40.170 Y202.060 E92.36081
G1 X40.049 Y201.556 E92.38236
G1 X39.858 Y201.076 E92.40384
G1 X39.604 Y200.625 E92.42535
G1 X39.287 Y200.216 E92.44687
G1 X38.916 Y199.855 E92.46839
G1 X38.498 Y199.551 E92.48988
G1 X38.043 Y199.306 E92.51136
G1 X37.563 Y199.130 E92.53262
G1 X37.056 Y199.022 E92.55417
G1 X36.540 Y198.985 E92.57568
G1 X36.017 Y199.023 E92.59748
G1 X35.513 Y199.132 E92.61892
G1 X35.027 Y199.310 E92.64044
G1 X34.571 Y199.556 E92.66198
G1 X34.155 Y199.863 E92.68347
G1 X33.786 Y200.226 E92.70499
G1 X33.471 Y200.636 E92.72649
G1 X33.217 Y201.086 E92.74797
G1 X33.030 Y201.562 E92.76923
G1 X32.910 Y202.066 E92.79077
G1 X32.861 Y202.581 E92.81228
G1 X32.887 Y203.104 E92.83405
G1 X32.985 Y203.611 E92.85552
G1 X33.152 Y204.101 E92.87704
G1 X33.387 Y204.562 E92.89856
G1 X33.685 Y204.985 E92.92007
G1 X34.034 Y205.360 E92.94137
G1 X34.442 Y205.687 E92.96310
G1 X34.886 Y205.951 E92.98458
G1 X35.358 Y206.149 E93.00586
G1 X35.655 Y206.227 E93.01863
G1 X35.655 Y208.049 E93.09438
G1 X35.352 Y207.998 E93.10715
G1 X34.768 Y207.834 E93.13237
G1 X34.216 Y207.611 E93.15712
G1 X33.684 Y207.324 E93.18225
G1 X33.193 Y206.983 E93.20711
G1 X32.738 Y206.589 E93.23213
G1 X32.326 Y206.143 E93.25737
G1 X31.967 Y205.657 E93.28249
G1 X31.672 Y205.147 E93.30699
G1 X31.425 Y204.583 E93.33259
G1 X31.245 Y204.017 E93.35728
G1 X31.130 Y203.428 E93.38223
G1 X31.078 Y202.823 E93.40748
G1 X31.077 Y202.806 E93.40818
G1 X31.094 Y202.228 E93.43222
G1 X31.176 Y201.622 E93.45765
G1 X31.321 Y201.046 E93.48234
G1 X31.529 Y200.489 E93.50706
G1 X31.803 Y199.942 E93.53250
G1 X32.133 Y199.432 E93.55775
G1 X32.509 Y198.977 E93.58229
G1 X32.943 Y198.552 E93.60755
G1 X33.414 Y198.183 E93.63242
G1 X33.922 Y197.869 E93.65725
G1 X34.477 Y197.605 E93.68280
G1 X35.032 Y197.413 E93.70722
G1 X35.629 Y197.278 E93.73267
G1 X36.220 Y197.210 E93.75740
G1 X36.820 Y197.207 E93.78234
G1 X37.428 Y197.273 E93.80777
G1 X38.008 Y197.401 E93.83246
G1 X38.583 Y197.596 E93.85771
G1 X39.117 Y197.846 E93.88222
G1 X39.639 Y198.163 E93.90761
G1 X40.112 Y198.530 E93.93250
G1 X40.549 Y198.952 E93.95776
G0 F12000 X40.000 Y199.360
;TYPE:SKIN
G1 F1800 X40.250 Y200.008 E93.98571
G1 X40.500 Y200.865 E94.02283
G0 F12000 X41.000 Y200.942
G1 F1800 X41.000 Y204.397 E94.16647
G0 F12000 X40.500 Y204.461
G1 F1800 X40.250 Y205.323 E94.20334
G1 X39.750 Y205.913 E94.23118
G1 X39.250 Y206.342 E94.25479
G1 X38.750 Y206.661 E94.27609
G1 X38.500 Y207.028 E94.29456
G1 F2100 E93.89456
G0 F12000 X34.500 Y206.996
G1 F2100 E94.29456
G1 F1800 X34.250 Y206.614 E94.31487
G1 X33.750 Y206.276 E94.33660
G1 X33.250 Y205.827 E94.36057
G1 X32.750 Y205.208 E94.38928
G1 X32.500 Y204.279 E94.42928
G0 F12000 X32.000 Y204.163
G1 F1800 X32.000 Y201.157 E94.55425
G0 F12000 X32.500 Y201.067
G1 F1800 X32.750 Y200.124 E94.59417
G1 X33.250 Y199.501 E94.62332
G1 X33.750 Y199.055 E94.64784
G1 X34.250 Y198.721 E94.66964
G1 X34.750 Y198.239 E94.68985
G1 X35.250 Y198.522 E94.70910
G1 X35.750 Y197.956 E94.72756
G1 X36.250 Y198.329 E94.74561
G1 X36.750 Y197.894 E94.76341
G1 X37.250 Y198.383 E94.78150
G1 X37.750 Y198.046 E94.80000
G1 X38.250 Y198.678 E94.81910
G1 X38.750 Y198.434 E94.83913
G1 X39.250 Y198.996 E94.86058
G1 X39.500 Y199.481 E94.88327
G1 F2100 E94.48327
G0 F12000 X48.511 Y190.834
;TYPE:WALL-INNER
G1 F2100 E94.88327
G1 F1800 X48.141 Y190.433 E94.90595
G1 X47.814 Y189.991 E94.92881
G1 X47.539 Y189.516 E94.95163
G1 X47.321 Y189.019 E94.97419
G1 X47.158 Y188.501 E94.99677
G1 X47.051 Y187.959 E95.01974
G1 X47.004 Y187.406 E95.04281
G1 X47.019 Y186.867 E95.06523
G1 X47.092 Y186.332 E95.08768
G1 X47.225 Y185.799 E95.11052
G1 X47.416 Y185.286 E95.13328
G1 X47.663 Y184.797 E95.15605
G1 X47.964 Y184.331 E95.17912
G1 X48.303 Y183.921 E95.20123
G1 X48.698 Y183.534 E95.22422
G1 X49.125 Y183.201 E95.24674
G1 X49.597 Y182.909 E95.26981
G1 X50.083 Y182.678 E95.29218
G1 X50.601 Y182.499 E95.31497
G1 X51.135 Y182.377 E95.33774
G1 X51.676 Y182.316 E95.36038
G1 X52.222 Y182.313 E95.38308
G1 X52.772 Y182.372 E95.40608
G1 X53.300 Y182.489 E95.42856
G1 X53.814 Y182.663 E95.45112
G1 X54.315 Y182.897 E95.47411
G1 X54.779 Y183.180 E95.49671
G1 X55.215 Y183.517 E95.51962
G1 X55.604 Y183.893 E95.54211
G1 X55.964 Y184.327 E95.56555
G1 X56.257 Y184.776 E95.58784
G1 X56.503 Y185.257 E95.61030
G1 X56.697 Y185.770 E95.63311
G1 X56.831 Y186.288 E95.65535
G1 X56.909 Y186.839 E95.67849
G1 X56.928 Y187.427 E95.70295
G1 X56.887 Y187.921 E95.72355
G1 X56.783 Y188.467 E95.74666
G1 X56.621 Y188.993 E95.76955
G1 X56.405 Y189.491 E95.79211
G1 X56.138 Y189.959 E95.81451
G1 X55.815 Y190.404 E95.83737
G1 X55.441 Y190.814 E95.86045
G1 X55.039 Y191.167 E95.88269
G1 X54.583 Y191.487 E95.90585
G1 X54.109 Y191.746 E95.92831
G1 X53.597 Y191.956 E95.95131
G1 X53.351 Y192.028 E95.96197
G1 X53.351 Y191.212 E95.99590
G1 X53.856 Y190.999 E96.01868
G1 X54.356 Y190.701 E96.04288
G1 X54.818 Y190.326 E96.06762
G1 X55.218 Y189.896 E96.09204
G1 X55.554 Y189.414 E96.11647
G1 X55.820 Y188.891 E96.14086
G1 X56.009 Y188.332 E96.16539
G1 X56.118 Y187.762 E96.18952
G1 X56.146 Y187.168 E96.21424
G1 X56.090 Y186.582 E96.23872
G1 X55.953 Y186.011 E96.26313
G1 X55.736 Y185.465 E96.28756
G1 X55.447 Y184.953 E96.31200
G1 X55.086 Y184.488 E96.33648
G1 X54.666 Y184.078 E96.36088
G1 X54.191 Y183.732 E96.38531
G1 X53.674 Y183.454 E96.40971
G1 X53.128 Y183.254 E96.43389
G1 X52.552 Y183.131 E96.45838
G1 X51.966 Y183.089 E96.48280
G1 X51.372 Y183.132 E96.50756
G1 X50.799 Y183.256 E96.53194
G1 X50.248 Y183.458 E96.55634
G1 X49.729 Y183.738 E96.58085
G1 X49.254 Y184.087 E96.60536
G1 X48.837 Y184.500 E96.62976
G1 X48.479 Y184.965 E96.65416
G1 X48.190 Y185.476 E96.67856
G1 X47.978 Y186.018 E96.70276
G1 X47.841 Y186.589 E96.72717
G1 X47.786 Y187.175 E96.75164
G1 X47.816 Y187.770 E96.77641
G1 X47.926 Y188.345 E96.80075
G1 X48.117 Y188.902 E96.82523
G1 X48.384 Y189.426 E96.84968
G1 X48.722 Y189.907 E96.87412
G1 X49.119 Y190.332 E96.89830
G1 X49.582 Y190.705 E96.92302
G1 X50.087 Y191.005 E96.94744
G1 X50.581 Y191.211 E96.96970
G1 X50.581 Y192.028 E97.00366
G1 X50.359 Y191.966 E97.01325
G1 X49.851 Y191.761 E97.03602
G1 X49.376 Y191.505 E97.05845
G1 X48.921 Y191.189 E97.08149
G1 X48.511 Y190.834 E97.10403
G0 F12000 X48.163 Y191.194
;TYPE:WALL-OUTER
G1 F1800 X47.749 Y190.745 E97.12942
G1 X47.396 Y190.267 E97.15413
G1 X47.098 Y189.753 E97.17883
G1 X46.850 Y189.188 E97.20448
G1 X46.672 Y188.622 E97.22915
G1 X46.556 Y188.033 E97.25411
G1 X46.504 Y187.428 E97.27936
G1 X46.503 Y187.411 E97.28006
G1 X46.520 Y186.833 E97.30410
G1 X46.601 Y186.234 E97.32923
G1 X46.748 Y185.645 E97.35447
G1 X46.956 Y185.086 E97.37927
G1 X47.224 Y184.555 E97.40400
G1 X47.559 Y184.038 E97.42961
G1 X47.935 Y183.582 E97.45418
G1 X48.369 Y183.157 E97.47944
G1 X48.836 Y182.791 E97.50411
G1 X49.356 Y182.470 E97.52951
G1 X49.899 Y182.212 E97.55451
G1 X50.456 Y182.020 E97.57900
G1 X51.058 Y181.883 E97.60467
G1 X51.644 Y181.816 E97.62919
G1 X52.246 Y181.813 E97.65422
G1 X52.852 Y181.878 E97.67956
G1 X53.434 Y182.007 E97.70434
G1 X54.001 Y182.199 E97.72923
G1 X54.557 Y182.459 E97.75475
G1 X55.058 Y182.765 E97.77916
G1 X55.538 Y183.135 E97.80435
G1 X55.975 Y183.557 E97.82961
G1 X56.358 Y184.018 E97.85453
G1 X56.690 Y184.525 E97.87972
G1 X56.958 Y185.049 E97.90419
G1 X57.176 Y185.622 E97.92968
G1 X57.323 Y186.195 E97.95427
G1 X57.409 Y186.799 E97.97964
G1 X57.429 Y187.432 E98.00597
G1 X57.383 Y187.991 E98.02929
G1 X57.268 Y188.590 E98.05465
G1 X57.090 Y189.168 E98.07979
G1 X56.855 Y189.712 E98.10443
G1 X56.554 Y190.238 E98.12962
G1 X56.205 Y190.718 E98.15430
G1 X55.793 Y191.170 E98.17972
G1 X55.342 Y191.566 E98.20468
G1 X54.848 Y191.912 E98.22975
G1 X54.324 Y192.199 E98.25459
G1 X53.769 Y192.427 E98.27954
G1 X53.186 Y192.596 E98.30477
G1 X52.851 Y192.654 E98.31891
G1 X52.851 Y190.832 E98.39466
G1 X53.153 Y190.752 E98.40765
G1 X53.630 Y190.552 E98.42915
G1 X54.069 Y190.290 E98.45041
G1 X54.476 Y189.960 E98.47219
G1 X54.828 Y189.581 E98.49369
G1 X55.124 Y189.157 E98.51519
G1 X55.358 Y188.696 E98.53669
G1 X55.524 Y188.205 E98.55823
G1 X55.620 Y187.703 E98.57948
G1 X55.645 Y187.180 E98.60125
G1 X55.595 Y186.665 E98.62276
G1 X55.475 Y186.162 E98.64426
G1 X55.284 Y185.681 E98.66578
G1 X55.030 Y185.231 E98.68726
G1 X54.712 Y184.822 E98.70880
G1 X54.342 Y184.461 E98.73029
G1 X53.924 Y184.156 E98.75181
G1 X53.469 Y183.911 E98.77329
G1 X52.989 Y183.735 E98.79455
G1 X52.482 Y183.627 E98.81610
G1 X51.966 Y183.590 E98.83761
G1 X51.443 Y183.628 E98.85941
G1 X50.939 Y183.737 E98.88085
G1 X50.453 Y183.915 E98.90236
G1 X49.997 Y184.161 E98.92391
G1 X49.580 Y184.468 E98.94543
G1 X49.212 Y184.832 E98.96695
G1 X48.897 Y185.242 E98.98845
G1 X48.643 Y185.691 E99.00990
G1 X48.456 Y186.168 E99.03120
G1 X48.336 Y186.671 E99.05270
G1 X48.287 Y187.186 E99.07420
G1 X48.313 Y187.710 E99.09602
G1 X48.411 Y188.216 E99.11744
G1 X48.578 Y188.707 E99.13901
G1 X48.813 Y189.167 E99.16048
G1 X49.111 Y189.591 E99.18203
G1 X49.460 Y189.965 E99.20330
G1 X49.868 Y190.293 E99.22506
G1 X50.312 Y190.557 E99.24654
G1 X50.784 Y190.754 E99.26780
G1 X51.081 Y190.833 E99.28058
G1 X51.081 Y192.654 E99.35629
G1 X50.777 Y192.603 E99.36910
G1 X50.194 Y192.439 E99.39428
G1 X49.642 Y192.216 E99.41903
G1 X49.112 Y191.930 E99.44407
G1 X48.617 Y191.587 E99.46911
G1 X48.163 Y191.194 E99.49407
G0 F12000 X48.500 Y190.563
;TYPE:SKIN
G1 F1800 X48.250 Y189.923 E99.52167
G1 X48.000 Y189.058 E99.55910
G0 F12000 X47.500 Y188.990
G1 F1800 X47.500 Y185.561 E99.70166
G0 F12000 X48.000 Y185.484
G1 F1800 X48.250 Y184.624 E99.73845
G1 X48.750 Y184.032 E99.76661
G1 X49.250 Y183.604 E99.79036
G1 X49.750 Y183.284 E99.81173
G1 X50.250 Y182.814 E99.83176
G1 X50.750 Y183.106 E99.85092
G1 X51.250 Y182.549 E99.86947
G1 X51.750 Y182.931 E99.88762
G1 X52.250 Y182.504 E99.90534
G1 X52.750 Y182.999 E99.92330
G1 X53.250 Y182.672 E99.94173
G1 X53.750 Y183.316 E99.96085
G1 X54.250 Y183.079 E99.98104
G1 X54.750 Y183.657 E100.00291
G1 X55.250 Y184.100 E100.02723
G1 X55.750 Y184.718 E100.05605
G1 X56.000 Y185.656 E100.09641
G0 F12000 X56.500 Y185.743
G1 F1800 X56.500 Y188.790 E100.22309
G0 F12000 X56.000 Y188.904
G1 F1800 X55.750 Y189.823 E100.26229
G1 X55.250 Y190.438 E100.29103
G1 X54.750 Y190.889 E100.31521
G1 X54.250 Y191.225 E100.33690
G1 X54.000 Y191.602 E100.35571
G1 F2100 E99.95571
G0 F12000 X50.000 Y191.631
G1 F2100 E100.35571
G1 F1800 X49.750 Y191.265 E100.37532
G1 X49.250 Y190.943 E100.39653
G1 X49.000 Y190.462 E100.41907
G1 F2100 E100.01907
G0 F12000 X63.936 Y175.438
;TYPE:WALL-INNER
G1 F2100 E100.41907
G1 F1800 X63.562 Y175.035 E100.44193
G1 X63.243 Y174.601 E100.46432
G1 X62.967 Y174.124 E100.48723
G1 X62.746 Y173.621 E100.51007
G1 X62.584 Y173.107 E100.53248
G1 X62.477 Y172.565 E100.55545
G1 X62.430 Y172.012 E100.57852
G1 X62.445 Y171.470 E100.60107
G1 X62.518 Y170.931 E100.62368
G1 X62.648 Y170.412 E100.64592
G1 X62.842 Y169.891 E100.66904
G1 X63.089 Y169.401 E100.69185
G1 X63.381 Y168.949 E100.71422
G1 X63.731 Y168.524 E100.73711
G1 X64.125 Y168.139 E100.76002
G1 X64.553 Y167.804 E100.78261
G1 X65.015 Y167.519 E100.80518
G1 X65.511 Y167.282 E100.82803
G1 X66.031 Y167.103 E100.85090
G1 X66.559 Y166.983 E100.87341
G1 X67.102 Y166.921 E100.89613
G1 X67.648 Y166.918 E100.91883
G1 X68.198 Y166.977 E100.94183
G1 X68.725 Y167.094 E100.96427
G1 X69.244 Y167.270 E100.98706
G1 X69.734 Y167.500 E101.00956
G1 X70.208 Y167.788 E101.03262
G1 X70.639 Y168.121 E101.05527
G1 X71.030 Y168.499 E101.07788
G1 X71.390 Y168.931 E101.10126
G1 X71.678 Y169.374 E101.12322
G1 X71.932 Y169.870 E101.14639
G1 X72.121 Y170.369 E101.16858
G1 X72.260 Y170.912 E101.19188
G1 X72.335 Y171.436 E101.21389
G1 X72.354 Y172.033 E101.23872
G1 X72.313 Y172.527 E101.25933
G1 X72.208 Y173.079 E101.28269
G1 X72.051 Y173.586 E101.30476
G1 X71.829 Y174.100 E101.32803
G1 X71.562 Y174.568 E101.35043
G1 X71.236 Y175.015 E101.37344
G1 X70.871 Y175.415 E101.39595
G1 X70.465 Y175.772 E101.41843
G1 X70.009 Y176.092 E101.44159
G1 X69.530 Y176.354 E101.46428
G1 X69.027 Y176.561 E101.48690
G1 X68.777 Y176.634 E101.49773
G1 X68.777 Y175.818 E101.53165
G1 X69.283 Y175.604 E101.55449
G1 X69.782 Y175.306 E101.57866
G1 X70.244 Y174.931 E101.60340
G1 X70.644 Y174.501 E101.62781
G1 X70.980 Y174.020 E101.65221
G1 X71.246 Y173.495 E101.67667
G1 X71.435 Y172.938 E101.70113
G1 X71.544 Y172.367 E101.72530
G1 X71.572 Y171.773 E101.75002
G1 X71.516 Y171.187 E101.77449
G1 X71.378 Y170.616 E101.79892
G1 X71.162 Y170.071 E101.82329
G1 X70.872 Y169.558 E101.84779
G1 X70.512 Y169.093 E101.87224
G1 X70.092 Y168.684 E101.89661
G1 X69.618 Y168.337 E101.92103
G1 X69.100 Y168.059 E101.94548
G1 X68.553 Y167.859 E101.96969
G1 X67.979 Y167.736 E101.99410
G1 X67.392 Y167.694 E102.01856
G1 X66.798 Y167.737 E102.04332
G1 X66.224 Y167.861 E102.06774
G1 X65.673 Y168.065 E102.09217
G1 X65.155 Y168.344 E102.11663
G1 X64.681 Y168.693 E102.14110
G1 X64.263 Y169.104 E102.16547
G1 X63.904 Y169.570 E102.18993
G1 X63.616 Y170.082 E102.21435
G1 X63.403 Y170.623 E102.23852
G1 X63.267 Y171.195 E102.26297
G1 X63.212 Y171.780 E102.28740
G1 X63.242 Y172.375 E102.31216
G1 X63.352 Y172.951 E102.33654
G1 X63.543 Y173.507 E102.36099
G1 X63.810 Y174.032 E102.38547
G1 X64.149 Y174.512 E102.40990
G1 X64.545 Y174.937 E102.43406
G1 X65.008 Y175.310 E102.45877
G1 X65.512 Y175.609 E102.48314
G1 X66.007 Y175.817 E102.50546
G1 X66.007 Y176.634 E102.53943
G1 X65.781 Y176.571 E102.54918
G1 X65.282 Y176.368 E102.57158
G1 X64.802 Y176.110 E102.59424
G1 X64.347 Y175.794 E102.61727
G1 X63.936 Y175.438 E102.63987
G0 F12000 X63.584 Y175.794
;TYPE:WALL-OUTER
G1 F1800 X63.178 Y175.356 E102.66470
G1 X62.822 Y174.872 E102.68968
G1 X62.524 Y174.358 E102.71438
G1 X62.276 Y173.794 E102.74000
G1 X62.098 Y173.228 E102.76467
G1 X61.982 Y172.639 E102.78962
G1 X61.930 Y172.034 E102.81487
G1 X61.929 Y172.017 E102.81558
G1 X61.946 Y171.436 E102.83974
G1 X62.027 Y170.834 E102.86500
G1 X62.172 Y170.257 E102.88973
G1 X62.382 Y169.692 E102.91479
G1 X62.650 Y169.160 E102.93956
G1 X62.981 Y168.649 E102.96487
G1 X63.360 Y168.187 E102.98971
G1 X63.795 Y167.763 E103.01497
G1 X64.266 Y167.394 E103.03985
G1 X64.774 Y167.080 E103.06467
G1 X65.326 Y166.817 E103.09010
G1 X65.886 Y166.623 E103.11474
G1 X66.482 Y166.488 E103.14014
G1 X67.070 Y166.421 E103.16475
G1 X67.672 Y166.418 E103.18977
G1 X68.278 Y166.483 E103.21511
G1 X68.859 Y166.612 E103.23986
G1 X69.435 Y166.807 E103.26514
G1 X69.969 Y167.057 E103.28965
G1 X70.490 Y167.374 E103.31501
G1 X70.964 Y167.741 E103.33993
G1 X71.400 Y168.162 E103.36513
G1 X71.784 Y168.623 E103.39007
G1 X72.111 Y169.122 E103.41488
G1 X72.387 Y169.663 E103.44013
G1 X72.602 Y170.228 E103.46526
G1 X72.750 Y170.809 E103.49019
G1 X72.834 Y171.395 E103.51480
G1 X72.855 Y172.038 E103.54155
G1 X72.809 Y172.597 E103.56487
G1 X72.694 Y173.196 E103.59022
G1 X72.519 Y173.763 E103.61489
G1 X72.277 Y174.324 E103.64030
G1 X71.980 Y174.843 E103.66516
G1 X71.627 Y175.328 E103.69010
G1 X71.223 Y175.771 E103.71502
G1 X70.768 Y176.171 E103.74021
G1 X70.274 Y176.517 E103.76528
G1 X69.749 Y176.804 E103.79016
G1 X69.194 Y177.033 E103.81512
G1 X68.611 Y177.202 E103.84036
G1 X68.277 Y177.259 E103.85444
G1 X68.277 Y175.438 E103.93015
G1 X68.579 Y175.358 E103.94314
G1 X69.056 Y175.157 E103.96466
G1 X69.495 Y174.895 E103.98592
G1 X69.902 Y174.565 E104.00770
G1 X70.254 Y174.186 E104.02921
G1 X70.550 Y173.763 E104.05067
G1 X70.784 Y173.301 E104.07220
G1 X70.950 Y172.811 E104.09371
G1 X71.046 Y172.308 E104.11500
G1 X71.071 Y171.785 E104.13677
G1 X71.021 Y171.270 E104.15828
G1 X70.900 Y170.767 E104.17979
G1 X70.710 Y170.287 E104.20125
G1 X70.455 Y169.836 E104.22279
G1 X70.138 Y169.427 E104.24431
G1 X69.768 Y169.067 E104.26577
G1 X69.351 Y168.761 E104.28727
G1 X68.895 Y168.516 E104.30879
G1 X68.414 Y168.340 E104.33009
G1 X67.908 Y168.232 E104.35160
G1 X67.392 Y168.195 E104.37311
G1 X66.869 Y168.233 E104.39491
G1 X66.364 Y168.342 E104.41639
G1 X65.879 Y168.522 E104.43789
G1 X65.423 Y168.767 E104.45942
G1 X65.006 Y169.074 E104.48094
G1 X64.638 Y169.437 E104.50243
G1 X64.322 Y169.847 E104.52396
G1 X64.069 Y170.297 E104.54542
G1 X63.881 Y170.773 E104.56670
G1 X63.762 Y171.276 E104.58819
G1 X63.713 Y171.791 E104.60969
G1 X63.739 Y172.315 E104.63151
G1 X63.837 Y172.822 E104.65297
G1 X64.004 Y173.312 E104.67450
G1 X64.239 Y173.773 E104.69601
G1 X64.538 Y174.196 E104.71755
G1 X64.886 Y174.570 E104.73878
G1 X65.294 Y174.898 E104.76055
G1 X65.738 Y175.162 E104.78203
G1 X66.210 Y175.360 E104.80331
G1 X66.507 Y175.438 E104.81607
G1 X66.507 Y177.260 E104.89182
G1 X66.203 Y177.209 E104.90464
G1 X65.623 Y177.046 E104.92969
G1 X65.065 Y176.819 E104.95473
G1 X64.538 Y176.535 E104.97962
G1 X64.043 Y176.192 E105.00466
G1 X63.584 Y175.794 E105.02991
G0 F12000 X64.000 Y175.249
;TYPE:SKIN
G1 F1800 X63.750 Y174.630 E105.05667
G1 X63.500 Y173.809 E105.09235
G0 F12000 X63.000 Y173.762
G1 F1800 X63.000 Y169.966 E105.25017
G0 F12000 X63.500 Y169.932
G1 F1800 X63.750 Y169.123 E105.28530
G1 X64.250 Y168.566 E105.31244
G1 X64.750 Y168.153 E105.33568
G1 X65.250 Y167.847 E105.35669
G1 X65.750 Y167.390 E105.37657
G1 X66.250 Y167.690 E105.39563
G1 X66.750 Y167.142 E105.41419
G1 X67.250 Y167.536 E105.43245
G1 X67.750 Y167.113 E105.45043
G1 X68.250 Y167.615 E105.46822
G1 X68.750 Y167.298 E105.48668
G1 X69.250 Y167.954 E105.50588
G1 X69.750 Y167.725 E105.52628
G1 X70.250 Y168.317 E105.54838
