;-- START GCODE --
;Sliced for Type A Machines Series 1
;Sliced at: Sat 17-09-2016 15:45:54
;Basic settings:
; Layer height: 0.2
; Walls: 1
; Fill: 8
; Print Speed: 60
; Support: 0
; Retraction Speed: 35
; Retraction Distance: 0.4
;Print time: 2 hours 51 minutes
;Filament used: 14.823m 44.0g
;Settings based on: Type A Machines Everyday PLA
G21        ;metric values
G90        ;absolute positioning
G28     ;move to endstops
G29		;allows for auto-levelling
G1 Z15.0 F12000 ;move the platform down 15mm
G1 X150 Y5 F12000 ;center
M140 S75 ;Prep Heat Bed
M109 S220 ;Heat To temp
M190 S75 ;Heat Bed to temp
G1 X150 Y5 Z0.3 ;move the platform to purge extrusion
G92 E0 ;zero the extruded length
G1 F200 X250 E30 ;extrude 30mm of feed stock
G92 E0 ;zero the extruded length again
G1 X150 Y150  Z25 F12000 ;recenter and begin
G1 F12000

;Layer count: 69
;LAYER:0
M107
G0 F12000 X116.576 Y73.402 Z0.200
;TYPE:SKIRT
G1 F1800 X120.330 Y74.655 E0.16454
G1 X121.781 Y71.151 E0.32221
G1 X184.976 Y71.151 E2.94956
G1 X184.976 Y76.276 E3.16263
G1 X188.576 Y76.554 E3.31275
G1 X188.576 Y92.259 E3.96568
G1 X188.376 Y92.459 E3.97744
G1 X188.376 Y128.543 E5.47764
G1 X188.576 Y128.743 E5.48940
G1 X188.576 Y134.259 E5.71873
G1 X188.376 Y134.459 E5.73049
G1 X188.376 Y156.543 E6.64863
G1 X188.576 Y156.743 E6.66039
G1 X188.576 Y226.944 E9.57901
G1 X184.976 Y228.436 E9.74103
G1 X184.976 Y233.851 E9.96616
G1 X121.581 Y233.851 E12.60181
G1 X120.099 Y230.273 E12.76283
G1 X116.376 Y231.555 E12.92653
G1 X116.376 Y207.743 E13.91652
G1 X116.576 Y207.543 E13.92828
G1 X116.576 Y177.059 E15.19565
G1 X116.376 Y176.859 E15.20741
G1 X116.376 Y161.343 E15.85249
G1 X116.576 Y161.143 E15.86425
G1 X116.576 Y148.859 E16.37496
G1 X116.376 Y148.659 E16.38672
G1 X116.376 Y127.143 E17.28125
G1 X116.576 Y126.943 E17.29301
G1 X116.576 Y73.402 E19.51899
G0 F12000 X117.076 Y74.096
G1 F1800 X120.613 Y75.277 E19.67402
G1 X122.115 Y71.651 E19.83719
G1 X184.476 Y71.651 E22.42986
G1 X184.476 Y76.740 E22.64144
G1 X188.076 Y77.017 E22.79155
G1 X188.076 Y92.051 E23.41659
G1 X187.876 Y92.251 E23.42835
G1 X187.876 Y128.751 E24.94585
G1 X188.076 Y128.951 E24.95761
G1 X188.076 Y134.051 E25.16964
G1 X187.876 Y134.251 E25.18140
G1 X187.876 Y156.751 E26.11684
G1 X188.076 Y156.951 E26.12860
G1 X188.076 Y226.610 E29.02468
G1 X184.476 Y228.102 E29.18670
G1 X184.476 Y233.351 E29.40493
G1 X121.915 Y233.351 E32.00591
G1 X120.382 Y229.648 E32.17253
G1 X116.876 Y230.854 E32.32668
G1 X116.876 Y207.951 E33.27888
G1 X117.076 Y207.751 E33.29064
G1 X117.076 Y176.851 E34.57531
G1 X116.876 Y176.651 E34.58707
G1 X116.876 Y161.551 E35.21485
G1 X117.076 Y161.351 E35.22661
G1 X117.076 Y148.651 E35.75462
G1 X116.876 Y148.451 E35.76638
G1 X116.876 Y127.351 E36.64361
G1 X117.076 Y127.151 E36.65537
G1 X117.076 Y74.096 E38.86114
G0 F12000 X117.576 Y74.790
G1 F1800 X120.897 Y75.898 E39.00669
G1 X122.449 Y72.151 E39.17531
G1 X183.976 Y72.151 E41.73331
G1 X183.976 Y77.202 E41.94330
G1 X187.576 Y77.480 E42.09342
G1 X187.576 Y91.844 E42.69060
G1 X187.376 Y92.044 E42.70236
G1 X187.376 Y128.958 E44.23707
G1 X187.576 Y129.158 E44.24883
G1 X187.576 Y133.844 E44.44365
G1 X187.376 Y134.044 E44.45541
G1 X187.376 Y156.958 E45.40806
G1 X187.576 Y157.158 E45.41982
G1 X187.576 Y226.276 E48.29341
G1 X183.976 Y227.768 E48.45543
G1 X183.976 Y232.851 E48.66676
G1 X122.249 Y232.851 E51.23307
G1 X120.663 Y229.022 E51.40537
G1 X117.376 Y230.153 E51.54989
G1 X117.376 Y208.158 E52.46434
G1 X117.576 Y207.958 E52.47610
G1 X117.576 Y176.644 E53.77798
G1 X117.376 Y176.444 E53.78974
G1 X117.376 Y161.758 E54.40032
G1 X117.576 Y161.558 E54.41208
G1 X117.576 Y148.444 E54.95729
G1 X117.376 Y148.244 E54.96905
G1 X117.376 Y127.558 E55.82908
G1 X117.576 Y127.358 E55.84084
G1 X117.576 Y74.790 E58.02636
G0 F12000 X118.076 Y75.484
G1 F1800 X121.181 Y76.520 E58.16245
G1 X122.783 Y72.651 E58.33654
G1 X183.476 Y72.651 E60.85987
G1 X183.476 Y77.666 E61.06836
G1 X187.076 Y77.943 E61.21848
G1 X187.076 Y91.637 E61.78781
G1 X186.876 Y91.837 E61.79957
G1 X186.876 Y129.165 E63.35149
G1 X187.076 Y129.365 E63.36324
G1 X187.076 Y133.637 E63.54085
G1 X186.876 Y133.837 E63.55261
G1 X186.876 Y157.165 E64.52248
G1 X187.076 Y157.365 E64.53424
G1 X187.076 Y225.942 E67.38534
G1 X183.476 Y227.434 E67.54735
G1 X183.476 Y232.351 E67.75178
G1 X122.583 Y232.351 E70.28342
G1 X120.945 Y228.397 E70.46135
G1 X117.876 Y229.453 E70.59629
G1 X117.876 Y208.365 E71.47302
G1 X118.076 Y208.165 E71.48478
G1 X118.076 Y176.437 E72.80388
G1 X117.876 Y176.237 E72.81564
G1 X117.876 Y161.965 E73.40900
G1 X118.076 Y161.765 E73.42076
G1 X118.076 Y148.237 E73.98319
G1 X117.876 Y148.037 E73.99495
G1 X117.876 Y127.765 E74.83776
G1 X118.076 Y127.565 E74.84952
G1 X118.076 Y75.484 E77.01480
G0 F12000 X118.576 Y76.178
G1 F1800 X121.465 Y77.142 E77.14142
G1 X123.117 Y73.151 E77.32100
G1 X182.976 Y73.151 E79.80964
G1 X182.976 Y78.128 E80.01656
G1 X186.576 Y78.406 E80.16668
G1 X186.576 Y91.430 E80.70815
G1 X186.376 Y91.630 E80.71991
G1 X186.376 Y129.372 E82.28904
G1 X186.576 Y129.572 E82.30080
G1 X186.576 Y133.430 E82.46120
G1 X186.376 Y133.630 E82.47296
G1 X186.376 Y157.372 E83.46004
G1 X186.576 Y157.572 E83.47180
G1 X186.576 Y225.608 E86.30040
G1 X182.976 Y227.100 E86.46242
G1 X182.976 Y231.851 E86.65994
G1 X122.917 Y231.851 E89.15691
G1 X121.228 Y227.770 E89.34053
G1 X118.376 Y228.752 E89.46594
G1 X118.376 Y208.572 E90.30492
G1 X118.576 Y208.372 E90.31668
G1 X118.576 Y176.230 E91.65299
G1 X118.376 Y176.030 E91.66475
G1 X118.376 Y162.172 E92.24090
G1 X118.576 Y161.972 E92.25266
G1 X118.576 Y148.030 E92.83230
G1 X118.376 Y147.830 E92.84406
G1 X118.376 Y127.972 E93.66966
G1 X118.576 Y127.772 E93.68142
G1 X118.576 Y76.178 E95.82645
G0 F12000 X119.076 Y76.872
G1 F1800 X121.748 Y77.764 E95.94356
G1 X123.452 Y73.651 E96.12866
G1 X182.476 Y73.651 E98.58259
G1 X182.476 Y78.592 E98.78801
G1 X186.076 Y78.869 E98.93812
G1 X186.076 Y91.223 E99.45174
G1 X185.876 Y91.423 E99.46350
G1 X185.876 Y129.579 E101.04985
G1 X186.076 Y129.779 E101.06160
G1 X186.076 Y133.223 E101.20479
G1 X185.876 Y133.423 E101.21655
G1 X185.876 Y157.579 E102.22084
G1 X186.076 Y157.779 E102.23260
G1 X186.076 Y225.274 E105.03871
G1 X182.476 Y226.766 E105.20073
G1 X182.476 Y231.351 E105.39135
G1 X123.252 Y231.351 E107.85360
G1 X121.509 Y227.145 E108.04288
G1 X118.876 Y228.051 E108.15865
G1 X118.876 Y208.779 E108.95989
G1 X119.076 Y208.579 E108.97165
G1 X119.076 Y176.023 E110.32517
G1 X118.876 Y175.823 E110.33693
G1 X118.876 Y162.379 E110.89586
G1 X119.076 Y162.179 E110.90762
G1 X119.076 Y147.823 E111.50448
G1 X118.876 Y147.623 E111.51624
G1 X118.876 Y128.179 E112.32462
G1 X119.076 Y127.979 E112.33638
G1 X119.076 Y76.872 E114.46117
G0 F12000 X119.576 Y77.566
G1 F1800 X122.504 Y78.543 E114.58950
G1 X122.124 Y78.163 E114.61184
G1 X123.786 Y74.151 E114.79238
G1 X181.976 Y74.151 E117.21164
G1 X181.976 Y79.016 E117.41391
G1 X181.941 Y79.051 E117.41596
G1 X185.576 Y79.332 E117.56754
G1 X185.576 Y91.016 E118.05330
G1 X185.376 Y91.216 E118.06506
G1 X185.376 Y129.786 E119.66862
G1 X185.576 Y129.986 E119.68038
G1 X185.576 Y133.016 E119.80635
G1 X185.376 Y133.216 E119.81811
G1 X185.376 Y157.786 E120.83961
G1 X185.576 Y157.986 E120.85137
G1 X185.576 Y224.940 E123.63499
G1 X181.976 Y226.433 E123.79703
G1 X181.976 Y230.851 E123.98070
G1 X123.586 Y230.851 E126.40828
G1 X121.924 Y226.839 E126.58882
G1 X122.481 Y226.282 E126.62157
G1 X119.376 Y227.350 E126.75809
G1 X119.376 Y208.986 E127.52157
G1 X119.576 Y208.786 E127.53333
G1 X119.576 Y175.816 E128.90407
G1 X119.376 Y175.616 E128.91583
G1 X119.376 Y162.586 E129.45755
G1 X119.576 Y162.386 E129.46931
G1 X119.576 Y147.616 E130.08337
G1 X119.376 Y147.416 E130.09513
G1 X119.376 Y128.386 E130.88631
G1 X119.576 Y128.186 E130.89807
G1 X119.576 Y77.566 E133.00260
G0 F12000 X120.076 Y78.260
G1 F1800 X123.775 Y79.494 E133.16472
G1 X123.868 Y79.401 E133.17019
G1 X123.676 Y79.209 E133.18148
G1 X123.676 Y79.009 E133.18979
G1 X122.714 Y78.046 E133.24638
G1 X124.120 Y74.651 E133.39916
G1 X181.476 Y74.651 E135.78374
G1 X181.476 Y78.809 E135.95661
G1 X181.076 Y79.209 E135.98013
G1 X181.076 Y79.487 E135.99169
G1 X185.076 Y79.795 E136.15848
G1 X185.076 Y90.809 E136.61639
G1 X184.876 Y91.009 E136.62815
G1 X184.876 Y129.993 E138.24892
G1 X185.076 Y130.193 E138.26068
G1 X185.076 Y132.809 E138.36944
G1 X184.876 Y133.009 E138.38120
G1 X184.876 Y157.993 E139.41991
G1 X185.076 Y158.193 E139.43167
G1 X185.076 Y224.606 E142.19280
G1 X181.684 Y226.012 E142.34546
G1 X181.076 Y225.405 E142.38118
G1 X181.076 Y225.593 E142.38899
G1 X181.476 Y225.993 E142.41251
G1 X181.476 Y230.351 E142.59370
G1 X123.920 Y230.351 E144.98660
G1 X122.514 Y226.956 E145.13937
G1 X123.676 Y225.793 E145.20772
G1 X123.676 Y225.593 E145.21604
G1 X123.868 Y225.401 E145.22732
G1 X123.817 Y225.350 E145.23032
G1 X123.651 Y225.350 E145.23722
G1 X119.876 Y226.649 E145.40320
G1 X119.876 Y209.193 E146.12894
G1 X120.076 Y208.993 E146.14070
G1 X120.076 Y175.609 E147.52864
G1 X119.876 Y175.409 E147.54040
G1 X119.876 Y162.793 E148.06492
G1 X120.076 Y162.593 E148.07667
G1 X120.076 Y147.409 E148.70795
G1 X119.876 Y147.209 E148.71971
G1 X119.876 Y128.593 E149.49367
G1 X120.076 Y128.393 E149.50543
G1 X120.076 Y78.260 E151.58972
G0 F12000 X120.576 Y78.954
G1 F1800 X123.776 Y80.023 E151.72999
G1 X123.976 Y80.008 E151.73833
G1 X123.976 Y80.000 E151.73866
G1 X124.376 Y79.601 E151.76215
G1 X124.376 Y79.202 E151.77874
G1 X124.176 Y79.002 E151.79050
G1 X124.176 Y78.803 E151.79877
G1 X123.303 Y77.929 E151.85013
G1 X124.454 Y75.151 E151.97515
G1 X180.976 Y75.151 E154.32506
G1 X180.976 Y78.602 E154.46853
G1 X180.576 Y79.001 E154.49202
G1 X180.576 Y79.202 E154.50038
G1 X180.377 Y79.401 E154.51208
G1 X180.576 Y79.600 E154.52378
G1 X180.576 Y79.800 E154.53210
G1 X180.734 Y79.958 E154.54138
G1 X180.755 Y79.963 E154.54228
G1 X184.576 Y80.258 E154.70161
G1 X184.576 Y90.602 E155.13167
G1 X184.376 Y90.802 E155.14343
G1 X184.376 Y130.200 E156.78141
G1 X184.576 Y130.400 E156.79316
G1 X184.576 Y132.602 E156.88471
G1 X184.376 Y132.802 E156.89647
G1 X184.376 Y158.200 E157.95240
G1 X184.576 Y158.400 E157.96416
G1 X184.576 Y224.272 E160.70280
G1 X181.801 Y225.422 E160.82768
G1 X181.123 Y224.746 E160.86749
G1 X180.735 Y224.843 E160.88412
G1 X180.576 Y225.002 E160.89346
G1 X180.576 Y225.801 E160.92668
G1 X180.976 Y226.200 E160.95017
G1 X180.976 Y229.851 E161.10196
G1 X124.254 Y229.851 E163.46019
G1 X123.103 Y227.073 E163.58521
G1 X124.176 Y225.999 E163.64832
G1 X124.176 Y225.800 E163.65660
G1 X124.376 Y225.600 E163.66836
G1 X124.376 Y225.201 E163.68494
G1 X124.023 Y224.849 E163.70567
G1 X123.565 Y224.851 E163.72471
G1 X120.376 Y225.948 E163.86492
G1 X120.376 Y209.400 E164.55291
G1 X120.576 Y209.200 E164.56467
G1 X120.576 Y175.402 E165.96982
G1 X120.376 Y175.202 E165.98158
G1 X120.376 Y163.000 E166.48888
G1 X120.576 Y162.800 E166.50064
G1 X120.576 Y147.202 E167.14913
G1 X120.376 Y147.002 E167.16089
G1 X120.376 Y128.800 E167.91764
G1 X120.576 Y128.600 E167.92940
G1 X120.576 Y78.954 E169.99344
G0 F12000 X121.076 Y79.648
G1 F1800 X123.713 Y80.528 E170.10902
G1 X124.403 Y80.480 E170.13778
G1 X124.476 Y80.407 E170.14207
G1 X124.476 Y80.207 E170.15038
G1 X124.876 Y79.807 E170.17390
G1 X124.876 Y78.995 E170.20766
G1 X124.676 Y78.795 E170.21942
G1 X124.676 Y78.596 E170.22769
G1 X123.893 Y77.812 E170.27376
G1 X124.788 Y75.651 E170.37100
G1 X180.476 Y75.651 E172.68624
G1 X180.476 Y78.395 E172.80032
G1 X180.076 Y78.795 E172.82384
G1 X180.076 Y78.995 E172.83216
G1 X179.876 Y79.195 E172.84392
G1 X179.876 Y79.607 E172.86105
G1 X180.076 Y79.807 E172.87281
G1 X180.076 Y80.006 E172.88108
G1 X180.481 Y80.411 E172.90489
G1 X180.677 Y80.459 E172.91328
G1 X184.076 Y80.721 E173.05501
G1 X184.076 Y90.395 E173.45721
G1 X183.876 Y90.595 E173.46897
G1 X183.876 Y130.407 E175.12416
G1 X184.076 Y130.607 E175.13592
G1 X184.076 Y132.395 E175.21026
G1 X183.876 Y132.595 E175.22202
G1 X183.876 Y158.407 E176.29515
G1 X184.076 Y158.607 E176.30691
G1 X184.076 Y223.938 E179.02306
G1 X181.918 Y224.833 E179.12019
G1 X181.275 Y224.192 E179.15794
G1 X180.479 Y224.391 E179.19205
G1 X180.076 Y224.795 E179.21577
G1 X180.076 Y225.395 E179.24072
G1 X179.876 Y225.595 E179.25248
G1 X179.876 Y225.607 E179.25298
G1 X180.076 Y225.807 E179.26474
G1 X180.076 Y226.007 E179.27305
G1 X180.476 Y226.407 E179.29657
G1 X180.476 Y229.351 E179.41897
G1 X124.588 Y229.351 E181.74252
G1 X123.693 Y227.190 E181.83977
G1 X124.676 Y226.206 E181.89759
G1 X124.676 Y226.007 E181.90587
G1 X124.876 Y225.807 E181.91762
G1 X124.876 Y224.995 E181.95138
G1 X124.476 Y224.595 E181.97490
G1 X124.476 Y224.396 E181.98318
G1 X124.427 Y224.347 E181.98606
G1 X123.480 Y224.351 E182.02543
G1 X120.876 Y225.247 E182.13992
G1 X120.876 Y209.607 E182.79016
G1 X121.076 Y209.407 E182.80191
G1 X121.076 Y175.195 E184.22428
G1 X120.876 Y174.995 E184.23604
G1 X120.876 Y163.207 E184.72613
G1 X121.076 Y163.007 E184.73789
G1 X121.076 Y146.995 E185.40359
G1 X120.876 Y146.795 E185.41535
G1 X120.876 Y129.007 E186.15489
G1 X121.076 Y128.807 E186.16665
G1 X121.076 Y79.648 E188.21044
G0 F12000 X151.076 Y100.195
G1 F1800 X151.076 Y100.395 E188.21876
G1 X150.676 Y100.795 E188.24228
G1 X150.676 Y101.451 E188.26955
G1 X151.076 Y101.451 E188.28618
G1 X151.076 Y103.007 E188.35087
G1 X151.876 Y103.809 E188.39797
G1 X151.876 Y103.983 E188.40520
G1 X152.288 Y104.120 E188.42325
G1 X152.638 Y104.296 E188.43954
G1 X153.418 Y104.451 E188.47260
G1 X154.112 Y104.456 E188.50146
G1 X154.969 Y104.314 E188.53757
G1 X155.063 Y104.221 E188.54307
G1 X155.463 Y104.020 E188.56168
G1 X155.676 Y103.807 E188.57420
G1 X155.676 Y103.607 E188.58252
G1 X156.076 Y103.207 E188.60604
G1 X156.076 Y103.007 E188.61435
G1 X156.276 Y102.807 E188.62611
G1 X156.276 Y101.807 E188.66769
G1 X156.476 Y101.607 E188.67945
G1 X156.476 Y101.195 E188.69658
G1 X156.276 Y100.995 E188.70834
G1 X156.276 Y100.595 E188.72497
G1 X156.076 Y100.395 E188.73672
G1 X156.076 Y100.195 E188.74504
G1 X155.676 Y99.795 E188.76856
G1 X155.676 Y99.596 E188.77683
G1 X155.062 Y98.982 E188.81293
G1 X154.928 Y98.915 E188.81916
G1 X153.931 Y98.749 E188.86118
G1 X153.499 Y98.735 E188.87915
G1 X152.637 Y98.907 E188.91570
G1 X152.288 Y99.082 E188.93193
G1 X151.876 Y99.219 E188.94998
G1 X151.876 Y99.393 E188.95721
G1 X151.076 Y100.195 E189.00431
G0 F12000 X153.418 Y149.551
G1 F1800 X152.639 Y149.705 E189.03732
G1 X152.288 Y149.882 E189.05367
G1 X151.876 Y150.019 E189.07172
G1 X151.876 Y150.193 E189.07895
G1 X151.076 Y150.995 E189.12605
G1 X151.076 Y151.195 E189.13436
G1 X150.876 Y151.395 E189.14612
G1 X150.876 Y151.995 E189.17107
G1 X150.676 Y152.195 E189.18283
G1 X150.676 Y152.251 E189.18515
G1 X151.076 Y152.251 E189.20178
G1 X151.076 Y153.807 E189.26648
G1 X151.876 Y154.609 E189.31357
G1 X151.876 Y154.783 E189.32080
G1 X152.288 Y154.920 E189.33886
G1 X152.638 Y155.096 E189.35514
G1 X153.418 Y155.251 E189.38821
G1 X154.112 Y155.256 E189.41706
G1 X154.969 Y155.114 E189.45318
G1 X155.063 Y155.021 E189.45867
G1 X155.463 Y154.820 E189.47728
G1 X155.676 Y154.607 E189.48981
G1 X155.676 Y154.407 E189.49812
G1 X156.076 Y154.007 E189.52164
G1 X156.076 Y153.807 E189.52996
G1 X156.276 Y153.607 E189.54172
G1 X156.276 Y153.207 E189.55835
G1 X156.476 Y153.007 E189.57011
G1 X156.476 Y151.995 E189.61218
G1 X156.276 Y151.795 E189.62394
G1 X156.276 Y151.395 E189.64057
G1 X156.076 Y151.195 E189.65233
G1 X156.076 Y150.995 E189.66064
G1 X155.676 Y150.595 E189.68416
G1 X155.676 Y150.396 E189.69244
G1 X155.061 Y149.781 E189.72859
G1 X154.929 Y149.715 E189.73473
G1 X153.918 Y149.547 E189.77734
G1 X153.418 Y149.551 E189.79813
G1 F2100 E189.39813
G0 F12000 X152.000 Y150.884
;TYPE:SUPPORT
G1 F2100 E189.79813
G1 F1800 X152.000 Y103.119 E191.78397
G0 F12000 X152.000 Y100.084
G1 F1800 X152.000 Y75.076 E192.82368
G0 F12000 X148.000 Y75.076
G1 F1800 X148.000 Y229.926 E199.26159
G0 F12000 X144.000 Y229.926
G1 F1800 X144.000 Y75.076 E205.69951
G0 F12000 X140.000 Y75.076
G1 F1800 X140.000 Y229.926 E212.13742
G0 F12000 X152.000 Y229.926
G1 F1800 X152.000 Y153.919 E215.29743
G0 F12000 X151.650 Y152.000
G1 F1800 X120.500 Y152.000 E216.59249
G0 F12000 X120.500 Y156.000
G1 F1800 X184.450 Y156.000 E219.25122
G0 F12000 X184.450 Y152.000
G1 F1800 X172.500 Y152.000 E219.74805
G0 F12000 X172.000 Y150.931
G1 F1800 X172.000 Y103.270 E221.72956
G0 F12000 X172.000 Y100.131
G1 F1800 X172.000 Y75.076 E222.77123
G0 F12000 X168.000 Y75.076
G1 F1800 X168.000 Y229.926 E229.20914
G0 F12000 X164.000 Y229.926
G1 F1800 X164.000 Y75.076 E235.64706
G0 F12000 X160.000 Y75.076
G1 F1800 X160.000 Y229.926 E242.08497
G0 F12000 X172.000 Y229.926
G1 F1800 X172.000 Y154.070 E245.23870
G0 F12000 X168.450 Y152.000
G1 F1800 X155.700 Y152.000 E245.76878
G0 F12000 X184.450 Y148.000
G1 F1800 X120.500 Y148.000 E248.42751
G0 F12000 X120.300 Y144.000
G1 F1800 X184.450 Y144.000 E251.09456
G0 F12000 X184.450 Y140.000
G1 F1800 X120.300 Y140.000 E253.76161
G0 F12000 X120.300 Y136.000
G1 F1800 X184.450 Y136.000 E256.42866
G0 F12000 X184.650 Y132.000
G1 F1800 X120.300 Y132.000 E259.10402
G0 F12000 X120.500 Y128.000
G1 F1800 X184.450 Y128.000 E261.76275
G0 F12000 X184.450 Y124.000
G1 F1800 X120.500 Y124.000 E264.42148
G0 F12000 X120.500 Y120.000
G1 F1800 X184.450 Y120.000 E267.08021
G0 F12000 X184.450 Y116.000
G1 F1800 X120.500 Y116.000 E269.73895
G0 F12000 X120.500 Y112.000
G1 F1800 X184.450 Y112.000 E272.39768
G0 F12000 X184.450 Y108.000
G1 F1800 X120.500 Y108.000 E275.05641
G0 F12000 X120.500 Y104.000
G1 F1800 X184.450 Y104.000 E277.71514
G0 F12000 X184.450 Y100.000
G1 F1800 X171.900 Y100.000 E278.23691
G0 F12000 X169.080 Y100.000
G1 F1800 X155.100 Y100.000 E278.81813
G0 F12000 X152.080 Y100.000
G1 F1800 X120.500 Y100.000 E280.13107
G0 F12000 X120.500 Y96.000
G1 F1800 X184.450 Y96.000 E282.78981
G0 F12000 X184.450 Y92.000
G1 F1800 X120.500 Y92.000 E285.44854
G0 F12000 X120.500 Y88.000
G1 F1800 X184.650 Y88.000 E288.11559
G0 F12000 X184.650 Y84.000
G1 F1800 X120.500 Y84.000 E290.78263
G0 F12000 X120.500 Y80.000
G1 F1800 X182.224 Y80.000 E293.34882
G0 F12000 X184.000 Y80.138
G1 F1800 X184.000 Y224.592 E299.35452
G0 F12000 X184.650 Y224.000
G1 F1800 X120.300 Y224.000 E302.02988
G0 F12000 X124.000 Y224.931
G1 F1800 X124.000 Y79.870 E308.06082
G0 F12000 X124.000 Y78.732
G1 F1800 X124.000 Y76.051 E308.17228
G0 F12000 X124.020 Y76.000
G1 F1800 X181.050 Y76.000 E310.54331
G0 F12000 X180.000 Y75.076
G1 F1800 X180.000 Y229.926 E316.98123
G0 F12000 X181.050 Y228.000
G1 F1800 X123.405 Y228.000 E319.37783
G0 F12000 X124.000 Y229.433
G1 F1800 X124.000 Y226.069 E319.51768
G0 F12000 X128.000 Y229.926
G1 F1800 X128.000 Y75.076 E325.95560
G0 F12000 X132.000 Y75.076
G1 F1800 X132.000 Y229.926 E332.39351
G0 F12000 X136.000 Y229.926
G1 F1800 X136.000 Y75.076 E338.83143
G0 F12000 X156.000 Y75.076
G1 F1800 X156.000 Y229.926 E345.26934
G0 F12000 X176.000 Y229.926
G1 F1800 X176.000 Y75.076 E351.70726
G0 F12000 X184.650 Y160.000
G1 F1800 X120.500 Y160.000 E354.37431
G0 F12000 X120.300 Y164.000
G1 F1800 X184.650 Y164.000 E357.04967
G0 F12000 X184.650 Y168.000
G1 F1800 X120.300 Y168.000 E359.72503
G0 F12000 X120.300 Y172.000
G1 F1800 X184.650 Y172.000 E362.40039
G0 F12000 X184.650 Y176.000
G1 F1800 X120.500 Y176.000 E365.06744
G0 F12000 X120.500 Y180.000
G1 F1800 X184.650 Y180.000 E367.73449
G0 F12000 X184.650 Y184.000
G1 F1800 X120.500 Y184.000 E370.40153
G0 F12000 X120.500 Y188.000
G1 F1800 X184.650 Y188.000 E373.06858
G0 F12000 X184.650 Y192.000
G1 F1800 X120.500 Y192.000 E375.73563
G0 F12000 X120.500 Y196.000
G1 F1800 X184.650 Y196.000 E378.40268
G0 F12000 X184.650 Y200.000
G1 F1800 X120.500 Y200.000 E381.06972
G0 F12000 X120.500 Y204.000
G1 F1800 X184.650 Y204.000 E383.73677
G0 F12000 X184.650 Y208.000
G1 F1800 X120.500 Y208.000 E386.40382
G0 F12000 X120.300 Y212.000
G1 F1800 X184.650 Y212.000 E389.07918
G0 F12000 X184.650 Y216.000
G1 F1800 X120.300 Y216.000 E391.75454
G0 F12000 X120.300 Y220.000
G1 F1800 X184.650 Y220.000 E394.42990
;LAYER:1
M106 S10
G1 F2100 E394.02990
G0 F12000 X121.442 Y226.769 Z0.400
;TYPE:WALL-OUTER
G1 F2100 E394.42990
G1 F2220 X121.440 Y227.146 E394.44558
G1 X121.304 Y226.853 E394.45901
G1 X121.213 Y226.515 E394.47356
G1 X121.181 Y226.149 E394.48883
G1 X121.181 Y78.852 E400.61273
G1 X121.213 Y78.485 E400.62805
G1 X121.304 Y78.147 E400.64260
G1 X121.439 Y77.857 E400.65590
G1 X121.440 Y77.977 E400.66089
G1 X121.438 Y78.182 E400.66941
G1 X121.441 Y78.437 E400.68001
G1 X121.439 Y78.936 E400.70076
G1 X121.443 Y79.518 E400.72496
G1 X121.442 Y226.769 E406.84694
G1 F2100 E406.44694
G0 F12000 X183.558 Y226.480
G1 F2100 E406.84694
G1 F2220 X183.560 Y226.258 E406.85617
G1 X183.559 Y226.104 E406.86258
G1 X183.561 Y225.619 E406.88274
G1 X183.558 Y78.149 E413.01383
G1 X183.559 Y77.854 E413.02610
G1 X183.696 Y78.147 E413.03954
G1 X183.787 Y78.485 E413.05410
G1 X183.819 Y78.852 E413.06941
G1 X183.819 Y226.149 E419.19331
G1 X183.787 Y226.515 E419.20858
G1 X183.696 Y226.853 E419.22314
G1 X183.560 Y227.144 E419.23649
G1 X183.561 Y226.927 E419.24551
G1 X183.558 Y226.480 E419.26410
G1 F2100 E418.86410
G0 F12000 X180.000 Y226.179
;TYPE:SUPPORT
G1 F2100 E419.26410
G1 F2220 X180.000 Y229.176 E419.38870
G1 F2100 E418.98870
G0 F12000 X180.000 Y224.623
G1 F2100 E419.38870
G1 F2220 X180.000 Y80.178 E425.39402
G1 F2100 E424.99402
G0 F12000 X180.000 Y78.623
G1 F2100 E425.39402
G1 F2220 X180.000 Y75.826 E425.51031
G1 F2100 E425.11031
G0 F12000 X176.000 Y75.826
G1 F2100 E425.51031
G1 F2220 X176.000 Y229.176 E431.88586
G1 F2100 E431.48586
G0 F12000 X172.000 Y229.176
G1 F2100 E431.88586
G1 F2220 X172.000 Y155.158 E434.96317
G1 F2100 E434.56317
G0 F12000 X168.000 Y153.980
G1 F2100 E434.96317
G1 F2220 X168.000 Y229.176 E438.08946
G1 F2100 E437.68946
G0 F12000 X164.000 Y229.176
G1 F2100 E438.08946
G1 F2220 X164.000 Y75.826 E444.46501
G1 F2100 E444.06501
G0 F12000 X160.000 Y75.826
G1 F2100 E444.46501
G1 F2220 X160.000 Y229.176 E450.84056
G1 F2100 E450.44056
G0 F12000 X156.000 Y229.176
G1 F2100 E450.84056
G1 F2220 X156.000 Y154.331 E453.95226
G1 F2100 E453.55226
G0 F12000 X156.000 Y150.671
G1 F2100 E453.95226
G1 F2220 X156.000 Y103.531 E455.91211
G1 F2100 E455.51211
G0 F12000 X152.000 Y104.210
G1 F2100 E455.91211
G1 F2220 X152.000 Y149.794 E457.80727
G1 F2100 E457.40727
G0 F12000 X152.000 Y155.010
G1 F2100 E457.80727
G1 F2220 X152.000 Y229.176 E460.89074
G1 F2100 E460.49074
G0 F12000 X148.000 Y229.176
G1 F2100 E460.89074
G1 F2220 X148.000 Y75.826 E467.26629
G1 F2100 E466.86629
G0 F12000 X144.000 Y75.826
G1 F2100 E467.26629
G1 F2220 X144.000 Y96.118 E468.10993
G0 F12000 X144.000 Y96.952
G1 F2220 X144.000 Y229.176 E473.60717
G1 F2100 E473.20717
G0 F12000 X140.000 Y229.176
G1 F2100 E473.60717
G1 F2220 X140.000 Y96.921 E479.10569
G0 F12000 X140.000 Y96.133
G1 F2220 X140.000 Y75.826 E479.94996
G1 F2100 E479.54996
G0 F12000 X152.000 Y75.826
G1 F2100 E479.94996
G1 F2220 X152.000 Y98.994 E480.91317
G1 F2100 E480.51317
G0 F12000 X156.000 Y99.871
G1 F2100 E480.91317
G1 F2220 X156.000 Y75.826 E481.91285
G1 F2100 E481.51285
G0 F12000 X168.000 Y75.826
G1 F2100 E481.91285
G1 F2220 X168.000 Y100.023 E482.91884
G1 F2100 E482.51884
G0 F12000 X168.000 Y103.180
G1 F2100 E482.91884
G1 F2220 X168.000 Y150.823 E484.89961
G1 F2100 E484.49961
G0 F12000 X172.000 Y149.694
G1 F2100 E484.89961
G1 F2220 X172.000 Y104.358 E486.78446
G1 F2100 E486.38446
G0 F12000 X172.000 Y98.893
G1 F2100 E486.78446
G1 F2220 X172.000 Y75.826 E487.74347
G1 F2100 E487.34347
G0 F12000 X136.000 Y75.826
G1 F2100 E487.74347
G1 F2220 X136.000 Y96.147 E488.58832
G0 F12000 X136.000 Y96.889
G1 F2220 X136.000 Y229.176 E494.08818
G1 F2100 E493.68818
G0 F12000 X132.000 Y229.176
G1 F2100 E494.08818
G1 F2220 X132.000 Y96.858 E499.58932
G0 F12000 X132.000 Y96.162
G1 F2220 X132.000 Y75.826 E500.43479
G1 F2100 E500.03479
G0 F12000 X128.000 Y75.826
G1 F2100 E500.43479
G1 F2220 X128.000 Y229.176 E506.81034
G1 F2100 E506.41034
G0 F12000 X124.000 Y227.471
G1 F2100 E506.81034
G1 F2220 X124.000 Y227.132 E506.82444
G0 F12000 X124.000 Y224.174
G1 F2220 X124.000 Y80.687 E512.78993
;LAYER:2
M106 S20
G1 F2100 E512.38993
G0 F12000 X121.756 Y79.887 Z0.600
;TYPE:WALL-OUTER
G1 F2100 E512.78993
G1 F2700 X121.845 Y80.194 E512.80322
G1 X121.855 Y222.647 E518.72573
G1 X121.845 Y224.805 E518.81545
G1 X121.756 Y225.113 E518.82878
G1 X121.717 Y225.521 E518.84582
G1 X121.756 Y225.936 E518.86315
G1 X121.845 Y226.244 E518.87648
G1 X121.851 Y227.007 E518.90820
G1 X121.848 Y227.399 E518.92450
G1 X121.849 Y227.783 E518.94046
G1 X121.833 Y227.771 E518.94130
G1 X121.565 Y227.491 E518.95741
G1 X121.362 Y227.193 E518.97240
G1 X121.205 Y226.857 E518.98782
G1 X121.113 Y226.512 E519.00266
G1 X121.081 Y226.149 E519.01781
G1 X121.081 Y78.852 E525.14171
G1 X121.113 Y78.488 E525.15690
G1 X121.205 Y78.143 E525.17175
G1 X121.362 Y77.807 E525.18717
G1 X121.565 Y77.509 E525.20216
G1 X121.849 Y77.216 E525.21912
G1 X121.850 Y77.357 E525.22499
G1 X121.847 Y77.599 E525.23505
G1 X121.851 Y77.842 E525.24515
G1 X121.848 Y78.212 E525.26053
G1 X121.849 Y78.307 E525.26448
G1 X121.845 Y78.757 E525.28319
G1 X121.756 Y79.064 E525.29648
G1 X121.717 Y79.472 E525.31352
G1 X121.756 Y79.887 E525.33085
G1 F2100 E524.93085
G0 F12000 X121.500 Y77.923
;TYPE:SKIN
G1 F2100 E525.33085
G1 F2700 X121.500 Y227.075 E531.53187
G1 F2100 E531.13187
G0 F12000 X183.148 Y227.290
;TYPE:WALL-OUTER
G1 F2100 E531.53187
G1 F2700 X183.152 Y226.993 E531.54422
G1 X183.151 Y226.866 E531.54950
G1 X183.153 Y226.487 E531.56526
G1 X183.152 Y226.247 E531.57524
G1 X183.195 Y226.140 E531.58003
G1 X183.274 Y225.735 E531.59719
G1 X183.274 Y225.317 E531.61457
G1 X183.195 Y224.910 E531.63180
G1 X183.153 Y224.802 E531.63662
G1 X183.079 Y113.317 E536.27163
G1 X183.075 Y112.489 E536.30605
G1 X183.153 Y80.269 E537.64561
G1 X183.152 Y80.197 E537.64860
G1 X183.195 Y80.091 E537.65336
G1 X183.274 Y79.686 E537.67051
G1 X183.274 Y79.268 E537.68789
G1 X183.195 Y78.861 E537.70513
G1 X183.153 Y78.753 E537.70995
G1 X183.149 Y77.714 E537.75314
G1 X183.151 Y77.463 E537.76358
G1 X183.150 Y77.216 E537.77385
G1 X183.435 Y77.509 E537.79084
G1 X183.638 Y77.807 E537.80583
G1 X183.795 Y78.143 E537.82125
G1 X183.887 Y78.488 E537.83610
G1 X183.919 Y78.852 E537.85129
G1 X183.919 Y226.149 E543.97519
G1 X183.887 Y226.512 E543.99034
G1 X183.795 Y226.857 E544.00518
G1 X183.638 Y227.193 E544.02060
G1 X183.435 Y227.491 E544.03559
G1 X183.167 Y227.771 E544.05171
G1 X183.151 Y227.783 E544.05254
G1 X183.148 Y227.290 E544.07303
G0 F12000 X183.500 Y227.078
;TYPE:SKIN
G1 F2700 X183.500 Y77.925 E550.27409
G1 F2100 E549.87409
G0 F12000 X180.000 Y78.623
;TYPE:SUPPORT
G1 F2100 E550.27409
G1 F2700 X180.000 Y75.826 E550.39038
G1 F2100 E549.99038
G0 F12000 X176.000 Y75.826
G1 F2100 E550.39038
G1 F2700 X176.000 Y229.176 E556.76593
G1 F2100 E556.36593
G0 F12000 X172.000 Y229.176
G1 F2100 E556.76593
G1 F2700 X172.000 Y155.158 E559.84324
G1 F2100 E559.44324
G0 F12000 X168.000 Y153.980
G1 F2100 E559.84324
G1 F2700 X168.000 Y229.176 E562.96953
G1 F2100 E562.56953
G0 F12000 X164.000 Y229.176
G1 F2100 E562.96953
G1 F2700 X164.000 Y75.826 E569.34508
G1 F2100 E568.94508
G0 F12000 X160.000 Y75.826
G1 F2100 E569.34508
G1 F2700 X160.000 Y229.176 E575.72063
G1 F2100 E575.32063
G0 F12000 X156.000 Y229.176
G1 F2100 E575.72063
G1 F2700 X156.000 Y154.331 E578.83233
G1 F2100 E578.43233
G0 F12000 X156.000 Y150.671
G1 F2100 E578.83233
G1 F2700 X156.000 Y103.531 E580.79218
G1 F2100 E580.39218
G0 F12000 X152.000 Y104.210
G1 F2100 E580.79218
G1 F2700 X152.000 Y149.794 E582.68734
G1 F2100 E582.28734
G0 F12000 X152.000 Y155.010
G1 F2100 E582.68734
G1 F2700 X152.000 Y229.176 E585.77081
G1 F2100 E585.37081
G0 F12000 X148.000 Y229.176
G1 F2100 E585.77081
G1 F2700 X148.000 Y75.826 E592.14636
G1 F2100 E591.74636
G0 F12000 X144.000 Y75.826
G1 F2100 E592.14636
G1 F2700 X144.000 Y96.117 E592.98996
G0 F12000 X144.000 Y96.952
G1 F2700 X144.000 Y229.176 E598.48720
G1 F2100 E598.08720
G0 F12000 X140.000 Y229.176
G1 F2100 E598.48720
G1 F2700 X140.000 Y96.921 E603.98572
G0 F12000 X140.000 Y96.132
G1 F2700 X140.000 Y75.826 E604.82995
G1 F2100 E604.42995
G0 F12000 X152.000 Y75.826
G1 F2100 E604.82995
G1 F2700 X152.000 Y98.994 E605.79316
G1 F2100 E605.39316
G0 F12000 X156.000 Y99.871
G1 F2100 E605.79316
G1 F2700 X156.000 Y75.826 E606.79283
G1 F2100 E606.39283
G0 F12000 X168.000 Y75.826
G1 F2100 E606.79283
G1 F2700 X168.000 Y100.023 E607.79883
G1 F2100 E607.39883
G0 F12000 X168.000 Y103.180
G1 F2100 E607.79883
G1 F2700 X168.000 Y150.823 E609.77959
G1 F2100 E609.37959
G0 F12000 X172.000 Y149.694
G1 F2100 E609.77959
G1 F2700 X172.000 Y104.358 E611.66445
G1 F2100 E611.26445
G0 F12000 X172.000 Y98.893
G1 F2100 E611.66445
G1 F2700 X172.000 Y75.826 E612.62346
G1 F2100 E612.22346
G0 F12000 X180.000 Y80.178
G1 F2100 E612.62346
G1 F2700 X180.000 Y224.623 E618.62879
G1 F2100 E618.22879
G0 F12000 X180.000 Y226.179
G1 F2100 E618.62879
G1 F2700 X180.000 Y229.100 E618.75023
G1 F2100 E618.35023
G0 F12000 X136.000 Y229.176
G1 F2100 E618.75023
G1 F2700 X136.000 Y96.889 E624.25008
G0 F12000 X136.000 Y96.147
G1 F2700 X136.000 Y75.826 E625.09493
G1 F2100 E624.69493
G0 F12000 X132.000 Y75.826
G1 F2100 E625.09493
G1 F2700 X132.000 Y96.162 E625.94040
G0 F12000 X132.000 Y96.858
G1 F2700 X132.000 Y229.176 E631.44155
G1 F2100 E631.04155
G0 F12000 X128.000 Y229.176
G1 F2100 E631.44155
G1 F2700 X128.000 Y75.826 E637.81710
G1 F2100 E637.41710
G0 F12000 X124.000 Y80.704
G1 F2100 E637.81710
G1 F2700 X124.000 Y224.174 E643.78189
G1 F2100 E643.38189
G0 F12000 X124.000 Y227.130
G1 F2100 E643.78189
G1 F2700 X124.000 Y227.472 E643.79611
;LAYER:3
M106 S30
G0 F12000 X121.537 Y224.073 Z0.800
;TYPE:WALL-INNER
G1 F3120 X121.480 Y224.185 E643.80133
G1 X121.480 Y80.815 E649.76196
G1 X121.536 Y80.926 E649.76713
G1 X121.764 Y81.230 E649.78293
G1 X121.822 Y163.633 E653.20885
G1 X121.848 Y174.962 E653.67986
G1 X121.860 Y178.535 E653.82841
G1 X121.800 Y204.088 E654.89078
G1 X121.800 Y205.243 E654.93880
G1 X121.812 Y209.063 E655.09762
G1 X121.772 Y221.055 E655.59619
G1 X121.765 Y223.770 E655.70906
G1 X121.537 Y224.073 E655.72483
G0 F12000 X121.962 Y224.339
;TYPE:WALL-OUTER
G1 F3120 X121.770 Y224.722 E655.74264
G1 X121.655 Y225.112 E655.75955
G1 X121.618 Y225.496 E655.77559
G1 X121.618 Y225.537 E655.77729
G1 X121.655 Y225.936 E655.79395
G1 X121.773 Y226.336 E655.81129
G1 X121.962 Y226.710 E655.82871
G1 X122.264 Y227.092 E655.84896
G1 X122.267 Y227.743 E655.87602
G1 X122.265 Y228.128 E655.89203
G1 X122.039 Y228.004 E655.90275
G1 X121.733 Y227.771 E655.91874
G1 X121.467 Y227.493 E655.93473
G1 X121.258 Y227.188 E655.95010
G1 X121.104 Y226.856 E655.96532
G1 X121.012 Y226.515 E655.98000
G1 X120.980 Y226.149 E655.99528
G1 X120.980 Y78.852 E662.11918
G1 X121.012 Y78.485 E662.13449
G1 X121.104 Y78.144 E662.14918
G1 X121.258 Y77.812 E662.16439
G1 X121.467 Y77.507 E662.17976
G1 X121.733 Y77.229 E662.19576
G1 X122.039 Y76.996 E662.21175
G1 X122.264 Y76.872 E662.22243
G1 X122.267 Y77.730 E662.25810
G1 X122.266 Y77.907 E662.26546
G1 X122.218 Y77.951 E662.26817
G1 X121.962 Y78.290 E662.28583
G1 X121.770 Y78.673 E662.30364
G1 X121.655 Y79.063 E662.32055
G1 X121.618 Y79.447 E662.33659
G1 X121.618 Y79.488 E662.33829
G1 X121.655 Y79.887 E662.35495
G1 X121.773 Y80.287 E662.37229
G1 X121.962 Y80.661 E662.38971
G1 X122.264 Y81.043 E662.40996
G1 X122.312 Y209.065 E667.73249
G1 X122.264 Y223.957 E668.35163
G1 X121.962 Y224.339 E668.37188
G1 F2100 E667.97188
G0 F12000 X183.238 Y223.772
;TYPE:WALL-INNER
G1 F2100 E668.37188
G1 F3120 X183.164 Y134.610 E672.07880
G1 X183.143 Y127.105 E672.39083
G1 X183.138 Y125.949 E672.43889
G1 X183.237 Y81.229 E674.29813
G1 X183.319 Y81.138 E674.30323
G1 X183.520 Y80.818 E674.31894
G1 X183.520 Y224.182 E680.27932
G1 X183.319 Y223.862 E680.29503
G1 X183.238 Y223.772 E680.30007
G0 F12000 X182.918 Y224.165
;TYPE:WALL-OUTER
G1 F3120 X182.738 Y223.964 E680.31128
G1 X182.738 Y81.036 E686.25354
G1 X182.918 Y80.835 E686.26476
G1 X183.143 Y80.478 E686.28230
G1 X183.295 Y80.090 E686.29963
G1 X183.374 Y79.683 E686.31686
G1 X183.375 Y79.268 E686.33412
G1 X183.295 Y78.861 E686.35136
G1 X183.143 Y78.473 E686.36869
G1 X182.918 Y78.116 E686.38623
G1 X182.737 Y77.914 E686.39751
G1 X182.732 Y77.409 E686.41850
G1 X182.734 Y76.871 E686.44087
G1 X182.961 Y76.996 E686.45164
G1 X183.267 Y77.229 E686.46764
G1 X183.533 Y77.507 E686.48363
G1 X183.742 Y77.812 E686.49900
G1 X183.896 Y78.144 E686.51422
G1 X183.988 Y78.485 E686.52890
G1 X184.020 Y78.852 E686.54422
G1 X184.020 Y226.149 E692.66812
G1 X183.988 Y226.515 E692.68339
G1 X183.896 Y226.856 E692.69808
G1 X183.742 Y227.188 E692.71329
G1 X183.533 Y227.493 E692.72866
G1 X183.267 Y227.771 E692.74466
G1 X182.961 Y228.004 E692.76065
G1 X182.735 Y228.128 E692.77137
G1 X182.736 Y227.943 E692.77906
G1 X182.732 Y227.594 E692.79357
G1 X182.737 Y227.086 E692.81469
G1 X182.918 Y226.884 E692.82597
G1 X183.143 Y226.527 E692.84351
G1 X183.295 Y226.139 E692.86084
G1 X183.374 Y225.732 E692.87807
G1 X183.375 Y225.317 E692.89533
G1 X183.295 Y224.910 E692.91257
G1 X183.143 Y224.522 E692.92990
G1 X182.918 Y224.165 E692.94744
G1 F2100 E692.54744
G0 F12000 X180.000 Y224.623
;TYPE:SUPPORT
G1 F2100 E692.94744
G1 F3120 X180.000 Y80.180 E698.95268
G1 F2100 E698.55268
G0 F12000 X180.000 Y78.623
G1 F2100 E698.95268
G1 F3120 X180.000 Y75.826 E699.06897
G1 F2100 E698.66897
G0 F12000 X176.000 Y75.826
G1 F2100 E699.06897
G1 F3120 X176.000 Y229.176 E705.44452
G1 F2100 E705.04452
G0 F12000 X172.000 Y229.176
G1 F2100 E705.44452
G1 F3120 X172.000 Y155.158 E708.52183
G1 F2100 E708.12183
G0 F12000 X168.000 Y153.980
G1 F2100 E708.52183
G1 F3120 X168.000 Y229.176 E711.64812
G1 F2100 E711.24812
G0 F12000 X164.000 Y229.176
G1 F2100 E711.64812
G1 F3120 X164.000 Y75.826 E718.02367
G1 F2100 E717.62367
G0 F12000 X160.000 Y75.826
G1 F2100 E718.02367
G1 F3120 X160.000 Y229.176 E724.39922
G1 F2100 E723.99922
G0 F12000 X156.000 Y229.176
G1 F2100 E724.39922
G1 F3120 X156.000 Y154.331 E727.51092
G1 F2100 E727.11092
G0 F12000 X156.000 Y150.671
G1 F2100 E727.51092
G1 F3120 X156.000 Y103.531 E729.47077
G1 F2100 E729.07077
G0 F12000 X152.000 Y104.210
G1 F2100 E729.47077
G1 F3120 X152.000 Y149.794 E731.36593
G1 F2100 E730.96593
G0 F12000 X152.000 Y155.010
G1 F2100 E731.36593
G1 F3120 X152.000 Y229.176 E734.44940
G1 F2100 E734.04940
G0 F12000 X148.000 Y229.176
G1 F2100 E734.44940
G1 F3120 X148.000 Y75.826 E740.82495
G1 F2100 E740.42495
G0 F12000 X144.000 Y75.826
G1 F2100 E740.82495
G1 F3120 X144.000 Y96.117 E741.66855
G0 F12000 X144.000 Y96.952
G1 F3120 X144.000 Y229.176 E747.16578
G1 F2100 E746.76578
G0 F12000 X140.000 Y229.176
G1 F2100 E747.16578
G1 F3120 X140.000 Y96.921 E752.66431
G0 F12000 X140.000 Y96.132
G1 F3120 X140.000 Y75.826 E753.50853
G1 F2100 E753.10853
G0 F12000 X152.000 Y75.826
G1 F2100 E753.50853
G1 F3120 X152.000 Y98.994 E754.47175
G1 F2100 E754.07175
G0 F12000 X156.000 Y99.871
G1 F2100 E754.47175
G1 F3120 X156.000 Y75.826 E755.47142
G1 F2100 E755.07142
G0 F12000 X168.000 Y75.826
G1 F2100 E755.47142
G1 F3120 X168.000 Y100.023 E756.47742
G1 F2100 E756.07742
G0 F12000 X168.000 Y103.180
G1 F2100 E756.47742
G1 F3120 X168.000 Y150.823 E758.45818
G1 F2100 E758.05818
G0 F12000 X172.000 Y149.694
G1 F2100 E758.45818
G1 F3120 X172.000 Y104.358 E760.34303
G1 F2100 E759.94303
G0 F12000 X172.000 Y98.894
G1 F2100 E760.34303
G1 F3120 X172.000 Y75.826 E761.30209
G1 F2100 E760.90209
G0 F12000 X136.000 Y75.826
G1 F2100 E761.30209
G1 F3120 X136.000 Y96.147 E762.14694
G0 F12000 X136.000 Y96.889
G1 F3120 X136.000 Y229.176 E767.64679
G1 F2100 E767.24679
G0 F12000 X132.000 Y229.176
G1 F2100 E767.64679
G1 F3120 X132.000 Y96.858 E773.14794
G0 F12000 X132.000 Y96.162
G1 F3120 X132.000 Y75.826 E773.99341
G1 F2100 E773.59341
G0 F12000 X128.000 Y75.826
G1 F2100 E773.99341
G1 F3120 X128.000 Y229.176 E780.36896
G1 F2100 E779.96896
G0 F12000 X124.000 Y227.472
G1 F2100 E780.36896
G1 F3120 X124.000 Y227.130 E780.38318
G0 F12000 X124.000 Y224.173
G1 F3120 X124.000 Y80.712 E786.34760
G1 F2100 E785.94760
G0 F12000 X180.000 Y226.179
G1 F2100 E786.34760
G1 F3120 X180.000 Y229.100 E786.46904
;LAYER:4
M106 S40
G1 F2100 E786.06904
G0 F12000 X122.188 Y223.269 Z1.000
;TYPE:WALL-INNER
G1 F2100 E786.46904
G1 F3600 X122.121 Y223.313 E786.47237
G1 X121.745 Y223.664 E786.49375
G1 X121.435 Y224.073 E786.51509
G1 X121.379 Y224.184 E786.52026
G1 X121.379 Y80.816 E792.48081
G1 X121.435 Y80.927 E792.48598
G1 X121.745 Y81.336 E792.50731
G1 X122.124 Y81.689 E792.52885
G1 X122.187 Y81.730 E792.53197
G1 X122.259 Y151.927 E795.45043
G1 X122.296 Y164.929 E795.99099
G1 X122.245 Y186.941 E796.90614
G1 X122.246 Y188.435 E796.96826
G1 X122.269 Y195.481 E797.26120
G1 X122.188 Y223.269 E798.41649
G0 F12000 X122.432 Y223.707
;TYPE:WALL-OUTER
G1 F3600 X122.118 Y224.000 E798.43435
G1 X121.861 Y224.339 E798.45203
G1 X121.672 Y224.713 E798.46946
G1 X121.554 Y225.113 E798.48679
G1 X121.516 Y225.525 E798.50400
G1 X121.554 Y225.936 E798.52116
G1 X121.672 Y226.336 E798.53849
G1 X121.861 Y226.710 E798.55592
G1 X122.118 Y227.049 E798.57360
G1 X122.433 Y227.343 E798.59152
G1 X122.688 Y227.509 E798.60417
G1 X122.691 Y227.804 E798.61643
G1 X122.689 Y228.339 E798.63868
G1 X122.283 Y228.193 E798.65661
G1 X121.938 Y228.004 E798.67297
G1 X121.632 Y227.771 E798.68896
G1 X121.364 Y227.491 E798.70507
G1 X121.161 Y227.193 E798.72006
G1 X121.002 Y226.853 E798.73567
G1 X120.911 Y226.515 E798.75022
G1 X120.879 Y226.149 E798.76550
G1 X120.879 Y78.852 E804.88939
G1 X120.911 Y78.485 E804.90471
G1 X121.002 Y78.147 E804.91926
G1 X121.161 Y77.807 E804.93487
G1 X121.364 Y77.509 E804.94986
G1 X121.632 Y77.229 E804.96597
G1 X121.938 Y76.996 E804.98196
G1 X122.283 Y76.807 E804.99832
G1 X122.688 Y76.661 E805.01621
G1 X122.688 Y77.489 E805.05064
G1 X122.432 Y77.658 E805.06339
G1 X122.118 Y77.951 E805.08125
G1 X121.861 Y78.290 E805.09893
G1 X121.672 Y78.664 E805.11636
G1 X121.554 Y79.064 E805.13369
G1 X121.516 Y79.476 E805.15090
G1 X121.554 Y79.887 E805.16806
G1 X121.672 Y80.287 E805.18540
G1 X121.861 Y80.661 E805.20282
G1 X122.118 Y81.000 E805.22050
G1 X122.433 Y81.294 E805.23842
G1 X122.687 Y81.459 E805.25101
G1 X122.769 Y195.483 E809.99158
G1 X122.687 Y223.538 E811.15797
G1 X122.432 Y223.707 E811.17069
G0 F12000 X122.000 Y223.188
;TYPE:SKIN
G1 F3600 X122.000 Y81.813 E817.04838
G1 F2100 E816.64838
G0 F12000 X182.811 Y81.726
;TYPE:WALL-INNER
G1 F2100 E817.04838
G1 F3600 X183.074 Y81.519 E817.06230
G1 X183.419 Y81.138 E817.08367
G1 X183.621 Y80.816 E817.09947
G1 X183.621 Y224.184 E823.06002
G1 X183.419 Y223.862 E823.07582
G1 X183.074 Y223.481 E823.09719
G1 X182.812 Y223.274 E823.11107
G1 X182.746 Y155.979 E825.90888
G1 X182.707 Y140.897 E826.53591
G1 X182.701 Y139.408 E826.59782
G1 X182.811 Y81.726 E828.99596
G0 F12000 X182.392 Y81.420
;TYPE:WALL-OUTER
G1 F3600 X182.732 Y81.152 E829.01396
G1 X183.019 Y80.835 E829.03174
G1 X183.243 Y80.478 E829.04926
G1 X183.396 Y80.090 E829.06660
G1 X183.475 Y79.683 E829.08384
G1 X183.476 Y79.268 E829.10109
G1 X183.396 Y78.860 E829.11838
G1 X183.243 Y78.473 E829.13568
G1 X183.019 Y78.116 E829.15320
G1 X182.732 Y77.799 E829.17098
G1 X182.392 Y77.531 E829.18898
G1 X182.312 Y77.486 E829.19280
G1 X182.310 Y76.813 E829.22078
G1 X182.311 Y76.661 E829.22710
G1 X182.717 Y76.807 E829.24503
G1 X183.062 Y76.996 E829.26139
G1 X183.368 Y77.229 E829.27738
G1 X183.636 Y77.509 E829.29349
G1 X183.839 Y77.807 E829.30848
G1 X183.998 Y78.147 E829.32409
G1 X184.089 Y78.485 E829.33864
G1 X184.121 Y78.852 E829.35396
G1 X184.121 Y226.149 E835.47786
G1 X184.089 Y226.515 E835.49313
G1 X183.998 Y226.853 E835.50768
G1 X183.839 Y227.193 E835.52329
G1 X183.636 Y227.491 E835.53828
G1 X183.368 Y227.771 E835.55439
G1 X183.062 Y228.004 E835.57038
G1 X182.717 Y228.193 E835.58674
G1 X182.312 Y228.339 E835.60464
G1 X182.311 Y227.800 E835.62704
G1 X182.310 Y227.514 E835.63894
G1 X182.392 Y227.469 E835.64282
G1 X182.732 Y227.201 E835.66082
G1 X183.019 Y226.884 E835.67860
G1 X183.243 Y226.527 E835.69612
G1 X183.396 Y226.139 E835.71346
G1 X183.475 Y225.732 E835.73070
G1 X183.476 Y225.317 E835.74795
G1 X183.396 Y224.909 E835.76524
G1 X183.243 Y224.522 E835.78254
G1 X183.019 Y224.165 E835.80006
G1 X182.732 Y223.848 E835.81784
G1 X182.392 Y223.580 E835.83584
G1 X182.312 Y223.536 E835.83964
G1 X182.312 Y81.464 E841.74630
G1 X182.392 Y81.420 E841.75010
G0 F12000 X183.000 Y81.799
;TYPE:SKIN
G1 F3600 X183.000 Y223.199 E847.62883
G1 F2100 E847.22883
G0 F12000 X180.000 Y224.624
;TYPE:SUPPORT
G1 F2100 E847.62883
G1 F3600 X180.000 Y80.178 E853.63420
G1 F2100 E853.23420
G0 F12000 X180.000 Y78.623
G1 F2100 E853.63420
G1 F3600 X180.000 Y75.826 E853.75048
G1 F2100 E853.35048
G0 F12000 X176.000 Y75.826
G1 F2100 E853.75048
G1 F3600 X176.000 Y229.176 E860.12603
G1 F2100 E859.72603
G0 F12000 X172.000 Y229.176
G1 F2100 E860.12603
G1 F3600 X172.000 Y155.158 E863.20334
G1 F2100 E862.80334
G0 F12000 X168.000 Y153.980
G1 F2100 E863.20334
G1 F3600 X168.000 Y229.176 E866.32963
G1 F2100 E865.92963
G0 F12000 X164.000 Y229.176
G1 F2100 E866.32963
G1 F3600 X164.000 Y75.826 E872.70518
G1 F2100 E872.30518
G0 F12000 X160.000 Y75.826
G1 F2100 E872.70518
G1 F3600 X160.000 Y229.176 E879.08073
G1 F2100 E878.68073
G0 F12000 X156.000 Y229.176
G1 F2100 E879.08073
G1 F3600 X156.000 Y154.331 E882.19243
G1 F2100 E881.79243
G0 F12000 X156.000 Y150.671
G1 F2100 E882.19243
G1 F3600 X156.000 Y103.531 E884.15228
G1 F2100 E883.75228
G0 F12000 X152.000 Y104.210
G1 F2100 E884.15228
G1 F3600 X152.000 Y149.794 E886.04744
G1 F2100 E885.64744
G0 F12000 X152.000 Y155.010
G1 F2100 E886.04744
G1 F3600 X152.000 Y229.176 E889.13091
G1 F2100 E888.73091
G0 F12000 X148.000 Y229.176
G1 F2100 E889.13091
G1 F3600 X148.000 Y75.826 E895.50646
G1 F2100 E895.10646
G0 F12000 X144.000 Y75.826
G1 F2100 E895.50646
G1 F3600 X144.000 Y96.116 E896.35002
G0 F12000 X144.000 Y96.952
G1 F3600 X144.000 Y229.176 E901.84726
G1 F2100 E901.44726
G0 F12000 X140.000 Y229.176
G1 F2100 E901.84726
G1 F3600 X140.000 Y96.921 E907.34578
G0 F12000 X140.000 Y96.131
G1 F3600 X140.000 Y75.826 E908.18996
G1 F2100 E907.78996
G0 F12000 X152.000 Y75.826
G1 F2100 E908.18996
G1 F3600 X152.000 Y98.994 E909.15318
G1 F2100 E908.75318
G0 F12000 X156.000 Y99.871
G1 F2100 E909.15318
G1 F3600 X156.000 Y75.826 E910.15285
G1 F2100 E909.75285
G0 F12000 X168.000 Y75.826
G1 F2100 E910.15285
G1 F3600 X168.000 Y100.023 E911.15885
G1 F2100 E910.75885
G0 F12000 X168.000 Y103.180
G1 F2100 E911.15885
G1 F3600 X168.000 Y150.823 E913.13961
G1 F2100 E912.73961
G0 F12000 X172.000 Y149.694
G1 F2100 E913.13961
G1 F3600 X172.000 Y104.358 E915.02446
G1 F2100 E914.62446
G0 F12000 X172.000 Y98.894
G1 F2100 E915.02446
G1 F3600 X172.000 Y75.826 E915.98352
G1 F2100 E915.58352
G0 F12000 X136.000 Y75.826
G1 F2100 E915.98352
G1 F3600 X136.000 Y96.147 E916.82837
G0 F12000 X136.000 Y96.889
G1 F3600 X136.000 Y229.176 E922.32822
G1 F2100 E921.92822
G0 F12000 X132.000 Y229.176
G1 F2100 E922.32822
G1 F3600 X132.000 Y96.858 E927.82937
G0 F12000 X132.000 Y96.162
G1 F3600 X132.000 Y75.826 E928.67484
G1 F2100 E928.27484
G0 F12000 X128.000 Y75.826
G1 F2100 E928.67484
G1 F3600 X128.000 Y229.176 E935.05039
G1 F2100 E934.65039
G0 F12000 X124.000 Y227.472
G1 F2100 E935.05039
G1 F3600 X124.000 Y227.130 E935.06461
G0 F12000 X124.000 Y224.043
G1 F3600 X124.000 Y80.753 E941.02192
G1 F2100 E940.62192
G0 F12000 X180.000 Y226.179
G1 F2100 E941.02192
G1 F3600 X180.000 Y229.176 E941.14652
;LAYER:5
M106 S51
G1 F2100 E940.74652
G0 F12000 X122.620 Y222.952 Z1.200
;TYPE:WALL-INNER
G1 F2100 E941.14652
G1 F3600 X122.453 Y223.027 E941.15413
G1 X122.020 Y223.313 E941.17570
G1 X121.644 Y223.664 E941.19709
G1 X121.334 Y224.073 E941.21842
G1 X121.279 Y224.181 E941.22346
G1 X121.279 Y80.819 E947.18376
G1 X121.334 Y80.927 E947.18880
G1 X121.644 Y81.336 E947.21014
G1 X122.020 Y81.687 E947.23152
G1 X122.453 Y81.973 E947.25310
G1 X122.620 Y82.048 E947.26071
G1 X122.688 Y135.431 E949.48012
G1 X122.733 Y151.322 E950.14079
G1 X122.690 Y169.793 E950.90873
G1 X122.692 Y171.172 E950.96606
G1 X122.726 Y181.899 E951.41204
G1 X122.632 Y217.177 E952.87873
G1 X122.620 Y222.952 E953.11883
G0 F12000 X122.695 Y223.466
;TYPE:WALL-OUTER
G1 F3600 X122.331 Y223.707 E953.13698
G1 X122.017 Y224.000 E953.15484
G1 X121.760 Y224.339 E953.17252
G1 X121.570 Y224.713 E953.18996
G1 X121.454 Y225.113 E953.20728
G1 X121.415 Y225.525 E953.22448
G1 X121.454 Y225.936 E953.24165
G1 X121.570 Y226.336 E953.25896
G1 X121.760 Y226.710 E953.27640
G1 X122.017 Y227.049 E953.29409
G1 X122.331 Y227.342 E953.31194
G1 X122.695 Y227.583 E953.33009
G1 X123.120 Y227.770 E953.34940
G1 X123.121 Y227.958 E953.35721
G1 X123.120 Y228.430 E953.37684
G1 X122.953 Y228.418 E953.38380
G1 X122.569 Y228.336 E953.40012
G1 X122.182 Y228.193 E953.41728
G1 X121.838 Y228.004 E953.43360
G1 X121.531 Y227.771 E953.44962
G1 X121.263 Y227.491 E953.46573
G1 X121.060 Y227.193 E953.48072
G1 X120.903 Y226.857 E953.49614
G1 X120.811 Y226.512 E953.51099
G1 X120.779 Y226.149 E953.52614
G1 X120.779 Y78.852 E959.65004
G1 X120.811 Y78.488 E959.66523
G1 X120.903 Y78.143 E959.68007
G1 X121.060 Y77.807 E959.69549
G1 X121.263 Y77.509 E959.71048
G1 X121.531 Y77.229 E959.72660
G1 X121.838 Y76.996 E959.74262
G1 X122.182 Y76.807 E959.75894
G1 X122.569 Y76.664 E959.77609
G1 X122.962 Y76.580 E959.79280
G1 X123.119 Y76.569 E959.79934
G1 X123.120 Y77.230 E959.82682
G1 X122.695 Y77.417 E959.84613
G1 X122.331 Y77.658 E959.86428
G1 X122.017 Y77.951 E959.88213
G1 X121.760 Y78.290 E959.89982
G1 X121.570 Y78.664 E959.91726
G1 X121.454 Y79.064 E959.93457
G1 X121.415 Y79.476 E959.95178
G1 X121.454 Y79.887 E959.96894
G1 X121.570 Y80.287 E959.98626
G1 X121.760 Y80.661 E960.00370
G1 X122.017 Y81.000 E960.02139
G1 X122.331 Y81.293 E960.03924
G1 X122.695 Y81.534 E960.05739
G1 X123.119 Y81.721 E960.07666
G1 X123.226 Y181.901 E964.24166
G1 X123.119 Y223.279 E965.96196
G1 X122.695 Y223.466 E965.98123
G0 F12000 X122.174 Y223.000
;TYPE:SKIN
G1 F3600 X121.453 Y222.750 E966.01118
G1 X122.444 Y222.250 E966.05234
G1 X121.453 Y221.750 E966.09351
G1 X122.444 Y221.250 E966.13467
G1 X121.453 Y220.750 E966.17584
G1 X122.444 Y220.250 E966.21700
G1 X121.453 Y219.750 E966.25816
G1 X122.444 Y219.250 E966.29933
G1 X121.453 Y218.750 E966.34049
G1 X122.444 Y218.250 E966.38166
G1 X121.453 Y217.750 E966.42282
G1 X122.444 Y217.250 E966.46398
G1 X121.453 Y216.750 E966.50515
G1 X122.444 Y216.250 E966.54631
G1 X121.453 Y215.750 E966.58748
G1 X122.444 Y215.250 E966.62864
G1 X121.453 Y214.750 E966.66980
G1 X122.444 Y214.250 E966.71097
G1 X121.453 Y213.750 E966.75213
G1 X122.444 Y213.250 E966.79330
G1 X121.453 Y212.750 E966.83446
G1 X122.444 Y212.250 E966.87562
G1 X121.453 Y211.750 E966.91679
G1 X122.444 Y211.250 E966.95795
G1 X121.453 Y210.750 E966.99912
G1 X122.444 Y210.250 E967.04028
G1 X121.453 Y209.750 E967.08145
G1 X122.444 Y209.250 E967.12261
G1 X121.453 Y208.750 E967.16377
G1 X122.444 Y208.250 E967.20494
G1 X121.453 Y207.750 E967.24610
G1 X122.444 Y207.250 E967.28727
G1 X121.453 Y206.750 E967.32843
G1 X122.444 Y206.250 E967.36959
G1 X121.453 Y205.750 E967.41076
G1 X122.444 Y205.250 E967.45192
G1 X121.453 Y204.750 E967.49309
G1 X122.444 Y204.250 E967.53425
G1 X121.453 Y203.750 E967.57541
G1 X122.444 Y203.250 E967.61658
G1 X121.453 Y202.750 E967.65774
G1 X122.444 Y202.250 E967.69891
G1 X121.453 Y201.750 E967.74007
G1 X122.444 Y201.250 E967.78123
G1 X121.453 Y200.750 E967.82240
G1 X122.444 Y200.250 E967.86356
G1 X121.453 Y199.750 E967.90473
G1 X122.444 Y199.250 E967.94589
G1 X121.453 Y198.750 E967.98706
G1 X122.444 Y198.250 E968.02822
G1 X121.453 Y197.750 E968.06938
G1 X122.444 Y197.250 E968.11055
G1 X121.453 Y196.750 E968.15171
G1 X122.444 Y196.250 E968.19288
G1 X121.453 Y195.750 E968.23404
G1 X122.444 Y195.250 E968.27520
G1 X121.453 Y194.750 E968.31637
G1 X122.444 Y194.250 E968.35753
G1 X121.453 Y193.750 E968.39870
G1 X122.444 Y193.250 E968.43986
G1 X121.453 Y192.750 E968.48102
G1 X122.444 Y192.250 E968.52219
G1 X121.453 Y191.750 E968.56335
G1 X122.444 Y191.250 E968.60452
G1 X121.453 Y190.750 E968.64568
G1 X122.444 Y190.250 E968.68684
G1 X121.453 Y189.750 E968.72801
G1 X122.444 Y189.250 E968.76917
G1 X121.453 Y188.750 E968.81034
G1 X122.444 Y188.250 E968.85150
G1 X121.453 Y187.750 E968.89266
G1 X122.444 Y187.250 E968.93383
G1 X121.453 Y186.750 E968.97499
G1 X122.444 Y186.250 E969.01616
G1 X121.453 Y185.750 E969.05732
G1 X122.444 Y185.250 E969.09849
G1 X121.453 Y184.750 E969.13965
G1 X122.444 Y184.250 E969.18081
G1 X121.453 Y183.750 E969.22198
G1 X122.444 Y183.250 E969.26314
G1 X121.453 Y182.750 E969.30431
G1 X122.444 Y182.250 E969.34547
G1 X121.453 Y181.750 E969.38663
G1 X122.444 Y181.250 E969.42780
G1 X121.453 Y180.750 E969.46896
G1 X122.444 Y180.250 E969.51013
G1 X121.453 Y179.750 E969.55129
G1 X122.444 Y179.250 E969.59245
G1 X121.453 Y178.750 E969.63362
G1 X122.444 Y178.250 E969.67478
G1 X121.453 Y177.750 E969.71595
G1 X122.444 Y177.250 E969.75711
G1 X121.453 Y176.750 E969.79827
G1 X122.444 Y176.250 E969.83944
G1 X121.453 Y175.750 E969.88060
G1 X122.444 Y175.250 E969.92177
G1 X121.453 Y174.750 E969.96293
G1 X122.444 Y174.250 E970.00410
G1 X121.453 Y173.750 E970.04526
G1 X122.444 Y173.250 E970.08642
G1 X121.453 Y172.750 E970.12759
G1 X122.444 Y172.250 E970.16875
G1 X121.453 Y171.750 E970.20992
G1 X122.444 Y171.250 E970.25108
G1 X121.453 Y170.750 E970.29224
G1 X122.444 Y170.250 E970.33341
G1 X121.453 Y169.750 E970.37457
G1 X122.444 Y169.250 E970.41574
G1 X121.453 Y168.750 E970.45690
G1 X122.444 Y168.250 E970.49806
G1 X121.453 Y167.750 E970.53923
G1 X122.444 Y167.250 E970.58039
G1 X121.453 Y166.750 E970.62156
G1 X122.444 Y166.250 E970.66272
G1 X121.453 Y165.750 E970.70388
G1 X122.444 Y165.250 E970.74505
G1 X121.453 Y164.750 E970.78621
G1 X122.444 Y164.250 E970.82738
G1 X121.453 Y163.750 E970.86854
G1 X122.444 Y163.250 E970.90971
G1 X121.453 Y162.750 E970.95087
G1 X122.444 Y162.250 E970.99203
G1 X121.453 Y161.750 E971.03320
G1 X122.444 Y161.250 E971.07436
G1 X121.453 Y160.750 E971.11553
G1 X122.444 Y160.250 E971.15669
G1 X121.453 Y159.750 E971.19785
G1 X122.444 Y159.250 E971.23902
G1 X121.453 Y158.750 E971.28018
G1 X122.444 Y158.250 E971.32135
G1 X121.453 Y157.750 E971.36251
G1 X122.444 Y157.250 E971.40367
G1 X121.453 Y156.750 E971.44484
G1 X122.444 Y156.250 E971.48600
G1 X121.453 Y155.750 E971.52717
G1 X122.444 Y155.250 E971.56833
G1 X121.453 Y154.750 E971.60949
G1 X122.444 Y154.250 E971.65066
G1 X121.453 Y153.750 E971.69182
G1 X122.444 Y153.250 E971.73299
G1 X121.453 Y152.750 E971.77415
G1 X122.444 Y152.250 E971.81532
G1 X121.453 Y151.750 E971.85648
G1 X122.444 Y151.250 E971.89764
G1 X121.453 Y150.750 E971.93881
G1 X122.444 Y150.250 E971.97997
G1 X121.453 Y149.750 E972.02114
G1 X122.444 Y149.250 E972.06230
G1 X121.453 Y148.750 E972.10346
G1 X122.444 Y148.250 E972.14463
G1 X121.453 Y147.750 E972.18579
G1 X122.444 Y147.250 E972.22696
G1 X121.453 Y146.750 E972.26812
G1 X122.444 Y146.250 E972.30928
G1 X121.453 Y145.750 E972.35045
G1 X122.444 Y145.250 E972.39161
G1 X121.453 Y144.750 E972.43278
G1 X122.444 Y144.250 E972.47394
G1 X121.453 Y143.750 E972.51510
G1 X122.444 Y143.250 E972.55627
G1 X121.453 Y142.750 E972.59743
G1 X122.444 Y142.250 E972.63860
G1 X121.453 Y141.750 E972.67976
G1 X122.444 Y141.250 E972.72093
G1 X121.453 Y140.750 E972.76209
G1 X122.444 Y140.250 E972.80325
G1 X121.453 Y139.750 E972.84442
G1 X122.444 Y139.250 E972.88558
G1 X121.453 Y138.750 E972.92675
G1 X122.444 Y138.250 E972.96791
G1 X121.453 Y137.750 E973.00907
G1 X122.444 Y137.250 E973.05024
G1 X121.453 Y136.750 E973.09140
G1 X122.444 Y136.250 E973.13257
G1 X121.453 Y135.750 E973.17373
G1 X122.444 Y135.250 E973.21489
G1 X121.453 Y134.750 E973.25606
G1 X122.444 Y134.250 E973.29722
G1 X121.453 Y133.750 E973.33839
G1 X122.444 Y133.250 E973.37955
G1 X121.453 Y132.750 E973.42071
G1 X122.444 Y132.250 E973.46188
G1 X121.453 Y131.750 E973.50304
G1 X122.444 Y131.250 E973.54421
G1 X121.453 Y130.750 E973.58537
G1 X122.444 Y130.250 E973.62654
G1 X121.453 Y129.750 E973.66770
G1 X122.444 Y129.250 E973.70886
G1 X121.453 Y128.750 E973.75003
G1 X122.444 Y128.250 E973.79119
G1 X121.453 Y127.750 E973.83236
G1 X122.444 Y127.250 E973.87352
G1 X121.453 Y126.750 E973.91468
G1 X122.444 Y126.250 E973.95585
G1 X121.453 Y125.750 E973.99701
G1 X122.444 Y125.250 E974.03818
G1 X121.453 Y124.750 E974.07934
G1 X122.444 Y124.250 E974.12050
G1 X121.453 Y123.750 E974.16167
G1 X122.444 Y123.250 E974.20283
G1 X121.453 Y122.750 E974.24400
G1 X122.444 Y122.250 E974.28516
G1 X121.453 Y121.750 E974.32632
G1 X122.444 Y121.250 E974.36749
G1 X121.453 Y120.750 E974.40865
G1 X122.444 Y120.250 E974.44982
G1 X121.453 Y119.750 E974.49098
G1 X122.444 Y119.250 E974.53215
G1 X121.453 Y118.750 E974.57331
G1 X122.444 Y118.250 E974.61447
G1 X121.453 Y117.750 E974.65564
G1 X122.444 Y117.250 E974.69680
G1 X121.453 Y116.750 E974.73797
G1 X122.444 Y116.250 E974.77913
G1 X121.453 Y115.750 E974.82029
G1 X122.444 Y115.250 E974.86146
G1 X121.453 Y114.750 E974.90262
G1 X122.444 Y114.250 E974.94379
G1 X121.453 Y113.750 E974.98495
G1 X122.444 Y113.250 E975.02611
G1 X121.453 Y112.750 E975.06728
G1 X122.444 Y112.250 E975.10844
G1 X121.453 Y111.750 E975.14961
G1 X122.444 Y111.250 E975.19077
G1 X121.453 Y110.750 E975.23193
G1 X122.444 Y110.250 E975.27310
G1 X121.453 Y109.750 E975.31426
G1 X122.444 Y109.250 E975.35543
G1 X121.453 Y108.750 E975.39659
G1 X122.444 Y108.250 E975.43776
G1 X121.453 Y107.750 E975.47892
G1 X122.444 Y107.250 E975.52008
G1 X121.453 Y106.750 E975.56125
G1 X122.444 Y106.250 E975.60241
G1 X121.453 Y105.750 E975.64358
G1 X122.444 Y105.250 E975.68474
G1 X121.453 Y104.750 E975.72590
G1 X122.444 Y104.250 E975.76707
G1 X121.453 Y103.750 E975.80823
G1 X122.444 Y103.250 E975.84940
G1 X121.453 Y102.750 E975.89056
G1 X122.444 Y102.250 E975.93172
G1 X121.453 Y101.750 E975.97289
G1 X122.444 Y101.250 E976.01405
G1 X121.453 Y100.750 E976.05522
G1 X122.444 Y100.250 E976.09638
G1 X121.453 Y99.750 E976.13754
G1 X122.444 Y99.250 E976.17871
G1 X121.453 Y98.750 E976.21987
G1 X122.444 Y98.250 E976.26104
G1 X121.453 Y97.750 E976.30220
G1 X122.444 Y97.250 E976.34337
G1 X121.453 Y96.750 E976.38453
G1 X122.444 Y96.250 E976.42569
G1 X121.453 Y95.750 E976.46686
G1 X122.444 Y95.250 E976.50802
G1 X121.453 Y94.750 E976.54919
G1 X122.444 Y94.250 E976.59035
G1 X121.453 Y93.750 E976.63151
G1 X122.444 Y93.250 E976.67268
G1 X121.453 Y92.750 E976.71384
G1 X122.444 Y92.250 E976.75501
G1 X121.453 Y91.750 E976.79617
G1 X122.444 Y91.250 E976.83733
G1 X121.453 Y90.750 E976.87850
G1 X122.444 Y90.250 E976.91966
G1 X121.453 Y89.750 E976.96083
G1 X122.444 Y89.250 E977.00199
G1 X121.453 Y88.750 E977.04315
G1 X122.444 Y88.250 E977.08432
G1 X121.453 Y87.750 E977.12548
G1 X122.444 Y87.250 E977.16665
G1 X121.453 Y86.750 E977.20781
G1 X122.444 Y86.250 E977.24897
G1 X121.453 Y85.750 E977.29014
G1 X122.444 Y85.250 E977.33130
G1 X121.453 Y84.750 E977.37247
G1 X122.444 Y84.250 E977.41363
G1 X121.453 Y83.750 E977.45480
G1 X122.444 Y83.250 E977.49596
G1 X121.453 Y82.750 E977.53712
G1 X122.311 Y82.250 E977.57825
G1 X121.453 Y82.000 E977.61540
G1 F2100 E977.21540
G0 F12000 X182.380 Y82.053
;TYPE:WALL-INNER
G1 F2100 E977.61540
G1 F3600 X182.794 Y81.819 E977.63517
G1 X183.175 Y81.519 E977.65533
G1 X183.520 Y81.138 E977.67670
G1 X183.721 Y80.818 E977.69241
G1 X183.721 Y224.182 E983.65279
G1 X183.520 Y223.862 E983.66851
G1 X183.175 Y223.481 E983.68988
G1 X182.769 Y223.161 E983.71137
G1 X182.380 Y222.948 E983.72981
G1 X182.305 Y166.479 E986.07752
G1 X182.272 Y154.687 E986.56777
G1 X182.264 Y152.868 E986.64340
G1 X182.348 Y110.423 E988.40806
G1 X182.380 Y82.053 E989.58755
G0 F12000 X182.108 Y81.632
;TYPE:WALL-OUTER
G1 F3600 X182.501 Y81.414 E989.60623
G1 X182.833 Y81.152 E989.62382
G1 X183.120 Y80.835 E989.64159
G1 X183.344 Y80.478 E989.65912
G1 X183.497 Y80.090 E989.67646
G1 X183.575 Y79.683 E989.69369
G1 X183.576 Y79.268 E989.71094
G1 X183.497 Y78.861 E989.72818
G1 X183.344 Y78.473 E989.74552
G1 X183.120 Y78.116 E989.76304
G1 X182.833 Y77.799 E989.78082
G1 X182.492 Y77.531 E989.79885
G1 X182.108 Y77.320 E989.81706
G1 X181.880 Y77.237 E989.82715
G1 X181.878 Y76.859 E989.84287
G1 X181.880 Y76.570 E989.85488
G1 X182.047 Y76.582 E989.86184
G1 X182.431 Y76.664 E989.87817
G1 X182.818 Y76.807 E989.89532
G1 X183.162 Y76.996 E989.91164
G1 X183.469 Y77.229 E989.92766
G1 X183.737 Y77.509 E989.94378
G1 X183.940 Y77.807 E989.95877
G1 X184.097 Y78.143 E989.97419
G1 X184.189 Y78.488 E989.98903
G1 X184.221 Y78.852 E990.00422
G1 X184.221 Y226.149 E996.12812
G1 X184.189 Y226.512 E996.14327
G1 X184.097 Y226.857 E996.15812
G1 X183.940 Y227.193 E996.17354
G1 X183.737 Y227.491 E996.18853
G1 X183.469 Y227.771 E996.20464
G1 X183.162 Y228.004 E996.22066
G1 X182.818 Y228.193 E996.23698
G1 X182.431 Y228.336 E996.25413
G1 X182.038 Y228.420 E996.27084
G1 X181.881 Y228.431 E996.27739
G1 X181.881 Y227.763 E996.30516
G1 X182.108 Y227.681 E996.31519
G1 X182.501 Y227.463 E996.33388
G1 X182.833 Y227.201 E996.35146
G1 X183.120 Y226.884 E996.36924
G1 X183.344 Y226.527 E996.38676
G1 X183.497 Y226.139 E996.40410
G1 X183.575 Y225.732 E996.42133
G1 X183.576 Y225.317 E996.43858
G1 X183.497 Y224.910 E996.45582
G1 X183.344 Y224.522 E996.47316
G1 X183.120 Y224.165 E996.49068
G1 X182.833 Y223.848 E996.50846
G1 X182.492 Y223.580 E996.52649
G1 X182.108 Y223.369 E996.54471
G1 X181.881 Y223.287 E996.55474
G1 X181.881 Y81.714 E1002.44066
G1 X182.108 Y81.632 E1002.45070
G0 F12000 X182.828 Y82.000
;TYPE:SKIN
G1 F3600 X183.545 Y82.250 E1002.48050
G1 X182.554 Y82.750 E1002.52166
G1 X183.545 Y83.250 E1002.56283
G1 X182.554 Y83.750 E1002.60399
G1 X183.545 Y84.250 E1002.64516
G1 X182.554 Y84.750 E1002.68632
G1 X183.545 Y85.250 E1002.72749
G1 X182.554 Y85.750 E1002.76865
G1 X183.545 Y86.250 E1002.80981
G1 X182.554 Y86.750 E1002.85098
G1 X183.545 Y87.250 E1002.89214
G1 X182.554 Y87.750 E1002.93331
G1 X183.545 Y88.250 E1002.97447
G1 X182.554 Y88.750 E1003.01563
G1 X183.545 Y89.250 E1003.05680
G1 X182.554 Y89.750 E1003.09796
G1 X183.545 Y90.250 E1003.13913
G1 X182.554 Y90.750 E1003.18029
G1 X183.545 Y91.250 E1003.22145
G1 X182.554 Y91.750 E1003.26262
G1 X183.545 Y92.250 E1003.30378
G1 X182.554 Y92.750 E1003.34495
G1 X183.545 Y93.250 E1003.38611
G1 X182.554 Y93.750 E1003.42727
G1 X183.545 Y94.250 E1003.46844
G1 X182.554 Y94.750 E1003.50960
G1 X183.545 Y95.250 E1003.55077
G1 X182.554 Y95.750 E1003.59193
G1 X183.545 Y96.250 E1003.63310
G1 X182.554 Y96.750 E1003.67426
G1 X183.545 Y97.250 E1003.71542
G1 X182.554 Y97.750 E1003.75659
G1 X183.545 Y98.250 E1003.79775
G1 X182.554 Y98.750 E1003.83892
G1 X183.545 Y99.250 E1003.88008
G1 X182.554 Y99.750 E1003.92124
G1 X183.545 Y100.250 E1003.96241
G1 X182.554 Y100.750 E1004.00357
G1 X183.545 Y101.250 E1004.04474
G1 X182.554 Y101.750 E1004.08590
G1 X183.545 Y102.250 E1004.12706
G1 X182.554 Y102.750 E1004.16823
G1 X183.545 Y103.250 E1004.20939
G1 X182.554 Y103.750 E1004.25056
G1 X183.545 Y104.250 E1004.29172
G1 X182.554 Y104.750 E1004.33288
G1 X183.545 Y105.250 E1004.37405
G1 X182.554 Y105.750 E1004.41521
G1 X183.545 Y106.250 E1004.45638
G1 X182.554 Y106.750 E1004.49754
G1 X183.545 Y107.250 E1004.53871
G1 X182.554 Y107.750 E1004.57987
G1 X183.545 Y108.250 E1004.62103
G1 X182.554 Y108.750 E1004.66220
G1 X183.545 Y109.250 E1004.70336
G1 X182.554 Y109.750 E1004.74453
G1 X183.545 Y110.250 E1004.78569
G1 X182.554 Y110.750 E1004.82685
G1 X183.545 Y111.250 E1004.86802
G1 X182.554 Y111.750 E1004.90918
G1 X183.545 Y112.250 E1004.95035
G1 X182.554 Y112.750 E1004.99151
G1 X183.545 Y113.250 E1005.03267
G1 X182.554 Y113.750 E1005.07384
G1 X183.545 Y114.250 E1005.11500
G1 X182.554 Y114.750 E1005.15617
G1 X183.545 Y115.250 E1005.19733
G1 X182.554 Y115.750 E1005.23849
G1 X183.545 Y116.250 E1005.27966
G1 X182.554 Y116.750 E1005.32082
G1 X183.545 Y117.250 E1005.36199
G1 X182.554 Y117.750 E1005.40315
G1 X183.545 Y118.250 E1005.44432
G1 X182.554 Y118.750 E1005.48548
G1 X183.545 Y119.250 E1005.52664
G1 X182.554 Y119.750 E1005.56781
G1 X183.545 Y120.250 E1005.60897
G1 X182.554 Y120.750 E1005.65014
G1 X183.545 Y121.250 E1005.69130
G1 X182.554 Y121.750 E1005.73246
G1 X183.545 Y122.250 E1005.77363
G1 X182.554 Y122.750 E1005.81479
G1 X183.545 Y123.250 E1005.85596
G1 X182.554 Y123.750 E1005.89712
G1 X183.545 Y124.250 E1005.93828
G1 X182.554 Y124.750 E1005.97945
G1 X183.545 Y125.250 E1006.02061
G1 X182.554 Y125.750 E1006.06178
G1 X183.545 Y126.250 E1006.10294
G1 X182.554 Y126.750 E1006.14410
G1 X183.545 Y127.250 E1006.18527
G1 X182.554 Y127.750 E1006.22643
G1 X183.545 Y128.250 E1006.26760
G1 X182.554 Y128.750 E1006.30876
G1 X183.545 Y129.250 E1006.34993
G1 X182.554 Y129.750 E1006.39109
G1 X183.545 Y130.250 E1006.43225
G1 X182.554 Y130.750 E1006.47342
G1 X183.545 Y131.250 E1006.51458
G1 X182.554 Y131.750 E1006.55575
G1 X183.545 Y132.250 E1006.59691
G1 X182.554 Y132.750 E1006.63807
G1 X183.545 Y133.250 E1006.67924
G1 X182.554 Y133.750 E1006.72040
G1 X183.545 Y134.250 E1006.76157
G1 X182.554 Y134.750 E1006.80273
G1 X183.545 Y135.250 E1006.84389
G1 X182.554 Y135.750 E1006.88506
G1 X183.545 Y136.250 E1006.92622
G1 X182.554 Y136.750 E1006.96739
G1 X183.545 Y137.250 E1007.00855
G1 X182.554 Y137.750 E1007.04971
G1 X183.545 Y138.250 E1007.09088
G1 X182.554 Y138.750 E1007.13204
G1 X183.545 Y139.250 E1007.17321
G1 X182.554 Y139.750 E1007.21437
G1 X183.545 Y140.250 E1007.25554
G1 X182.554 Y140.750 E1007.29670
G1 X183.545 Y141.250 E1007.33786
G1 X182.554 Y141.750 E1007.37903
G1 X183.545 Y142.250 E1007.42019
G1 X182.554 Y142.750 E1007.46136
G1 X183.545 Y143.250 E1007.50252
G1 X182.554 Y143.750 E1007.54368
G1 X183.545 Y144.250 E1007.58485
G1 X182.554 Y144.750 E1007.62601
G1 X183.545 Y145.250 E1007.66718
G1 X182.554 Y145.750 E1007.70834
G1 X183.545 Y146.250 E1007.74950
G1 X182.554 Y146.750 E1007.79067
G1 X183.545 Y147.250 E1007.83183
G1 X182.554 Y147.750 E1007.87300
G1 X183.545 Y148.250 E1007.91416
G1 X182.554 Y148.750 E1007.95532
G1 X183.545 Y149.250 E1007.99649
G1 X182.554 Y149.750 E1008.03765
G1 X183.545 Y150.250 E1008.07882
G1 X182.554 Y150.750 E1008.11998
G1 X183.545 Y151.250 E1008.16115
G1 X182.554 Y151.750 E1008.20231
G1 X183.545 Y152.250 E1008.24347
G1 X182.554 Y152.750 E1008.28464
G1 X183.545 Y153.250 E1008.32580
G1 X182.554 Y153.750 E1008.36697
G1 X183.545 Y154.250 E1008.40813
G1 X182.554 Y154.750 E1008.44929
G1 X183.545 Y155.250 E1008.49046
G1 X182.554 Y155.750 E1008.53162
G1 X183.545 Y156.250 E1008.57279
G1 X182.554 Y156.750 E1008.61395
G1 X183.545 Y157.250 E1008.65511
G1 X182.554 Y157.750 E1008.69628
G1 X183.545 Y158.250 E1008.73744
G1 X182.554 Y158.750 E1008.77861
G1 X183.545 Y159.250 E1008.81977
G1 X182.554 Y159.750 E1008.86093
G1 X183.545 Y160.250 E1008.90210
G1 X182.554 Y160.750 E1008.94326
G1 X183.545 Y161.250 E1008.98443
G1 X182.554 Y161.750 E1009.02559
G1 X183.545 Y162.250 E1009.06676
G1 X182.554 Y162.750 E1009.10792
G1 X183.545 Y163.250 E1009.14908
G1 X182.554 Y163.750 E1009.19025
G1 X183.545 Y164.250 E1009.23141
G1 X182.554 Y164.750 E1009.27258
G1 X183.545 Y165.250 E1009.31374
G1 X182.554 Y165.750 E1009.35490
G1 X183.545 Y166.250 E1009.39607
G1 X182.554 Y166.750 E1009.43723
G1 X183.545 Y167.250 E1009.47840
G1 X182.554 Y167.750 E1009.51956
G1 X183.545 Y168.250 E1009.56072
G1 X182.554 Y168.750 E1009.60189
G1 X183.545 Y169.250 E1009.64305
G1 X182.554 Y169.750 E1009.68422
G1 X183.545 Y170.250 E1009.72538
G1 X182.554 Y170.750 E1009.76654
G1 X183.545 Y171.250 E1009.80771
G1 X182.554 Y171.750 E1009.84887
G1 X183.545 Y172.250 E1009.89004
G1 X182.554 Y172.750 E1009.93120
G1 X183.545 Y173.250 E1009.97236
G1 X182.554 Y173.750 E1010.01353
G1 X183.545 Y174.250 E1010.05469
G1 X182.554 Y174.750 E1010.09586
G1 X183.545 Y175.250 E1010.13702
G1 X182.554 Y175.750 E1010.17819
G1 X183.545 Y176.250 E1010.21935
G1 X182.554 Y176.750 E1010.26051
G1 X183.545 Y177.250 E1010.30168
G1 X182.554 Y177.750 E1010.34284
G1 X183.545 Y178.250 E1010.38401
G1 X182.554 Y178.750 E1010.42517
G1 X183.545 Y179.250 E1010.46633
G1 X182.554 Y179.750 E1010.50750
G1 X183.545 Y180.250 E1010.54866
G1 X182.554 Y180.750 E1010.58983
G1 X183.545 Y181.250 E1010.63099
G1 X182.554 Y181.750 E1010.67215
G1 X183.545 Y182.250 E1010.71332
G1 X182.554 Y182.750 E1010.75448
G1 X183.545 Y183.250 E1010.79565
G1 X182.554 Y183.750 E1010.83681
G1 X183.545 Y184.250 E1010.87797
G1 X182.554 Y184.750 E1010.91914
G1 X183.545 Y185.250 E1010.96030
G1 X182.554 Y185.750 E1011.00147
G1 X183.545 Y186.250 E1011.04263
G1 X182.554 Y186.750 E1011.08380
G1 X183.545 Y187.250 E1011.12496
G1 X182.554 Y187.750 E1011.16612
G1 X183.545 Y188.250 E1011.20729
G1 X182.554 Y188.750 E1011.24845
G1 X183.545 Y189.250 E1011.28962
G1 X182.554 Y189.750 E1011.33078
G1 X183.545 Y190.250 E1011.37194
G1 X182.554 Y190.750 E1011.41311
G1 X183.545 Y191.250 E1011.45427
G1 X182.554 Y191.750 E1011.49544
G1 X183.545 Y192.250 E1011.53660
G1 X182.554 Y192.750 E1011.57776
G1 X183.545 Y193.250 E1011.61893
G1 X182.554 Y193.750 E1011.66009
G1 X183.545 Y194.250 E1011.70126
G1 X182.554 Y194.750 E1011.74242
G1 X183.545 Y195.250 E1011.78358
G1 X182.554 Y195.750 E1011.82475
G1 X183.545 Y196.250 E1011.86591
G1 X182.554 Y196.750 E1011.90708
G1 X183.545 Y197.250 E1011.94824
G1 X182.554 Y197.750 E1011.98941
G1 X183.545 Y198.250 E1012.03057
G1 X182.554 Y198.750 E1012.07173
G1 X183.545 Y199.250 E1012.11290
G1 X182.554 Y199.750 E1012.15406
G1 X183.545 Y200.250 E1012.19523
G1 X182.554 Y200.750 E1012.23639
G1 X183.545 Y201.250 E1012.27755
G1 X182.554 Y201.750 E1012.31872
G1 X183.545 Y202.250 E1012.35988
G1 X182.554 Y202.750 E1012.40105
G1 X183.545 Y203.250 E1012.44221
G1 X182.554 Y203.750 E1012.48337
G1 X183.545 Y204.250 E1012.52454
G1 X182.554 Y204.750 E1012.56570
G1 X183.545 Y205.250 E1012.60687
G1 X182.554 Y205.750 E1012.64803
G1 X183.545 Y206.250 E1012.68919
G1 X182.554 Y206.750 E1012.73036
G1 X183.545 Y207.250 E1012.77152
G1 X182.554 Y207.750 E1012.81269
G1 X183.545 Y208.250 E1012.85385
G1 X182.554 Y208.750 E1012.89502
G1 X183.545 Y209.250 E1012.93618
G1 X182.554 Y209.750 E1012.97734
G1 X183.545 Y210.250 E1013.01851
G1 X182.554 Y210.750 E1013.05967
G1 X183.545 Y211.250 E1013.10084
G1 X182.554 Y211.750 E1013.14200
G1 X183.545 Y212.250 E1013.18316
G1 X182.554 Y212.750 E1013.22433
G1 X183.545 Y213.250 E1013.26549
G1 X182.554 Y213.750 E1013.30666
G1 X183.545 Y214.250 E1013.34782
G1 X182.554 Y214.750 E1013.38898
G1 X183.545 Y215.250 E1013.43015
G1 X182.554 Y215.750 E1013.47131
G1 X183.545 Y216.250 E1013.51248
G1 X182.554 Y216.750 E1013.55364
G1 X183.545 Y217.250 E1013.59480
G1 X182.554 Y217.750 E1013.63597
G1 X183.545 Y218.250 E1013.67713
G1 X182.554 Y218.750 E1013.71830
G1 X183.545 Y219.250 E1013.75946
G1 X182.554 Y219.750 E1013.80063
G1 X183.545 Y220.250 E1013.84179
G1 X182.554 Y220.750 E1013.88295
G1 X183.545 Y221.250 E1013.92412
G1 X182.554 Y221.750 E1013.96528
G1 X183.545 Y222.250 E1014.00645
G1 X182.696 Y222.750 E1014.04766
G1 X183.545 Y223.000 E1014.08445
G1 F2100 E1013.68445
G0 F12000 X180.000 Y224.624
;TYPE:SUPPORT
G1 F2100 E1014.08445
G1 F3600 X180.000 Y80.178 E1020.08982
G1 F2100 E1019.68982
G0 F12000 X180.000 Y78.623
G1 F2100 E1020.08982
G1 F3600 X180.000 Y75.826 E1020.20610
G1 F2100 E1019.80610
G0 F12000 X176.000 Y75.826
G1 F2100 E1020.20610
G1 F3600 X176.000 Y229.176 E1026.58166
G1 F2100 E1026.18166
G0 F12000 X172.000 Y229.176
G1 F2100 E1026.58166
G1 F3600 X172.000 Y155.158 E1029.65897
G1 F2100 E1029.25897
G0 F12000 X168.000 Y153.980
G1 F2100 E1029.65897
G1 F3600 X168.000 Y229.176 E1032.78525
G1 F2100 E1032.38525
G0 F12000 X164.000 Y229.176
G1 F2100 E1032.78525
G1 F3600 X164.000 Y75.826 E1039.16081
G1 F2100 E1038.76081
G0 F12000 X160.000 Y75.826
G1 F2100 E1039.16081
G1 F3600 X160.000 Y229.176 E1045.53636
G1 F2100 E1045.13636
G0 F12000 X156.000 Y229.176
G1 F2100 E1045.53636
G1 F3600 X156.000 Y154.331 E1048.64805
G1 F2100 E1048.24805
G0 F12000 X156.000 Y150.671
G1 F2100 E1048.64805
G1 F3600 X156.000 Y103.531 E1050.60790
G1 F2100 E1050.20790
G0 F12000 X152.000 Y104.210
G1 F2100 E1050.60790
G1 F3600 X152.000 Y149.794 E1052.50307
G1 F2100 E1052.10307
G0 F12000 X152.000 Y155.010
G1 F2100 E1052.50307
G1 F3600 X152.000 Y229.176 E1055.58653
G1 F2100 E1055.18653
G0 F12000 X148.000 Y229.176
G1 F2100 E1055.58653
G1 F3600 X148.000 Y75.826 E1061.96208
G1 F2100 E1061.56208
G0 F12000 X144.000 Y75.826
G1 F2100 E1061.96208
G1 F3600 X144.000 Y96.116 E1062.80564
G0 F12000 X144.000 Y96.952
G1 F3600 X144.000 Y229.176 E1068.30288
G1 F2100 E1067.90288
G0 F12000 X140.000 Y229.176
G1 F2100 E1068.30288
G1 F3600 X140.000 Y96.921 E1073.80140
G0 F12000 X140.000 Y96.131
G1 F3600 X140.000 Y75.826 E1074.64559
G1 F2100 E1074.24559
G0 F12000 X152.000 Y75.826
G1 F2100 E1074.64559
G1 F3600 X152.000 Y98.994 E1075.60880
G1 F2100 E1075.20880
G0 F12000 X156.000 Y99.871
G1 F2100 E1075.60880
G1 F3600 X156.000 Y75.826 E1076.60847
G1 F2100 E1076.20847
G0 F12000 X168.000 Y75.826
G1 F2100 E1076.60847
G1 F3600 X168.000 Y100.023 E1077.61447
G1 F2100 E1077.21447
G0 F12000 X168.000 Y103.180
G1 F2100 E1077.61447
G1 F3600 X168.000 Y150.823 E1079.59523
G1 F2100 E1079.19523
G0 F12000 X172.000 Y149.694
G1 F2100 E1079.59523
G1 F3600 X172.000 Y104.358 E1081.48009
G1 F2100 E1081.08009
G0 F12000 X172.000 Y98.893
G1 F2100 E1081.48009
G1 F3600 X172.000 Y75.826 E1082.43910
G1 F2100 E1082.03910
G0 F12000 X136.000 Y75.826
G1 F2100 E1082.43910
G1 F3600 X136.000 Y96.147 E1083.28395
G0 F12000 X136.000 Y96.889
G1 F3600 X136.000 Y229.176 E1088.78380
G1 F2100 E1088.38380
G0 F12000 X132.000 Y229.176
G1 F2100 E1088.78380
G1 F3600 X132.000 Y96.858 E1094.28495
G0 F12000 X132.000 Y96.162
G1 F3600 X132.000 Y75.826 E1095.13042
G1 F2100 E1094.73042
G0 F12000 X128.000 Y75.826
G1 F2100 E1095.13042
G1 F3600 X128.000 Y229.176 E1101.50597
G1 F2100 E1101.10597
G0 F12000 X124.000 Y227.472
G1 F2100 E1101.50597
G1 F3600 X124.000 Y227.130 E1101.52019
G0 F12000 X124.000 Y223.672
G1 F3600 X124.000 Y81.130 E1107.44640
G1 F2100 E1107.04640
G0 F12000 X180.000 Y226.179
G1 F2100 E1107.44640
G1 F3600 X180.000 Y229.176 E1107.57100
;LAYER:6
M106 S63
G1 F2100 E1107.17100
G0 F12000 X123.060 Y222.749 Z1.400
;TYPE:WALL-INNER
G1 F2100 E1107.57100
G1 F3600 X122.828 Y222.813 E1107.58100
G1 X122.352 Y223.027 E1107.60270
G1 X121.920 Y223.313 E1107.62424
G1 X121.543 Y223.663 E1107.64563
G1 X121.233 Y224.074 E1107.66703
G1 X121.178 Y224.183 E1107.67211
G1 X121.178 Y80.817 E1113.63257
G1 X121.233 Y80.926 E1113.63765
G1 X121.543 Y81.337 E1113.65905
G1 X121.920 Y81.687 E1113.68044
G1 X122.352 Y81.973 E1113.70198
G1 X122.828 Y82.187 E1113.72368
G1 X123.060 Y82.251 E1113.73368
G1 X123.133 Y125.825 E1115.54528
G1 X123.169 Y137.715 E1116.03961
G1 X123.135 Y152.644 E1116.66029
G1 X123.138 Y154.447 E1116.73525
G1 X123.184 Y168.317 E1117.31190
G1 X123.156 Y176.629 E1117.65748
G1 X123.060 Y222.749 E1119.57493
G0 F12000 X123.426 Y223.168
;TYPE:WALL-OUTER
G1 F3600 X122.997 Y223.285 E1119.59341
G1 X122.594 Y223.466 E1119.61178
G1 X122.231 Y223.707 E1119.62990
G1 X121.916 Y224.000 E1119.64778
G1 X121.659 Y224.339 E1119.66547
G1 X121.471 Y224.713 E1119.68287
G1 X121.353 Y225.113 E1119.70021
G1 X121.314 Y225.525 E1119.71742
G1 X121.353 Y225.937 E1119.73462
G1 X121.471 Y226.336 E1119.75192
G1 X121.659 Y226.710 E1119.76932
G1 X121.916 Y227.049 E1119.78701
G1 X122.231 Y227.342 E1119.80490
G1 X122.594 Y227.583 E1119.82301
G1 X122.997 Y227.764 E1119.84138
G1 X123.426 Y227.881 E1119.85986
G1 X123.562 Y227.896 E1119.86555
G1 X123.575 Y228.449 E1119.88855
G1 X123.275 Y228.449 E1119.90102
G1 X122.861 Y228.420 E1119.91828
G1 X122.468 Y228.336 E1119.93499
G1 X122.081 Y228.193 E1119.95214
G1 X121.737 Y228.004 E1119.96846
G1 X121.427 Y227.769 E1119.98463
G1 X121.168 Y227.497 E1120.00024
G1 X120.956 Y227.188 E1120.01582
G1 X120.802 Y226.856 E1120.03104
G1 X120.710 Y226.515 E1120.04572
G1 X120.678 Y226.149 E1120.06100
G1 X120.678 Y78.852 E1126.18490
G1 X120.710 Y78.485 E1126.20021
G1 X120.802 Y78.144 E1126.21490
G1 X120.956 Y77.812 E1126.23011
G1 X121.168 Y77.503 E1126.24569
G1 X121.427 Y77.231 E1126.26131
G1 X121.737 Y76.996 E1126.27748
G1 X122.081 Y76.807 E1126.29380
G1 X122.468 Y76.664 E1126.31095
G1 X122.861 Y76.580 E1126.32766
G1 X123.275 Y76.551 E1126.34491
G1 X123.577 Y76.551 E1126.35747
G1 X123.560 Y77.103 E1126.38043
G1 X123.425 Y77.119 E1126.38608
G1 X122.997 Y77.236 E1126.40453
G1 X122.594 Y77.417 E1126.42289
G1 X122.231 Y77.658 E1126.44101
G1 X121.916 Y77.951 E1126.45890
G1 X121.659 Y78.290 E1126.47658
G1 X121.471 Y78.664 E1126.49399
G1 X121.353 Y79.064 E1126.51132
G1 X121.314 Y79.476 E1126.52853
G1 X121.353 Y79.888 E1126.54573
G1 X121.471 Y80.287 E1126.56303
G1 X121.659 Y80.661 E1126.58044
G1 X121.916 Y81.000 E1126.59812
G1 X122.231 Y81.293 E1126.61601
G1 X122.594 Y81.534 E1126.63412
G1 X122.997 Y81.715 E1126.65249
G1 X123.426 Y81.832 E1126.67098
G1 X123.559 Y81.847 E1126.67654
G1 X123.684 Y168.319 E1130.27163
G1 X123.560 Y223.153 E1132.55137
G1 X123.426 Y223.168 E1132.55698
G1 F2100 E1132.15698
G0 F12000 X121.927 Y216.436
;TYPE:FILL
G1 F2100 E1132.55698
G1 F3600 X121.351 Y216.104 E1132.58462
G1 F2100 E1132.18462
G0 F12000 X121.353 Y213.393
G1 F2100 E1132.58462
G1 F3600 X121.927 Y213.062 E1132.61217
G1 F2100 E1132.21217
G0 F12000 X121.927 Y205.118
G1 F2100 E1132.61217
G1 F3600 X121.352 Y204.786 E1132.63977
G1 F2100 E1132.23977
G0 F12000 X121.352 Y202.075
G1 F2100 E1132.63977
G1 F3600 X121.926 Y201.744 E1132.66732
G1 F2100 E1132.26732
G0 F12000 X121.926 Y193.799
G1 F2100 E1132.66732
G1 F3600 X121.352 Y193.467 E1132.69489
G1 F2100 E1132.29489
G0 F12000 X121.353 Y190.756
G1 F2100 E1132.69489
G1 F3600 X121.925 Y190.426 E1132.72234
G1 F2100 E1132.32234
G0 F12000 X121.925 Y182.480
G1 F2100 E1132.72234
G1 F3600 X121.352 Y182.149 E1132.74985
G1 F2100 E1132.34985
G0 F12000 X121.353 Y179.438
G1 F2100 E1132.74985
G1 F3600 X121.925 Y179.108 E1132.77731
G1 F2100 E1132.37731
G0 F12000 X121.924 Y171.161
G1 F2100 E1132.77731
G1 F3600 X121.351 Y170.830 E1132.80482
G1 F2100 E1132.40482
G0 F12000 X121.353 Y168.120
G1 F2100 E1132.80482
G1 F3600 X121.924 Y167.790 E1132.83224
G1 F2100 E1132.43224
G0 F12000 X121.925 Y159.843
G1 F2100 E1132.83224
G1 F3600 X121.351 Y159.512 E1132.85979
G1 F2100 E1132.45979
G0 F12000 X121.353 Y156.801
G1 F2100 E1132.85979
G1 F3600 X121.923 Y156.472 E1132.88715
G1 F2100 E1132.48715
G0 F12000 X121.924 Y148.524
G1 F2100 E1132.88715
G1 F3600 X121.351 Y148.194 E1132.91464
G1 F2100 E1132.51464
G0 F12000 X121.353 Y145.483
G1 F2100 E1132.91464
G1 F3600 X121.922 Y145.154 E1132.94197
G1 F2100 E1132.54197
G0 F12000 X121.923 Y137.205
G1 F2100 E1132.94197
G1 F3600 X121.352 Y136.875 E1132.96938
G1 F2100 E1132.56938
G0 F12000 X121.352 Y134.165
G1 F2100 E1132.96938
G1 F3600 X121.921 Y133.836 E1132.99671
G1 F2100 E1132.59671
G0 F12000 X121.922 Y125.887
G1 F2100 E1132.99671
G1 F3600 X121.352 Y125.557 E1133.02409
G1 F2100 E1132.62409
G0 F12000 X121.352 Y122.847
G1 F2100 E1133.02409
G1 F3600 X121.921 Y122.518 E1133.05142
G1 F2100 E1132.65142
G0 F12000 X121.922 Y114.568
G1 F2100 E1133.05142
G1 F3600 X121.352 Y114.239 E1133.07878
G1 F2100 E1132.67878
G0 F12000 X121.352 Y111.528
G1 F2100 E1133.07878
G1 F3600 X121.920 Y111.200 E1133.10605
G1 F2100 E1132.70605
G0 F12000 X121.921 Y103.249
G1 F2100 E1133.10605
G1 F3600 X121.351 Y102.920 E1133.13341
G1 F2100 E1132.73341
G0 F12000 X121.352 Y100.210
G1 F2100 E1133.13341
G1 F3600 X121.919 Y99.882 E1133.16065
G1 F2100 E1132.76065
G0 F12000 X121.920 Y91.930
G1 F2100 E1133.16065
G1 F3600 X121.351 Y91.602 E1133.18795
G1 F2100 E1132.78795
G0 F12000 X121.352 Y88.892
G1 F2100 E1133.18795
G1 F3600 X121.919 Y88.564 E1133.21518
G1 F2100 E1132.81518
G0 F12000 X122.500 Y82.232
;TYPE:SKIN
G1 F2100 E1133.21518
G1 F3600 X122.500 Y222.769 E1139.05803
G0 F12000 X122.000 Y223.051
G1 F3600 X122.000 Y81.950 E1144.92433
G1 F2100 E1144.52433
G0 F12000 X181.939 Y82.259
;TYPE:WALL-INNER
G1 F2100 E1144.92433
G1 F3600 X182.416 Y82.089 E1144.94539
G1 X182.870 Y81.839 E1144.96693
G1 X183.277 Y81.519 E1144.98846
G1 X183.620 Y81.138 E1145.00977
G1 X183.822 Y80.818 E1145.02550
G1 X183.822 Y224.182 E1150.98589
G1 X183.620 Y223.862 E1151.00162
G1 X183.277 Y223.481 E1151.02293
G1 X182.870 Y223.161 E1151.04446
G1 X182.416 Y222.911 E1151.06601
G1 X181.939 Y222.740 E1151.08707
G1 X181.860 Y176.347 E1153.01587
G1 X181.836 Y168.478 E1153.34303
G1 X181.826 Y166.327 E1153.43246
G1 X181.895 Y131.823 E1154.86697
G1 X181.894 Y130.622 E1154.91690
G1 X181.939 Y82.259 E1156.92760
G0 F12000 X181.791 Y81.782
;TYPE:WALL-OUTER
G1 F3600 X182.209 Y81.632 E1156.94607
G1 X182.593 Y81.420 E1156.96430
G1 X182.934 Y81.152 E1156.98233
G1 X183.220 Y80.835 E1157.00009
G1 X183.445 Y80.478 E1157.01763
G1 X183.598 Y80.090 E1157.03497
G1 X183.676 Y79.683 E1157.05220
G1 X183.677 Y79.268 E1157.06945
G1 X183.598 Y78.861 E1157.08669
G1 X183.445 Y78.473 E1157.10403
G1 X183.220 Y78.116 E1157.12157
G1 X182.934 Y77.799 E1157.13932
G1 X182.593 Y77.531 E1157.15736
G1 X182.209 Y77.319 E1157.17559
G1 X181.791 Y77.169 E1157.19406
G1 X181.438 Y77.101 E1157.20900
G1 X181.424 Y76.551 E1157.23188
G1 X181.725 Y76.551 E1157.24439
G1 X182.139 Y76.580 E1157.26164
G1 X182.532 Y76.664 E1157.27835
G1 X182.919 Y76.807 E1157.29550
G1 X183.263 Y76.996 E1157.31182
G1 X183.573 Y77.231 E1157.32800
G1 X183.832 Y77.503 E1157.34361
G1 X184.044 Y77.812 E1157.35919
G1 X184.198 Y78.144 E1157.37441
G1 X184.290 Y78.485 E1157.38909
G1 X184.322 Y78.852 E1157.40441
G1 X184.322 Y226.149 E1163.52830
G1 X184.290 Y226.515 E1163.54358
G1 X184.198 Y226.856 E1163.55826
G1 X184.044 Y227.188 E1163.57348
G1 X183.832 Y227.497 E1163.58906
G1 X183.573 Y227.769 E1163.60467
G1 X183.263 Y228.004 E1163.62085
G1 X182.919 Y228.193 E1163.63716
G1 X182.532 Y228.336 E1163.65432
G1 X182.139 Y228.420 E1163.67102
G1 X181.725 Y228.449 E1163.68828
G1 X181.421 Y228.449 E1163.70092
G1 X181.439 Y227.899 E1163.72380
G1 X181.791 Y227.831 E1163.73870
G1 X182.209 Y227.681 E1163.75716
G1 X182.593 Y227.469 E1163.77540
G1 X182.934 Y227.201 E1163.79343
G1 X183.220 Y226.884 E1163.81118
G1 X183.445 Y226.527 E1163.82873
G1 X183.598 Y226.139 E1163.84607
G1 X183.676 Y225.732 E1163.86330
G1 X183.677 Y225.317 E1163.88055
G1 X183.598 Y224.910 E1163.89779
G1 X183.445 Y224.522 E1163.91513
G1 X183.220 Y224.165 E1163.93267
G1 X182.934 Y223.848 E1163.95042
G1 X182.593 Y223.580 E1163.96845
G1 X182.209 Y223.368 E1163.98669
G1 X181.791 Y223.218 E1164.00515
G1 X181.440 Y223.151 E1164.02001
G1 X181.440 Y81.849 E1169.89466
G1 X181.791 Y81.782 E1169.90952
G1 F2100 E1169.50952
G0 F12000 X183.644 Y88.812
;TYPE:FILL
G1 F2100 E1169.90952
G1 F3600 X183.074 Y89.141 E1169.93688
G1 F2100 E1169.53688
G0 F12000 X183.073 Y91.355
G1 F2100 E1169.93688
G1 F3600 X183.646 Y91.686 E1169.96439
G1 F2100 E1169.56439
G0 F12000 X183.644 Y100.130
G1 F2100 E1169.96439
G1 F3600 X183.074 Y100.459 E1169.99176
G1 F2100 E1169.59176
G0 F12000 X183.073 Y102.673
G1 F2100 E1169.99176
G1 F3600 X183.646 Y103.004 E1170.01927
G1 F2100 E1169.61927
G0 F12000 X183.645 Y111.448
G1 F2100 E1170.01927
G1 F3600 X183.074 Y111.778 E1170.04669
G1 F2100 E1169.64669
G0 F12000 X183.074 Y113.992
G1 F2100 E1170.04669
G1 F3600 X183.646 Y114.322 E1170.07414
G1 F2100 E1169.67414
G0 F12000 X183.645 Y122.767
G1 F2100 E1170.07414
G1 F3600 X183.074 Y123.096 E1170.10154
G1 F2100 E1169.70154
G0 F12000 X183.074 Y125.310
G1 F2100 E1170.10154
G1 F3600 X183.646 Y125.640 E1170.12899
G1 F2100 E1169.72899
G0 F12000 X183.645 Y134.085
G1 F2100 E1170.12899
G1 F3600 X183.074 Y134.414 E1170.15639
G1 F2100 E1169.75639
G0 F12000 X183.073 Y136.628
G1 F2100 E1170.15639
G1 F3600 X183.646 Y136.959 E1170.18390
G1 F2100 E1169.78390
G0 F12000 X183.645 Y145.403
G1 F2100 E1170.18390
G1 F3600 X183.074 Y145.733 E1170.21132
G1 F2100 E1169.81132
G0 F12000 X183.074 Y147.947
G1 F2100 E1170.21132
G1 F3600 X183.647 Y148.278 E1170.23883
G1 F2100 E1169.83883
G0 F12000 X183.644 Y156.722
G1 F2100 E1170.23883
G1 F3600 X183.075 Y157.051 E1170.26616
G1 F2100 E1169.86616
G0 F12000 X183.074 Y159.265
G1 F2100 E1170.26616
G1 F3600 X183.646 Y159.596 E1170.29364
G1 F2100 E1169.89364
G0 F12000 X183.645 Y168.040
G1 F2100 E1170.29364
G1 F3600 X183.075 Y168.369 E1170.32100
G1 F2100 E1169.92100
G0 F12000 X183.075 Y170.584
G1 F2100 E1170.32100
G1 F3600 X183.646 Y170.914 E1170.34842
G1 F2100 E1169.94842
G0 F12000 X183.645 Y179.358
G1 F2100 E1170.34842
G1 F3600 X183.075 Y179.687 E1170.37578
G1 F2100 E1169.97578
G0 F12000 X183.074 Y181.902
G1 F2100 E1170.37578
G1 F3600 X183.646 Y182.232 E1170.40323
G1 F2100 E1170.00323
G0 F12000 X183.645 Y190.677
G1 F2100 E1170.40323
G1 F3600 X183.075 Y191.006 E1170.43060
G1 F2100 E1170.03060
G0 F12000 X183.075 Y193.221
G1 F2100 E1170.43060
G1 F3600 X183.647 Y193.551 E1170.45805
G1 F2100 E1170.05805
G0 F12000 X183.645 Y201.995
G1 F2100 E1170.45805
G1 F3600 X183.075 Y202.324 E1170.48541
G1 F2100 E1170.08541
G0 F12000 X183.075 Y204.539
G1 F2100 E1170.48541
G1 F3600 X183.647 Y204.869 E1170.51287
G1 F2100 E1170.11287
G0 F12000 X183.645 Y213.313
G1 F2100 E1170.51287
G1 F3600 X183.075 Y213.642 E1170.54023
G1 F2100 E1170.14023
G0 F12000 X183.076 Y215.858
G1 F2100 E1170.54023
G1 F3600 X183.646 Y216.188 E1170.56761
G1 F2100 E1170.16761
G0 F12000 X182.500 Y222.757
;TYPE:SKIN
G1 F2100 E1170.56761
G1 F3600 X182.500 Y82.242 E1176.40955
G0 F12000 X183.000 Y81.958
G1 F3600 X183.000 Y223.041 E1182.27510
G1 F2100 E1181.87510
G0 F12000 X180.000 Y224.624
;TYPE:SUPPORT
G1 F2100 E1182.27510
G1 F3600 X180.000 Y80.178 E1188.28046
G1 F2100 E1187.88046
G0 F12000 X180.000 Y78.623
G1 F2100 E1188.28046
G1 F3600 X180.000 Y75.826 E1188.39675
G1 F2100 E1187.99675
G0 F12000 X176.000 Y75.826
G1 F2100 E1188.39675
G1 F3600 X176.000 Y229.176 E1194.77230
G1 F2100 E1194.37230
G0 F12000 X172.000 Y229.176
G1 F2100 E1194.77230
G1 F3600 X172.000 Y155.158 E1197.84961
G1 F2100 E1197.44961
G0 F12000 X168.000 Y153.980
G1 F2100 E1197.84961
G1 F3600 X168.000 Y229.176 E1200.97590
G1 F2100 E1200.57590
G0 F12000 X164.000 Y229.176
G1 F2100 E1200.97590
G1 F3600 X164.000 Y75.826 E1207.35145
G1 F2100 E1206.95145
G0 F12000 X160.000 Y75.826
G1 F2100 E1207.35145
G1 F3600 X160.000 Y229.176 E1213.72700
G1 F2100 E1213.32700
G0 F12000 X156.000 Y229.176
G1 F2100 E1213.72700
G1 F3600 X156.000 Y154.331 E1216.83870
G1 F2100 E1216.43870
G0 F12000 X156.000 Y150.671
G1 F2100 E1216.83870
G1 F3600 X156.000 Y103.531 E1218.79855
G1 F2100 E1218.39855
G0 F12000 X152.000 Y104.210
G1 F2100 E1218.79855
G1 F3600 X152.000 Y149.794 E1220.69371
G1 F2100 E1220.29371
G0 F12000 X152.000 Y155.010
G1 F2100 E1220.69371
G1 F3600 X152.000 Y229.176 E1223.77718
G1 F2100 E1223.37718
G0 F12000 X148.000 Y229.176
G1 F2100 E1223.77718
G1 F3600 X148.000 Y75.826 E1230.15273
G1 F2100 E1229.75273
G0 F12000 X144.000 Y75.826
G1 F2100 E1230.15273
G1 F3600 X144.000 Y96.115 E1230.99625
G0 F12000 X144.000 Y96.952
G1 F3600 X144.000 Y229.176 E1236.49348
G1 F2100 E1236.09348
G0 F12000 X140.000 Y229.176
G1 F2100 E1236.49348
G1 F3600 X140.000 Y96.921 E1241.99201
G0 F12000 X140.000 Y96.131
G1 F3600 X140.000 Y75.826 E1242.83619
G1 F2100 E1242.43619
G0 F12000 X152.000 Y75.826
G1 F2100 E1242.83619
G1 F3600 X152.000 Y98.994 E1243.79940
G1 F2100 E1243.39940
G0 F12000 X156.000 Y99.871
G1 F2100 E1243.79940
G1 F3600 X156.000 Y75.826 E1244.79908
G1 F2100 E1244.39908
G0 F12000 X168.000 Y75.826
G1 F2100 E1244.79908
G1 F3600 X168.000 Y100.023 E1245.80507
G1 F2100 E1245.40507
G0 F12000 X168.000 Y103.180
G1 F2100 E1245.80507
G1 F3600 X168.000 Y150.823 E1247.78584
G1 F2100 E1247.38584
G0 F12000 X172.000 Y149.694
G1 F2100 E1247.78584
G1 F3600 X172.000 Y104.358 E1249.67069
G1 F2100 E1249.27069
G0 F12000 X172.000 Y98.893
G1 F2100 E1249.67069
G1 F3600 X172.000 Y75.826 E1250.62971
G1 F2100 E1250.22971
G0 F12000 X136.000 Y75.826
G1 F2100 E1250.62971
G1 F3600 X136.000 Y96.146 E1251.47451
G0 F12000 X136.000 Y96.889
G1 F3600 X136.000 Y229.176 E1256.97437
G1 F2100 E1256.57437
G0 F12000 X132.000 Y229.176
G1 F2100 E1256.97437
G1 F3600 X132.000 Y96.858 E1262.47551
G0 F12000 X132.000 Y96.162
G1 F3600 X132.000 Y75.826 E1263.32098
G1 F2100 E1262.92098
G0 F12000 X128.000 Y75.826
G1 F2100 E1263.32098
G1 F3600 X128.000 Y229.176 E1269.69654
G1 F2100 E1269.29654
G0 F12000 X180.000 Y229.117
G1 F2100 E1269.69654
G1 F3600 X180.000 Y226.179 E1269.81868
;LAYER:7
M106 S73
G1 F2100 E1269.41868
G0 F12000 X123.508 Y222.643 Z1.600
;TYPE:WALL-INNER
G1 F2100 E1269.81868
G1 F3600 X123.229 Y222.675 E1269.83036
G1 X122.727 Y222.813 E1269.85200
G1 X122.251 Y223.027 E1269.87370
G1 X121.819 Y223.313 E1269.89524
G1 X121.442 Y223.664 E1269.91666
G1 X121.133 Y224.074 E1269.93800
G1 X121.077 Y224.185 E1269.94317
G1 X121.077 Y80.815 E1275.90380
G1 X121.133 Y80.926 E1275.90897
G1 X121.442 Y81.336 E1275.93032
G1 X121.819 Y81.687 E1275.95173
G1 X122.251 Y81.973 E1275.97327
G1 X122.727 Y82.187 E1275.99497
G1 X123.229 Y82.325 E1276.01661
G1 X123.509 Y82.357 E1276.02833
G1 X123.595 Y120.948 E1277.63276
G1 X123.606 Y124.109 E1277.76418
G1 X123.580 Y135.496 E1278.23760
G1 X123.584 Y137.723 E1278.33019
G1 X123.641 Y154.735 E1279.03747
G1 X123.588 Y172.855 E1279.79081
G1 X123.508 Y222.643 E1281.86076
G0 F12000 X123.771 Y223.116
;TYPE:WALL-OUTER
G1 F3600 X123.324 Y223.168 E1281.87947
G1 X122.896 Y223.285 E1281.89792
G1 X122.493 Y223.466 E1281.91628
G1 X122.130 Y223.707 E1281.93440
G1 X121.815 Y224.000 E1281.95229
G1 X121.559 Y224.339 E1281.96995
G1 X121.370 Y224.713 E1281.98737
G1 X121.252 Y225.113 E1282.00471
G1 X121.214 Y225.525 E1282.02191
G1 X121.252 Y225.936 E1282.03907
G1 X121.370 Y226.336 E1282.05641
G1 X121.559 Y226.710 E1282.07383
G1 X121.815 Y227.049 E1282.09149
G1 X122.130 Y227.342 E1282.10938
G1 X122.493 Y227.583 E1282.12749
G1 X122.896 Y227.764 E1282.14586
G1 X123.324 Y227.881 E1282.16431
G1 X123.771 Y227.933 E1282.18301
G1 X124.020 Y227.923 E1282.19338
G1 X124.047 Y228.449 E1282.21527
G1 X123.175 Y228.449 E1282.25153
G1 X122.760 Y228.420 E1282.26882
G1 X122.369 Y228.336 E1282.28545
G1 X121.979 Y228.192 E1282.30273
G1 X121.636 Y228.004 E1282.31899
G1 X121.330 Y227.771 E1282.33498
G1 X121.064 Y227.493 E1282.35098
G1 X120.855 Y227.188 E1282.36635
G1 X120.701 Y226.856 E1282.38157
G1 X120.609 Y226.515 E1282.39625
G1 X120.577 Y226.149 E1282.41153
G1 X120.577 Y78.852 E1288.53543
G1 X120.609 Y78.485 E1288.55074
G1 X120.701 Y78.144 E1288.56543
G1 X120.855 Y77.812 E1288.58064
G1 X121.064 Y77.507 E1288.59601
G1 X121.330 Y77.229 E1288.61201
G1 X121.636 Y76.996 E1288.62800
G1 X121.979 Y76.808 E1288.64426
G1 X122.369 Y76.664 E1288.66155
G1 X122.760 Y76.580 E1288.67817
G1 X123.175 Y76.551 E1288.69547
G1 X124.048 Y76.551 E1288.73176
G1 X124.022 Y77.077 E1288.75366
G1 X123.771 Y77.067 E1288.76410
G1 X123.324 Y77.119 E1288.78281
G1 X122.896 Y77.236 E1288.80126
G1 X122.493 Y77.417 E1288.81963
G1 X122.130 Y77.658 E1288.83774
G1 X121.815 Y77.951 E1288.85563
G1 X121.559 Y78.290 E1288.87329
G1 X121.370 Y78.664 E1288.89071
G1 X121.252 Y79.064 E1288.90805
G1 X121.214 Y79.476 E1288.92525
G1 X121.252 Y79.887 E1288.94241
G1 X121.370 Y80.287 E1288.95975
G1 X121.559 Y80.661 E1288.97717
G1 X121.815 Y81.000 E1288.99483
G1 X122.130 Y81.293 E1289.01272
G1 X122.493 Y81.534 E1289.03083
G1 X122.896 Y81.715 E1289.04920
G1 X123.324 Y81.832 E1289.06765
G1 X123.771 Y81.884 E1289.08636
G1 X124.008 Y81.874 E1289.09622
G1 X124.106 Y124.110 E1290.85219
G1 X124.080 Y135.496 E1291.32557
G1 X124.141 Y154.737 E1292.12552
G1 X124.008 Y223.125 E1294.96877
G1 X123.771 Y223.116 E1294.97863
G1 F2100 E1294.57863
G0 F12000 X122.343 Y216.572
;TYPE:FILL
G1 F2100 E1294.97863
G1 F3600 X121.251 Y215.942 E1295.03104
G1 F2100 E1294.63104
G0 F12000 X121.251 Y213.558
G1 F2100 E1295.03104
G1 F3600 X122.342 Y212.928 E1295.08342
G1 F2100 E1294.68342
G0 F12000 X122.342 Y205.254
G1 F2100 E1295.08342
G1 F3600 X121.251 Y204.624 E1295.13580
G1 F2100 E1294.73580
G0 F12000 X121.252 Y202.239
G1 F2100 E1295.13580
G1 F3600 X122.342 Y201.610 E1295.18812
G1 F2100 E1294.78812
G0 F12000 X122.342 Y193.935
G1 F2100 E1295.18812
G1 F3600 X121.250 Y193.305 E1295.24053
G1 F2100 E1294.84053
G0 F12000 X121.252 Y190.921
G1 F2100 E1295.24053
G1 F3600 X122.341 Y190.292 E1295.29282
G1 F2100 E1294.89282
G0 F12000 X122.342 Y182.617
G1 F2100 E1295.29282
G1 F3600 X121.250 Y181.987 E1295.34523
G1 F2100 E1294.94523
G0 F12000 X121.252 Y179.603
G1 F2100 E1295.34523
G1 F3600 X122.341 Y178.974 E1295.39752
G1 F2100 E1294.99752
G0 F12000 X122.342 Y171.298
G1 F2100 E1295.39752
G1 F3600 X121.251 Y170.668 E1295.44989
G1 F2100 E1295.04989
G0 F12000 X121.252 Y168.284
G1 F2100 E1295.44989
G1 F3600 X122.340 Y167.656 E1295.50212
G1 F2100 E1295.10212
G0 F12000 X122.341 Y159.980
G1 F2100 E1295.50212
G1 F3600 X121.251 Y159.350 E1295.55446
G1 F2100 E1295.15446
G0 F12000 X121.251 Y156.966
G1 F2100 E1295.55446
G1 F3600 X122.340 Y156.338 E1295.60673
G1 F2100 E1295.20673
G0 F12000 X122.340 Y148.661
G1 F2100 E1295.60673
G1 F3600 X121.251 Y148.032 E1295.65901
G1 F2100 E1295.25901
G0 F12000 X121.251 Y145.648
G1 F2100 E1295.65901
G1 F3600 X122.340 Y145.019 E1295.71130
G1 F2100 E1295.31130
G0 F12000 X122.341 Y137.343
G1 F2100 E1295.71130
G1 F3600 X121.250 Y136.713 E1295.76368
G1 F2100 E1295.36368
G0 F12000 X121.251 Y134.329
G1 F2100 E1295.76368
G1 F3600 X122.339 Y133.701 E1295.81590
G1 F2100 E1295.41590
G0 F12000 X122.340 Y126.024
G1 F2100 E1295.81590
G1 F3600 X121.250 Y125.395 E1295.86823
G1 F2100 E1295.46823
G0 F12000 X121.251 Y123.011
G1 F2100 E1295.86823
G1 F3600 X122.339 Y122.383 E1295.92045
G1 F2100 E1295.52045
G0 F12000 X122.339 Y114.705
G1 F2100 E1295.92045
G1 F3600 X121.251 Y114.076 E1295.97270
G1 F2100 E1295.57270
G0 F12000 X121.252 Y111.692
G1 F2100 E1295.97270
G1 F3600 X122.339 Y111.065 E1296.02487
G1 F2100 E1295.62487
G0 F12000 X122.339 Y103.387
G1 F2100 E1296.02487
G1 F3600 X121.251 Y102.758 E1296.07712
G1 F2100 E1295.67712
G0 F12000 X121.252 Y100.374
G1 F2100 E1296.07712
G1 F3600 X122.338 Y99.747 E1296.12926
G1 F2100 E1295.72926
G0 F12000 X122.339 Y92.068
G1 F2100 E1296.12926
G1 F3600 X121.251 Y91.440 E1296.18149
G1 F2100 E1295.78149
G0 F12000 X121.251 Y89.056
G1 F2100 E1296.18149
G1 F3600 X122.337 Y88.429 E1296.23362
G0 F12000 X121.689 Y88.500
;TYPE:SKIN
G1 F3600 X123.333 Y88.500 E1296.30197
G0 F12000 X123.333 Y89.000
G1 F3600 X121.689 Y89.000 E1296.37032
G0 F12000 X121.554 Y89.000
G1 F3600 X121.251 Y89.250 E1296.38293
G1 X121.554 Y89.500 E1296.39926
G0 F12000 X121.689 Y89.500
G1 F3600 X123.333 Y89.500 E1296.46761
G0 F12000 X123.333 Y90.000
G1 F3600 X121.689 Y90.000 E1296.53596
G0 F12000 X121.554 Y90.000
G1 F3600 X121.251 Y90.250 E1296.54857
G1 X121.554 Y90.500 E1296.56490
G0 F12000 X121.689 Y90.500
G1 F3600 X123.333 Y90.500 E1296.63325
G0 F12000 X123.333 Y91.000
G1 F3600 X121.689 Y91.000 E1296.70160
G0 F12000 X121.554 Y91.000
G1 F3600 X121.251 Y91.250 E1296.71421
G1 X121.554 Y91.500 E1296.73054
G0 F12000 X121.689 Y91.500
G1 F3600 X123.333 Y91.500 E1296.79889
G0 F12000 X123.333 Y92.000
G1 F3600 X121.689 Y92.000 E1296.86724
G0 F12000 X121.554 Y92.000
G1 F3600 X121.251 Y92.250 E1296.87985
G1 X121.554 Y92.500 E1296.89618
G0 F12000 X121.689 Y92.500
G1 F3600 X123.333 Y92.500 E1296.96453
G0 F12000 X123.333 Y93.000
G1 F3600 X121.689 Y93.000 E1297.03288
G0 F12000 X121.554 Y93.000
G1 F3600 X121.251 Y93.250 E1297.04548
G1 X121.554 Y93.500 E1297.06182
G0 F12000 X121.689 Y93.500
G1 F3600 X123.333 Y93.500 E1297.13017
G0 F12000 X123.333 Y94.000
G1 F3600 X121.689 Y94.000 E1297.19851
G0 F12000 X121.554 Y94.000
G1 F3600 X121.251 Y94.250 E1297.21112
G1 X121.554 Y94.500 E1297.22745
G0 F12000 X121.689 Y94.500
G1 F3600 X123.333 Y94.500 E1297.29580
G0 F12000 X123.333 Y95.000
G1 F3600 X121.689 Y95.000 E1297.36415
G0 F12000 X121.554 Y95.000
G1 F3600 X121.251 Y95.250 E1297.37676
G1 X121.554 Y95.500 E1297.39309
G0 F12000 X121.689 Y95.500
G1 F3600 X123.333 Y95.500 E1297.46144
G0 F12000 X123.333 Y96.000
G1 F3600 X121.689 Y96.000 E1297.52979
G0 F12000 X121.554 Y96.000
G1 F3600 X121.251 Y96.250 E1297.54240
G1 X121.554 Y96.500 E1297.55873
G0 F12000 X121.689 Y96.500
G1 F3600 X123.333 Y96.500 E1297.62708
G0 F12000 X123.333 Y97.000
G1 F3600 X121.689 Y97.000 E1297.69543
G0 F12000 X121.554 Y97.000
G1 F3600 X121.251 Y97.250 E1297.70804
G1 X121.554 Y97.500 E1297.72437
G0 F12000 X121.689 Y97.500
G1 F3600 X123.333 Y97.500 E1297.79272
G0 F12000 X123.333 Y98.000
G1 F3600 X121.689 Y98.000 E1297.86107
G0 F12000 X121.554 Y98.000
G1 F3600 X121.251 Y98.250 E1297.87368
G1 X121.554 Y98.500 E1297.89001
G0 F12000 X121.689 Y98.500
G1 F3600 X123.333 Y98.500 E1297.95836
G0 F12000 X123.333 Y99.000
G1 F3600 X121.689 Y99.000 E1298.02671
G0 F12000 X121.554 Y99.000
G1 F3600 X121.251 Y99.250 E1298.03932
G1 X121.554 Y99.500 E1298.05565
G0 F12000 X121.689 Y99.500
G1 F3600 X123.333 Y99.500 E1298.12400
G1 F2100 E1297.72400
G0 F12000 X121.554 Y88.500
G1 F2100 E1298.12400
G1 F3600 X121.251 Y88.250 E1298.13661
G1 X121.554 Y88.000 E1298.15294
G0 F12000 X121.689 Y88.000
G1 F3600 X123.333 Y88.000 E1298.22129
G0 F12000 X123.333 Y87.500
G1 F3600 X121.689 Y87.500 E1298.28964
G0 F12000 X121.554 Y87.500
G1 F3600 X121.251 Y87.250 E1298.30225
G1 X121.554 Y87.000 E1298.31858
G0 F12000 X121.689 Y87.000
G1 F3600 X123.333 Y87.000 E1298.38693
G0 F12000 X123.333 Y86.500
G1 F3600 X121.689 Y86.500 E1298.45528
G0 F12000 X121.554 Y86.500
G1 F3600 X121.251 Y86.250 E1298.46788
G1 X121.554 Y86.000 E1298.48422
G0 F12000 X121.689 Y86.000
G1 F3600 X123.333 Y86.000 E1298.55257
G0 F12000 X123.333 Y85.500
G1 F3600 X121.689 Y85.500 E1298.62091
G0 F12000 X121.554 Y85.500
G1 F3600 X121.251 Y85.250 E1298.63352
G1 X121.554 Y85.000 E1298.64985
G0 F12000 X121.689 Y85.000
G1 F3600 X123.333 Y85.000 E1298.71820
G0 F12000 X123.333 Y84.500
G1 F3600 X121.689 Y84.500 E1298.78655
G0 F12000 X121.554 Y84.500
G1 F3600 X121.251 Y84.250 E1298.79916
G1 X121.554 Y84.000 E1298.81549
G0 F12000 X121.689 Y84.000
G1 F3600 X123.333 Y84.000 E1298.88384
G0 F12000 X123.333 Y83.500
G1 F3600 X121.689 Y83.500 E1298.95219
G0 F12000 X121.554 Y83.500
G1 F3600 X121.251 Y83.250 E1298.96480
G1 X121.554 Y83.000 E1298.98113
G0 F12000 X121.689 Y83.000
G1 F3600 X123.333 Y83.000 E1299.04948
G0 F12000 X123.233 Y82.500
G1 F3600 X121.689 Y82.500 E1299.11367
G0 F12000 X121.554 Y82.500
G1 F3600 X121.251 Y82.250 E1299.12628
G1 X121.621 Y82.000 E1299.13887
G1 X121.976 Y82.000 E1299.15363
G1 F2100 E1298.75363
G0 F12000 X121.689 Y100.000
G1 F2100 E1299.15363
G1 F3600 X123.333 Y100.000 E1299.22198
G0 F12000 X123.333 Y100.500
G1 F3600 X121.689 Y100.500 E1299.29033
G0 F12000 X121.554 Y100.500
G1 F3600 X121.251 Y100.750 E1299.30294
G1 X121.554 Y101.000 E1299.31927
G0 F12000 X121.689 Y101.000
G1 F3600 X123.333 Y101.000 E1299.38762
G0 F12000 X123.333 Y101.500
G1 F3600 X121.689 Y101.500 E1299.45597
G0 F12000 X121.554 Y101.500
G1 F3600 X121.251 Y101.750 E1299.46857
G1 X121.554 Y102.000 E1299.48491
G0 F12000 X121.689 Y102.000
G1 F3600 X123.333 Y102.000 E1299.55326
G0 F12000 X123.333 Y102.500
G1 F3600 X121.689 Y102.500 E1299.62160
G0 F12000 X121.554 Y102.500
G1 F3600 X121.251 Y102.750 E1299.63421
G1 X121.554 Y103.000 E1299.65054
G0 F12000 X121.689 Y103.000
G1 F3600 X123.333 Y103.000 E1299.71889
G0 F12000 X123.333 Y103.500
G1 F3600 X121.689 Y103.500 E1299.78724
G0 F12000 X121.554 Y103.500
G1 F3600 X121.251 Y103.750 E1299.79985
G1 X121.554 Y104.000 E1299.81618
G0 F12000 X121.689 Y104.000
G1 F3600 X123.333 Y104.000 E1299.88453
G0 F12000 X123.333 Y104.500
G1 F3600 X121.689 Y104.500 E1299.95288
G0 F12000 X121.554 Y104.500
G1 F3600 X121.251 Y104.750 E1299.96549
G1 X121.554 Y105.000 E1299.98182
G0 F12000 X121.689 Y105.000
G1 F3600 X123.333 Y105.000 E1300.05017
G0 F12000 X123.333 Y105.500
G1 F3600 X121.689 Y105.500 E1300.11852
G0 F12000 X121.554 Y105.500
G1 F3600 X121.251 Y105.750 E1300.13113
G1 X121.554 Y106.000 E1300.14746
G0 F12000 X121.689 Y106.000
G1 F3600 X123.333 Y106.000 E1300.21581
G0 F12000 X123.333 Y106.500
G1 F3600 X121.689 Y106.500 E1300.28416
G0 F12000 X121.554 Y106.500
G1 F3600 X121.251 Y106.750 E1300.29677
G1 X121.554 Y107.000 E1300.31310
G0 F12000 X121.689 Y107.000
G1 F3600 X123.333 Y107.000 E1300.38145
G0 F12000 X123.333 Y107.500
G1 F3600 X121.689 Y107.500 E1300.44980
G0 F12000 X121.554 Y107.500
G1 F3600 X121.251 Y107.750 E1300.46241
G1 X121.554 Y108.000 E1300.47874
G0 F12000 X121.689 Y108.000
G1 F3600 X123.333 Y108.000 E1300.54709
G0 F12000 X123.333 Y108.500
G1 F3600 X121.689 Y108.500 E1300.61544
G0 F12000 X121.554 Y108.500
G1 F3600 X121.251 Y108.750 E1300.62805
G1 X121.554 Y109.000 E1300.64438
G0 F12000 X121.689 Y109.000
G1 F3600 X123.333 Y109.000 E1300.71273
G0 F12000 X123.333 Y109.500
G1 F3600 X121.689 Y109.500 E1300.78108
G0 F12000 X121.554 Y109.500
G1 F3600 X121.251 Y109.750 E1300.79368
G1 X121.554 Y110.000 E1300.81002
G0 F12000 X121.689 Y110.000
G1 F3600 X123.333 Y110.000 E1300.87837
G0 F12000 X123.333 Y110.500
G1 F3600 X121.689 Y110.500 E1300.94672
G0 F12000 X121.554 Y110.500
G1 F3600 X121.251 Y110.750 E1300.95932
G1 X121.554 Y111.000 E1300.97565
G0 F12000 X121.689 Y111.000
G1 F3600 X123.333 Y111.000 E1301.04400
G0 F12000 X123.333 Y111.500
G1 F3600 X121.689 Y111.500 E1301.11235
G0 F12000 X121.554 Y111.500
G1 F3600 X121.251 Y111.750 E1301.12496
G1 X121.554 Y112.000 E1301.14129
G0 F12000 X121.689 Y112.000
G1 F3600 X123.333 Y112.000 E1301.20964
G0 F12000 X123.333 Y112.500
G1 F3600 X121.689 Y112.500 E1301.27799
G0 F12000 X121.554 Y112.500
G1 F3600 X121.251 Y112.750 E1301.29060
G1 X121.554 Y113.000 E1301.30693
G0 F12000 X121.689 Y113.000
G1 F3600 X123.333 Y113.000 E1301.37528
G0 F12000 X123.333 Y113.500
G1 F3600 X121.689 Y113.500 E1301.44363
G0 F12000 X121.554 Y113.500
G1 F3600 X121.251 Y113.750 E1301.45624
G1 X121.554 Y114.000 E1301.47257
G0 F12000 X121.689 Y114.000
G1 F3600 X123.333 Y114.000 E1301.54092
G0 F12000 X123.333 Y114.500
G1 F3600 X121.689 Y114.500 E1301.60927
G0 F12000 X121.554 Y114.500
G1 F3600 X121.251 Y114.750 E1301.62188
G1 X121.554 Y115.000 E1301.63821
G0 F12000 X121.689 Y115.000
G1 F3600 X123.333 Y115.000 E1301.70656
G0 F12000 X123.333 Y115.500
G1 F3600 X121.689 Y115.500 E1301.77491
G0 F12000 X121.554 Y115.500
G1 F3600 X121.251 Y115.750 E1301.78752
G1 X121.554 Y116.000 E1301.80385
G0 F12000 X121.689 Y116.000
G1 F3600 X123.333 Y116.000 E1301.87220
